;FLAVOR:Marlin
;TIME:3232
;Filament used: 3.0349m
;Layer height: 0.2
;Generated with Cura_SteamEngine 3.6.0
M140 S60
M105
M190 S60
M104 S200
M105
M109 S200
M82 ;absolute extrusion mode
G28 ;Home
G1 Z15.0 F6000 ;Move the platform down 15mm
;Prime the extruder
G92 E0
G1 F200 E3
G92 E0
G92 E0
G1 F2400 E-5
;LAYER_COUNT:76
;LAYER:0
M107
M204 S5000
M205 X30 Y30
G0 F3600 X77.546 Y203.606 Z0.2
M204 S500
M205 X20 Y20
;TYPE:SKIRT
G1 F2400 E0
G1 F1800 X78.214 Y203.351 E0.02378
G1 X78.907 Y203.172 E0.04759
G1 X79.615 Y203.072 E0.07137
G1 X80.157 Y203.049 E0.08941
G1 X115.144 Y203.05 E1.25308
G1 X115.858 Y203.09 E1.27687
G1 X116.564 Y203.209 E1.30068
G1 X117.251 Y203.407 E1.32446
G1 X117.912 Y203.68 E1.34825
G1 X118.539 Y204.025 E1.37205
G1 X119.123 Y204.437 E1.39582
G1 X119.658 Y204.913 E1.41964
G1 X120.136 Y205.445 E1.44343
G1 X120.478 Y205.913 E1.46271
G1 X121.638 Y207.661 E1.53248
G1 X124.759 Y211.998 E1.7102
G1 X128.118 Y216.147 E1.88775
G1 X129.939 Y218.212 E1.97932
G1 X130.382 Y218.774 E2.00312
G1 X130.759 Y219.382 E2.02692
G1 X131.065 Y220.028 E2.05069
G1 X131.298 Y220.705 E2.07451
G1 X131.454 Y221.403 E2.0983
G1 X131.539 Y222.443 E2.133
G1 X131.54 Y226.429 E2.26558
G1 X131.5 Y227.144 E2.28939
G1 X131.381 Y227.849 E2.31317
G1 X131.184 Y228.536 E2.33694
G1 X130.911 Y229.198 E2.36076
G1 X130.566 Y229.824 E2.38454
G1 X130.154 Y230.409 E2.40833
G1 X129.679 Y230.943 E2.4321
G1 X129.147 Y231.422 E2.45591
G1 X128.565 Y231.837 E2.47969
G1 X127.94 Y232.186 E2.5035
G1 X127.281 Y232.462 E2.52726
G1 X126.594 Y232.664 E2.55108
G1 X125.89 Y232.787 E2.57485
G1 X125.139 Y232.831 E2.59987
G1 X111.141 Y232.829 E3.06544
G1 X110.399 Y232.786 E3.09016
G1 X106.949 Y232.382 E3.2057
G1 X101.628 Y232.004 E3.38312
G1 X96.343 Y231.929 E3.55892
G1 X91.067 Y232.151 E3.73455
G1 X84.803 Y232.796 E3.944
G1 X84.147 Y232.83 E3.96584
G1 X70.158 Y232.831 E4.43112
G1 X69.444 Y232.791 E4.4549
G1 X68.739 Y232.672 E4.47868
G1 X68.052 Y232.474 E4.50246
G1 X67.39 Y232.202 E4.52627
G1 X66.764 Y231.857 E4.55004
G1 X66.179 Y231.444 E4.57386
G1 X65.645 Y230.969 E4.59763
G1 X65.167 Y230.437 E4.62142
G1 X64.751 Y229.855 E4.64521
G1 X64.403 Y229.23 E4.669
G1 X64.126 Y228.571 E4.69278
G1 X63.925 Y227.884 E4.71659
G1 X63.802 Y227.18 E4.74036
G1 X63.758 Y226.429 E4.76538
G1 X63.759 Y222.442 E4.89799
G1 X63.799 Y221.728 E4.92177
G1 X63.919 Y221.023 E4.94556
G1 X64.116 Y220.336 E4.96933
G1 X64.389 Y219.675 E4.99311
G1 X64.734 Y219.048 E5.01692
G1 X65.321 Y218.255 E5.04973
G1 X68.279 Y214.839 E5.20003
G1 X69.898 Y212.824 E5.286
G1 X73.091 Y208.491 E5.46502
G1 X74.844 Y205.881 E5.56959
G1 X75.276 Y205.31 E5.5934
G1 X75.768 Y204.791 E5.61719
G1 X76.315 Y204.33 E5.64098
G1 X76.91 Y203.934 E5.66475
G1 X77.546 Y203.606 E5.68855
M204 S5000
M205 X30 Y30
G0 F3600 X77.81 Y203.927
M204 S500
M205 X20 Y20
G1 F1800 X78.462 Y203.693 E5.71159
G1 X79.136 Y203.536 E5.73461
G1 X80.157 Y203.449 E5.76869
G1 X115.144 Y203.45 E6.93237
G1 X115.836 Y203.49 E6.95542
G1 X116.518 Y203.609 E6.97845
G1 X117.182 Y203.807 E7.00149
G1 X117.818 Y204.079 E7.0245
G1 X118.419 Y204.423 E7.04753
G1 X118.977 Y204.834 E7.07058
G1 X119.483 Y205.306 E7.0936
G1 X119.932 Y205.834 E7.11665
G1 X120.144 Y206.134 E7.12887
G1 X121.296 Y207.871 E7.19819
G1 X124.448 Y212.25 E7.37764
G1 X127.812 Y216.406 E7.55548
G1 X129.639 Y218.477 E7.64733
G1 X130.067 Y219.022 E7.67038
G1 X130.428 Y219.612 E7.69339
G1 X130.719 Y220.241 E7.71644
G1 X130.936 Y220.898 E7.73945
G1 X131.076 Y221.577 E7.76251
G1 X131.139 Y222.443 E7.79139
G1 X131.14 Y226.429 E7.92397
G1 X131.1 Y227.121 E7.94702
G1 X130.981 Y227.803 E7.97005
G1 X130.784 Y228.467 E7.99308
G1 X130.512 Y229.104 E8.01612
G1 X130.168 Y229.705 E8.03915
G1 X129.757 Y230.263 E8.0622
G1 X129.285 Y230.769 E8.08522
G1 X128.758 Y231.218 E8.10824
G1 X128.182 Y231.603 E8.13129
G1 X127.566 Y231.919 E8.15431
G1 X126.917 Y232.162 E8.17736
G1 X126.245 Y232.328 E8.20039
G1 X125.558 Y232.416 E8.22342
G1 X125.139 Y232.431 E8.23737
G1 X111.141 Y232.429 E8.70294
G1 X110.445 Y232.388 E8.72613
G1 X106.999 Y231.985 E8.84153
G1 X101.645 Y231.604 E9.02005
G1 X96.349 Y231.529 E9.19622
G1 X91.026 Y231.753 E9.37342
G1 X84.762 Y232.398 E9.58286
G1 X84.147 Y232.43 E9.60334
G1 X70.158 Y232.431 E10.06862
G1 X69.467 Y232.391 E10.09164
G1 X68.785 Y232.272 E10.11467
G1 X68.121 Y232.075 E10.1377
G1 X67.484 Y231.802 E10.16075
G1 X66.883 Y231.458 E10.18378
G1 X66.326 Y231.048 E10.20679
G1 X65.819 Y230.575 E10.22985
G1 X65.371 Y230.048 E10.25286
G1 X64.986 Y229.472 E10.2759
G1 X64.67 Y228.856 E10.29893
G1 X64.427 Y228.207 E10.32198
G1 X64.26 Y227.535 E10.34501
G1 X64.173 Y226.848 E10.36804
G1 X64.158 Y226.429 E10.38198
G1 X64.159 Y222.442 E10.51459
G1 X64.199 Y221.751 E10.53761
G1 X64.319 Y221.069 E10.56064
G1 X64.516 Y220.405 E10.58368
G1 X64.789 Y219.769 E10.6067
G1 X65.133 Y219.168 E10.62973
G1 X65.623 Y218.517 E10.65683
G1 X68.586 Y215.095 E10.80739
G1 X70.224 Y213.056 E10.89438
G1 X73.412 Y208.73 E11.07311
G1 X75.176 Y206.104 E11.17833
G1 X75.595 Y205.552 E11.20138
G1 X76.074 Y205.052 E11.22441
G1 X76.608 Y204.611 E11.24744
G1 X77.189 Y204.234 E11.27048
G1 X77.81 Y203.927 E11.29352
M204 S5000
M205 X30 Y30
G0 F3600 X78.071 Y204.252
M204 S500
M205 X20 Y20
G1 F1800 X78.706 Y204.04 E11.31578
G1 X79.361 Y203.906 E11.33802
G1 X80.157 Y203.849 E11.36456
G1 X115.144 Y203.85 E12.52823
G1 X115.812 Y203.89 E12.55049
G1 X116.47 Y204.009 E12.57273
G1 X117.11 Y204.206 E12.595
G1 X117.721 Y204.478 E12.61725
G1 X118.296 Y204.821 E12.63952
G1 X118.825 Y205.23 E12.66176
G1 X119.302 Y205.699 E12.68401
G1 X119.811 Y206.355 E12.71162
G1 X120.971 Y208.103 E12.7814
G1 X124.128 Y212.489 E12.96114
G1 X127.507 Y216.663 E13.13976
G1 X129.339 Y218.741 E13.23189
G1 X129.751 Y219.269 E13.25417
G1 X130.097 Y219.841 E13.2764
G1 X130.372 Y220.451 E13.29866
G1 X130.572 Y221.09 E13.32093
G1 X130.695 Y221.747 E13.34316
G1 X130.739 Y222.444 E13.36639
G1 X130.74 Y226.43 E13.49896
G1 X130.7 Y227.097 E13.52119
G1 X130.581 Y227.756 E13.54346
G1 X130.384 Y228.395 E13.5657
G1 X130.113 Y229.007 E13.58796
G1 X129.77 Y229.581 E13.6102
G1 X129.361 Y230.111 E13.63247
G1 X128.892 Y230.588 E13.65472
G1 X128.37 Y231.006 E13.67696
G1 X127.801 Y231.358 E13.69921
G1 X127.194 Y231.641 E13.72149
G1 X126.559 Y231.848 E13.7437
G1 X125.902 Y231.979 E13.76599
G1 X125.139 Y232.031 E13.79142
G1 X111.141 Y232.029 E14.257
G1 X110.491 Y231.991 E14.27865
G1 X107.03 Y231.586 E14.39455
G1 X101.661 Y231.205 E14.57358
G1 X96.339 Y231.128 E14.7506
G1 X91.017 Y231.353 E14.92777
G1 X84.721 Y232.001 E15.13828
G1 X84.147 Y232.03 E15.1574
G1 X70.158 Y232.031 E15.62268
G1 X69.491 Y231.991 E15.6449
G1 X68.832 Y231.872 E15.66717
G1 X68.193 Y231.675 E15.68941
G1 X67.582 Y231.403 E15.71166
G1 X67.007 Y231.06 E15.73393
G1 X66.477 Y230.652 E15.75617
G1 X66 Y230.182 E15.77845
G1 X65.583 Y229.66 E15.80067
G1 X65.23 Y229.091 E15.82294
G1 X64.948 Y228.485 E15.84517
G1 X64.74 Y227.849 E15.86743
G1 X64.61 Y227.192 E15.8897
G1 X64.558 Y226.43 E15.9151
G1 X64.559 Y222.443 E16.04771
G1 X64.599 Y221.775 E16.06997
G1 X64.719 Y221.116 E16.09225
G1 X64.916 Y220.477 E16.11449
G1 X65.188 Y219.866 E16.13673
G1 X65.531 Y219.291 E16.159
G1 X65.925 Y218.778 E16.18052
G1 X68.915 Y215.325 E16.33244
G1 X70.532 Y213.312 E16.41832
G1 X73.741 Y208.958 E16.59821
G1 X75.508 Y206.327 E16.70362
G1 X75.914 Y205.794 E16.72591
G1 X76.38 Y205.315 E16.74814
G1 X76.9 Y204.894 E16.77039
G1 X77.466 Y204.538 E16.79263
G1 X78.071 Y204.252 E16.81489
M204 S5000
M205 X30 Y30
G0 F3600 X78.33 Y204.581
M204 S500
M205 X20 Y20
G1 F1800 X78.946 Y204.392 E16.83632
G1 X79.581 Y204.281 E16.85776
G1 X80.157 Y204.249 E16.87694
G1 X115.144 Y204.25 E18.04062
G1 X115.788 Y204.29 E18.06208
G1 X116.421 Y204.409 E18.0835
G1 X117.035 Y204.606 E18.10495
G1 X117.62 Y204.877 E18.12639
G1 X118.167 Y205.219 E18.14785
G1 X118.667 Y205.625 E18.16927
G1 X119.113 Y206.091 E18.19072
G1 X119.478 Y206.576 E18.21091
G1 X120.654 Y208.348 E18.28165
G1 X123.799 Y212.718 E18.46072
G1 X127.213 Y216.935 E18.64118
G1 X129.039 Y219.006 E18.73301
G1 X129.435 Y219.515 E18.75446
G1 X129.764 Y220.069 E18.77589
G1 X130.023 Y220.66 E18.79736
G1 X130.206 Y221.278 E18.81879
G1 X130.312 Y221.914 E18.84024
G1 X130.339 Y222.444 E18.85789
G1 X130.34 Y226.43 E18.99046
G1 X130.3 Y227.073 E19.01189
G1 X130.181 Y227.707 E19.03335
G1 X129.984 Y228.321 E19.05479
G1 X129.713 Y228.906 E19.07624
G1 X129.372 Y229.452 E19.09765
G1 X128.966 Y229.953 E19.1191
G1 X128.501 Y230.399 E19.14053
G1 X127.984 Y230.785 E19.16199
G1 X127.423 Y231.103 E19.18343
G1 X126.827 Y231.35 E19.20489
G1 X126.206 Y231.521 E19.22631
G1 X125.568 Y231.613 E19.24775
G1 X125.139 Y231.631 E19.26204
G1 X111.141 Y231.629 E19.72761
G1 X110.538 Y231.594 E19.7477
G1 X107.062 Y231.188 E19.8641
G1 X101.677 Y230.805 E20.04366
G1 X96.328 Y230.728 E20.22158
G1 X90.992 Y230.953 E20.39922
G1 X84.68 Y231.603 E20.61027
G1 X84.147 Y231.63 E20.62802
G1 X70.158 Y231.631 E21.09329
G1 X69.515 Y231.591 E21.11472
G1 X68.881 Y231.472 E21.13617
G1 X68.267 Y231.275 E21.15762
G1 X67.683 Y231.004 E21.17904
G1 X67.136 Y230.663 E21.20047
G1 X66.635 Y230.256 E21.22194
G1 X66.189 Y229.791 E21.24337
G1 X65.804 Y229.274 E21.26481
G1 X65.486 Y228.713 E21.28626
G1 X65.239 Y228.118 E21.30769
G1 X65.068 Y227.496 E21.32914
G1 X64.976 Y226.858 E21.35058
G1 X64.958 Y226.43 E21.36483
G1 X64.959 Y222.443 E21.49744
G1 X64.999 Y221.799 E21.5189
G1 X65.119 Y221.166 E21.54033
G1 X65.315 Y220.552 E21.56177
G1 X65.587 Y219.967 E21.58322
G1 X65.928 Y219.42 E21.60466
G1 X66.228 Y219.04 E21.62076
G1 X69.22 Y215.584 E21.7728
G1 X70.841 Y213.568 E21.85884
G1 X74.069 Y209.186 E22.03987
G1 X75.84 Y206.55 E22.14549
G1 X76.232 Y206.038 E22.16694
G1 X76.685 Y205.578 E22.18841
G1 X77.19 Y205.178 E22.20984
G1 X77.741 Y204.844 E22.23127
G1 X78.33 Y204.581 E22.25272
M204 S5000
M205 X30 Y30
G1 F2400 E17.25272
;MESH:Akkuhalterung2.stl
G0 F3600 X80.763 Y208.775
G0 X80.763 Y210.054
G0 X111.777 Y211.812
G0 X114.479 Y223.11
G0 X114.549 Y223.04
M204 S500
M205 X20 Y20
;TYPE:WALL-INNER
G1 F2400 E22.25272
G1 F1800 X124.549 Y223.04 E22.58532
G1 X124.549 Y225.84 E22.67845
G1 X111.749 Y225.84 E23.10418
G1 X111.749 Y211.84 E23.56982
G1 X83.549 Y211.84 E24.50776
G1 X83.549 Y225.84 E24.9734
G1 X70.749 Y225.84 E25.39913
G1 X70.749 Y223.04 E25.49226
G1 X80.749 Y223.04 E25.82486
G1 X80.749 Y210.04 E26.25724
G1 X114.549 Y210.04 E27.38143
G1 X114.549 Y223.04 E27.81382
M204 S5000
M205 X30 Y30
G0 F3600 X114.949 Y222.64
M204 S500
M205 X20 Y20
;TYPE:WALL-OUTER
G1 F1800 X124.949 Y222.64 E28.14642
G1 X124.949 Y226.24 E28.26615
G1 X111.349 Y226.24 E28.71849
G1 X111.349 Y212.24 E29.18413
G1 X83.949 Y212.24 E30.09546
G1 X83.949 Y226.24 E30.5611
G1 X70.349 Y226.24 E31.01344
G1 X70.349 Y222.64 E31.13318
G1 X80.349 Y222.64 E31.46578
G1 X80.349 Y209.64 E31.89816
G1 X114.949 Y209.64 E33.04896
G1 X114.949 Y222.64 E33.48134
M204 S5000
M205 X30 Y30
G0 F3600 X115.149 Y222.64
G0 X115.149 Y223.14
G0 X114.159 Y223.43
M204 S500
M205 X20 Y20
;TYPE:SKIN
G1 F1800 X124.159 Y223.43 E33.81394
G1 X124.159 Y225.45 E33.88113
G1 X112.139 Y225.45 E34.28092
G1 X112.139 Y211.45 E34.74656
G1 X83.159 Y211.45 E35.71044
G1 X83.159 Y225.45 E36.17608
G1 X71.139 Y225.45 E36.57587
G1 X71.139 Y223.43 E36.64305
G1 X81.139 Y223.43 E36.97565
G1 X81.139 Y210.43 E37.40803
G1 X114.159 Y210.43 E38.50628
G1 X114.159 Y223.43 E38.93867
M204 S5000
M205 X30 Y30
G0 F3600 X113.979 Y210.711
M204 S500
M205 X20 Y20
G1 F1800 X113.877 Y210.609 E38.94346
M204 S5000
M205 X30 Y30
G0 F3600 X113.311 Y210.609
M204 S500
M205 X20 Y20
G1 F1800 X113.979 Y211.277 E38.97488
M204 S5000
M205 X30 Y30
G0 F3600 X113.979 Y211.842
M204 S500
M205 X20 Y20
G1 F1800 X112.746 Y210.609 E39.03288
M204 S5000
M205 X30 Y30
G0 F3600 X112.18 Y210.609
M204 S500
M205 X20 Y20
G1 F1800 X113.979 Y212.408 E39.1175
M204 S5000
M205 X30 Y30
G0 F3600 X113.979 Y212.974
M204 S500
M205 X20 Y20
G1 F1800 X112.318 Y211.313 E39.19563
M204 S5000
M205 X30 Y30
G0 F3600 X112.273 Y211.268
M204 S500
M205 X20 Y20
G1 F1800 X111.614 Y210.609 E39.22663
M204 S5000
M205 X30 Y30
G0 F3600 X111.048 Y210.609
M204 S500
M205 X20 Y20
G1 F1800 X111.708 Y211.268 E39.25765
M204 S5000
M205 X30 Y30
G0 F3600 X111.142 Y211.268
M204 S500
M205 X20 Y20
G1 F1800 X110.483 Y210.609 E39.28864
M204 S5000
M205 X30 Y30
G0 F3600 X109.917 Y210.609
M204 S500
M205 X20 Y20
G1 F1800 X110.576 Y211.268 E39.31964
M204 S5000
M205 X30 Y30
G0 F3600 X110.01 Y211.268
M204 S500
M205 X20 Y20
G1 F1800 X109.351 Y210.609 E39.35064
M204 S5000
M205 X30 Y30
G0 F3600 X108.786 Y210.609
M204 S500
M205 X20 Y20
G1 F1800 X109.445 Y211.268 E39.38164
M204 S5000
M205 X30 Y30
G0 F3600 X108.879 Y211.268
M204 S500
M205 X20 Y20
G1 F1800 X108.22 Y210.609 E39.41263
M204 S5000
M205 X30 Y30
G0 F3600 X107.654 Y210.609
M204 S500
M205 X20 Y20
G1 F1800 X108.313 Y211.268 E39.44363
M204 S5000
M205 X30 Y30
G0 F3600 X107.748 Y211.268
M204 S500
M205 X20 Y20
G1 F1800 X107.089 Y210.609 E39.47463
M204 S5000
M205 X30 Y30
G0 F3600 X106.523 Y210.609
M204 S500
M205 X20 Y20
G1 F1800 X107.182 Y211.268 E39.50563
M204 S5000
M205 X30 Y30
G0 F3600 X106.616 Y211.268
M204 S500
M205 X20 Y20
G1 F1800 X105.957 Y210.609 E39.53662
M204 S5000
M205 X30 Y30
G0 F3600 X105.392 Y210.609
M204 S500
M205 X20 Y20
G1 F1800 X106.051 Y211.268 E39.56762
M204 S5000
M205 X30 Y30
G0 F3600 X105.485 Y211.268
M204 S500
M205 X20 Y20
G1 F1800 X104.826 Y210.609 E39.59862
M204 S5000
M205 X30 Y30
G0 F3600 X104.26 Y210.609
M204 S500
M205 X20 Y20
G1 F1800 X104.919 Y211.268 E39.62961
M204 S5000
M205 X30 Y30
G0 F3600 X104.354 Y211.268
M204 S500
M205 X20 Y20
G1 F1800 X103.695 Y210.609 E39.66061
M204 S5000
M205 X30 Y30
G0 F3600 X103.129 Y210.609
M204 S500
M205 X20 Y20
G1 F1800 X103.788 Y211.268 E39.69161
M204 S5000
M205 X30 Y30
G0 F3600 X103.222 Y211.268
M204 S500
M205 X20 Y20
G1 F1800 X102.563 Y210.609 E39.72261
M204 S5000
M205 X30 Y30
G0 F3600 X101.998 Y210.609
M204 S500
M205 X20 Y20
G1 F1800 X102.657 Y211.268 E39.7536
M204 S5000
M205 X30 Y30
G0 F3600 X102.091 Y211.268
M204 S500
M205 X20 Y20
G1 F1800 X101.432 Y210.609 E39.7846
M204 S5000
M205 X30 Y30
G0 F3600 X100.866 Y210.609
M204 S500
M205 X20 Y20
G1 F1800 X101.525 Y211.268 E39.8156
M204 S5000
M205 X30 Y30
G0 F3600 X100.959 Y211.268
M204 S500
M205 X20 Y20
G1 F1800 X100.3 Y210.609 E39.8466
M204 S5000
M205 X30 Y30
G0 F3600 X99.735 Y210.609
M204 S500
M205 X20 Y20
G1 F1800 X100.394 Y211.268 E39.87759
M204 S5000
M205 X30 Y30
G0 F3600 X99.828 Y211.268
M204 S500
M205 X20 Y20
G1 F1800 X99.169 Y210.609 E39.90859
M204 S5000
M205 X30 Y30
G0 F3600 X98.603 Y210.609
M204 S500
M205 X20 Y20
G1 F1800 X99.262 Y211.268 E39.93959
M204 S5000
M205 X30 Y30
G0 F3600 X98.697 Y211.268
M204 S500
M205 X20 Y20
G1 F1800 X98.038 Y210.609 E39.97059
M204 S5000
M205 X30 Y30
G0 F3600 X97.472 Y210.609
M204 S500
M205 X20 Y20
G1 F1800 X98.131 Y211.268 E40.00158
M204 S5000
M205 X30 Y30
G0 F3600 X97.565 Y211.268
M204 S500
M205 X20 Y20
G1 F1800 X96.906 Y210.609 E40.03258
M204 S5000
M205 X30 Y30
G0 F3600 X96.341 Y210.609
M204 S500
M205 X20 Y20
G1 F1800 X97 Y211.268 E40.06358
M204 S5000
M205 X30 Y30
G0 F3600 X96.434 Y211.268
M204 S500
M205 X20 Y20
G1 F1800 X95.775 Y210.609 E40.09457
M204 S5000
M205 X30 Y30
G0 F3600 X95.209 Y210.609
M204 S500
M205 X20 Y20
G1 F1800 X95.868 Y211.268 E40.12557
M204 S5000
M205 X30 Y30
G0 F3600 X95.303 Y211.268
M204 S500
M205 X20 Y20
G1 F1800 X94.644 Y210.609 E40.15657
M204 S5000
M205 X30 Y30
G0 F3600 X94.078 Y210.609
M204 S500
M205 X20 Y20
G1 F1800 X94.737 Y211.268 E40.18757
M204 S5000
M205 X30 Y30
G0 F3600 X94.171 Y211.268
M204 S500
M205 X20 Y20
G1 F1800 X93.512 Y210.609 E40.21856
M204 S5000
M205 X30 Y30
G0 F3600 X92.947 Y210.609
M204 S500
M205 X20 Y20
G1 F1800 X93.606 Y211.268 E40.24956
M204 S5000
M205 X30 Y30
G0 F3600 X93.04 Y211.268
M204 S500
M205 X20 Y20
G1 F1800 X92.381 Y210.609 E40.28056
M204 S5000
M205 X30 Y30
G0 F3600 X91.815 Y210.609
M204 S500
M205 X20 Y20
G1 F1800 X92.474 Y211.268 E40.31156
M204 S5000
M205 X30 Y30
G0 F3600 X91.909 Y211.268
M204 S500
M205 X20 Y20
G1 F1800 X91.25 Y210.609 E40.34255
M204 S5000
M205 X30 Y30
G0 F3600 X90.684 Y210.609
M204 S500
M205 X20 Y20
G1 F1800 X91.343 Y211.268 E40.37355
M204 S5000
M205 X30 Y30
G0 F3600 X90.777 Y211.268
M204 S500
