;FLAVOR:Marlin
;TIME:2414
;Filament used: 1.41078m
;Layer height: 0.2
;Generated with Cura_SteamEngine 3.6.0
M140 S60
M105
M190 S60
M104 S200
M105
M109 S200
M82 ;absolute extrusion mode
G28 ;Home
G1 Z15.0 F6000 ;Move the platform down 15mm
;Prime the extruder
G92 E0
G1 F200 E3
G92 E0
G92 E0
G1 F2400 E-5
;LAYER_COUNT:156
;LAYER:0
M107
M204 S5000
M205 X30 Y30
G0 F3600 X135.671 Y134.996 Z0.2
M204 S500
M205 X20 Y20
;TYPE:SKIRT
G1 F2400 E0
G1 F1800 X136.203 Y134.517 E0.02381
G1 X136.785 Y134.102 E0.04758
G1 X137.41 Y133.753 E0.07139
G1 X138.07 Y133.477 E0.09519
G1 X138.756 Y133.276 E0.11896
G1 X139.461 Y133.153 E0.14277
G1 X140.213 Y133.109 E0.16782
G1 X143.202 Y133.111 E0.26723
G1 X143.916 Y133.151 E0.29102
G1 X144.622 Y133.271 E0.31484
G1 X145.309 Y133.469 E0.33862
G1 X146.285 Y133.905 E0.37417
G1 X152.661 Y137.415 E0.61625
G1 X157.445 Y139.658 E0.79199
G1 X162.187 Y141.573 E0.96208
G1 X162.834 Y141.877 E0.98586
G1 X163.444 Y142.252 E1.00967
G1 X164.007 Y142.692 E1.03344
G1 X164.518 Y143.193 E1.05724
G1 X164.97 Y143.747 E1.08102
G1 X165.357 Y144.349 E1.10482
G1 X165.675 Y144.989 E1.12859
G1 X165.919 Y145.662 E1.1524
G1 X166.087 Y146.357 E1.17618
G1 X166.176 Y147.067 E1.19998
G1 X166.191 Y147.508 E1.21466
G1 X166.19 Y157.396 E1.54354
G1 X166.15 Y158.11 E1.56732
G1 X166.03 Y158.815 E1.59111
G1 X165.833 Y159.502 E1.61488
G1 X165.56 Y160.164 E1.63869
G1 X165.215 Y160.79 E1.66247
G1 X164.802 Y161.374 E1.68626
G1 X164.327 Y161.909 E1.71005
G1 X163.989 Y162.225 E1.72544
G1 X160.434 Y165.315 E1.88211
G1 X159.868 Y165.754 E1.90593
G1 X159.258 Y166.126 E1.92969
G1 X158.609 Y166.428 E1.9535
G1 X157.931 Y166.656 E1.97729
G1 X157.232 Y166.807 E2.00108
G1 X156.237 Y166.885 E2.03427
G1 X140.211 Y166.89 E2.5673
G1 X139.497 Y166.85 E2.59109
G1 X138.792 Y166.731 E2.61487
G1 X138.104 Y166.534 E2.63867
G1 X137.443 Y166.261 E2.66246
G1 X136.816 Y165.917 E2.68624
G1 X136.232 Y165.504 E2.71003
G1 X135.697 Y165.029 E2.73383
G1 X135.219 Y164.497 E2.75762
G1 X134.803 Y163.915 E2.78141
G1 X134.454 Y163.291 E2.80519
G1 X134.178 Y162.631 E2.82898
G1 X133.977 Y161.945 E2.85276
G1 X133.853 Y161.24 E2.87657
G1 X133.809 Y160.49 E2.90155
G1 X133.809 Y139.509 E3.59939
G1 X133.849 Y138.795 E3.62317
G1 X133.968 Y138.09 E3.64695
G1 X134.166 Y137.402 E3.67076
G1 X134.439 Y136.741 E3.69455
G1 X134.783 Y136.114 E3.71834
G1 X135.196 Y135.53 E3.74213
G1 X135.671 Y134.996 E3.7659
M204 S5000
M205 X30 Y30
G0 F3600 X136.065 Y135.17
M204 S500
M205 X20 Y20
G1 F1800 X136.593 Y134.721 E3.78895
G1 X137.168 Y134.336 E3.81196
G1 X137.785 Y134.021 E3.83501
G1 X138.433 Y133.778 E3.85802
G1 X139.106 Y133.611 E3.88109
G1 X139.792 Y133.523 E3.90409
G1 X140.213 Y133.509 E3.9181
G1 X143.202 Y133.511 E4.01751
G1 X143.893 Y133.551 E4.04054
G1 X144.575 Y133.671 E4.06357
G1 X145.239 Y133.869 E4.08661
G1 X146.092 Y134.255 E4.11775
G1 X152.477 Y137.771 E4.36019
G1 X157.281 Y140.023 E4.53666
G1 X162.037 Y141.943 E4.70725
G1 X162.664 Y142.239 E4.73031
G1 X163.251 Y142.605 E4.75331
G1 X163.793 Y143.037 E4.77637
G1 X164.282 Y143.528 E4.79941
G1 X164.71 Y144.072 E4.82244
G1 X165.073 Y144.661 E4.84545
G1 X165.366 Y145.289 E4.8685
G1 X165.584 Y145.946 E4.89152
G1 X165.726 Y146.624 E4.91456
G1 X165.791 Y147.508 E4.94404
G1 X165.79 Y157.396 E5.27292
G1 X165.75 Y158.087 E5.29594
G1 X165.631 Y158.769 E5.31897
G1 X165.433 Y159.433 E5.34201
G1 X165.161 Y160.07 E5.36505
G1 X164.817 Y160.671 E5.38808
G1 X164.406 Y161.228 E5.4111
G1 X163.726 Y161.923 E5.44344
G1 X160.171 Y165.013 E5.60011
G1 X159.623 Y165.437 E5.62315
G1 X159.03 Y165.794 E5.64617
G1 X158.4 Y166.081 E5.6692
G1 X157.74 Y166.293 E5.69226
G1 X157.061 Y166.428 E5.71528
G1 X156.237 Y166.485 E5.74275
G1 X140.211 Y166.49 E6.27578
G1 X139.519 Y166.45 E6.29883
G1 X138.837 Y166.331 E6.32186
G1 X138.173 Y166.134 E6.3449
G1 X137.537 Y165.862 E6.3679
G1 X136.935 Y165.518 E6.39096
G1 X136.378 Y165.108 E6.41397
G1 X135.871 Y164.635 E6.43703
G1 X135.422 Y164.108 E6.46006
G1 X135.037 Y163.532 E6.4831
G1 X134.721 Y162.916 E6.50613
G1 X134.478 Y162.267 E6.52918
G1 X134.312 Y161.595 E6.5522
G1 X134.224 Y160.908 E6.57524
G1 X134.209 Y160.49 E6.58915
G1 X134.209 Y139.509 E7.28698
G1 X134.249 Y138.818 E7.31
G1 X134.368 Y138.135 E7.33306
G1 X134.566 Y137.472 E7.35607
G1 X134.838 Y136.835 E7.37911
G1 X135.182 Y136.234 E7.40214
G1 X135.593 Y135.676 E7.42519
G1 X136.065 Y135.17 E7.44821
M204 S5000
M205 X30 Y30
G0 F3600 X136.458 Y135.351
M204 S500
M205 X20 Y20
G1 F1800 X136.98 Y134.933 E7.47045
G1 X137.549 Y134.581 E7.4927
G1 X138.156 Y134.299 E7.51496
G1 X138.792 Y134.091 E7.53722
G1 X139.448 Y133.961 E7.55946
G1 X140.213 Y133.909 E7.58497
G1 X143.202 Y133.911 E7.68438
G1 X143.87 Y133.951 E7.70664
G1 X144.528 Y134.071 E7.72888
G1 X145.167 Y134.269 E7.75113
G1 X145.899 Y134.605 E7.77792
G1 X152.299 Y138.129 E8.02092
G1 X157.119 Y140.389 E8.19799
G1 X161.888 Y142.314 E8.36904
G1 X162.492 Y142.601 E8.39128
G1 X163.058 Y142.959 E8.41355
G1 X163.577 Y143.381 E8.4358
G1 X164.042 Y143.862 E8.45805
G1 X164.446 Y144.395 E8.4803
G1 X164.784 Y144.972 E8.50254
G1 X165.051 Y145.585 E8.52478
G1 X165.243 Y146.226 E8.54703
G1 X165.356 Y146.886 E8.5693
G1 X165.391 Y147.508 E8.59003
G1 X165.39 Y157.396 E8.9189
G1 X165.35 Y158.063 E8.94113
G1 X165.231 Y158.722 E8.9634
G1 X165.034 Y159.361 E8.98564
G1 X164.762 Y159.972 E9.00788
G1 X164.419 Y160.547 E9.03015
G1 X164.01 Y161.076 E9.05239
G1 X163.464 Y161.622 E9.07807
G1 X159.909 Y164.712 E9.23474
G1 X159.378 Y165.12 E9.25701
G1 X158.803 Y165.461 E9.27924
G1 X158.192 Y165.732 E9.30148
G1 X157.552 Y165.928 E9.32374
G1 X156.893 Y166.046 E9.34601
G1 X156.237 Y166.085 E9.36786
G1 X140.211 Y166.09 E9.90089
G1 X139.543 Y166.05 E9.92315
G1 X138.885 Y165.931 E9.94539
G1 X138.245 Y165.734 E9.96766
G1 X137.634 Y165.463 E9.98989
G1 X137.059 Y165.12 E10.01216
G1 X136.529 Y164.711 E10.03443
G1 X136.052 Y164.242 E10.05667
G1 X135.634 Y163.72 E10.07892
G1 X135.282 Y163.151 E10.10117
G1 X135 Y162.545 E10.1234
G1 X134.792 Y161.909 E10.14566
G1 X134.661 Y161.253 E10.16791
G1 X134.609 Y160.49 E10.19334
G1 X134.609 Y139.509 E10.89117
G1 X134.649 Y138.841 E10.91343
G1 X134.768 Y138.183 E10.93567
G1 X134.965 Y137.543 E10.95794
G1 X135.237 Y136.932 E10.98019
G1 X135.58 Y136.358 E11.00243
G1 X135.989 Y135.828 E11.0247
G1 X136.458 Y135.351 E11.04694
M204 S5000
M205 X30 Y30
G0 F3600 X136.384 Y135.986
M204 S500
M205 X20 Y20
G1 F1800 X136.849 Y135.54 E11.06837
G1 X137.366 Y135.155 E11.08981
G1 X137.927 Y134.836 E11.11128
G1 X138.523 Y134.59 E11.13272
G1 X139.144 Y134.419 E11.15415
G1 X139.782 Y134.327 E11.17559
G1 X140.212 Y134.309 E11.1899
G1 X143.201 Y134.311 E11.28932
G1 X143.845 Y134.351 E11.31078
G1 X144.478 Y134.471 E11.33221
G1 X145.092 Y134.668 E11.35365
G1 X145.706 Y134.956 E11.37621
G1 X152.121 Y138.488 E11.61978
G1 X156.948 Y140.751 E11.79709
G1 X161.738 Y142.685 E11.9689
G1 X162.32 Y142.963 E11.99035
G1 X162.862 Y143.311 E12.01178
G1 X163.358 Y143.723 E12.03322
G1 X163.799 Y144.194 E12.05468
G1 X164.178 Y144.715 E12.07611
G1 X164.49 Y145.279 E12.09755
G1 X164.729 Y145.878 E12.119
G1 X164.893 Y146.501 E12.14043
G1 X164.978 Y147.141 E12.1619
G1 X164.991 Y147.508 E12.17411
G1 X164.99 Y157.396 E12.50299
G1 X164.95 Y158.039 E12.52442
G1 X164.831 Y158.672 E12.54584
G1 X164.634 Y159.286 E12.56729
G1 X164.363 Y159.871 E12.58873
G1 X164.021 Y160.418 E12.61019
G1 X163.614 Y160.918 E12.63163
G1 X163.201 Y161.32 E12.6508
G1 X159.646 Y164.41 E12.80746
G1 X159.134 Y164.802 E12.82891
G1 X158.578 Y165.127 E12.85033
G1 X157.986 Y165.381 E12.87176
G1 X157.366 Y165.56 E12.89322
G1 X156.73 Y165.661 E12.91464
G1 X156.237 Y165.685 E12.93105
G1 X140.211 Y165.69 E13.46408
G1 X139.567 Y165.65 E13.48554
G1 X138.934 Y165.531 E13.50696
G1 X138.32 Y165.335 E13.5284
G1 X137.735 Y165.064 E13.54984
G1 X137.188 Y164.722 E13.5713
G1 X136.687 Y164.316 E13.59275
G1 X136.241 Y163.851 E13.61418
G1 X135.856 Y163.334 E13.63562
G1 X135.537 Y162.773 E13.65708
G1 X135.291 Y162.178 E13.6785
G1 X135.119 Y161.556 E13.69996
G1 X135.027 Y160.918 E13.7214
G1 X135.009 Y160.49 E13.73565
G1 X135.009 Y139.509 E14.43348
G1 X135.049 Y138.866 E14.45491
G1 X135.168 Y138.232 E14.47636
G1 X135.365 Y137.618 E14.49781
G1 X135.636 Y137.033 E14.51925
G1 X135.978 Y136.486 E14.54071
G1 X136.384 Y135.986 E14.56213
M204 S5000
M205 X30 Y30
G1 F2400 E9.56213
G0 F3600 X139.573 Y142.832
G0 X139.591 Y142.872
G0 X142.953 Y150.088
G0 X142.971 Y150.127
G0 X143.1 Y150.4
M204 S500
M205 X20 Y20
;TYPE:SUPPORT
G1 F2400 E14.56213
G1 F1800 X145.063 Y150.4 E14.62742
G1 X144.916 Y150.485 E14.63307
G1 X144.634 Y150.677 E14.64442
G1 X144.295 Y150.956 E14.65902
G1 X143.876 Y151.405 E14.67945
G1 X143.692 Y151.724 E14.69169
G1 X143.548 Y152 E14.70205
G1 X143.385 Y152.351 E14.71492
G1 X143.28 Y152.793 E14.73003
G1 X143.208 Y153.206 E14.74397
G1 X143.205 Y153.681 E14.75977
G1 X143.242 Y154.019 E14.77108
G1 X143.347 Y154.527 E14.78834
G1 X143.486 Y154.884 E14.80108
G1 X143.646 Y155.225 E14.81361
G1 X143.918 Y155.618 E14.8295
G1 X144.175 Y155.928 E14.8429
G1 X144.458 Y156.193 E14.85579
G1 X144.83 Y156.463 E14.87108
G1 X145.222 Y156.673 E14.88587
G1 X145.701 Y156.855 E14.90291
G1 X146.571 Y157.057 E14.93262
G1 X148.518 Y156.5 E14.99997
G1 X152.46 Y156.5 E15.13109
G1 X152.546 Y156.525 E15.13406
G1 X152.878 Y156.691 E15.14641
G1 X153.266 Y156.849 E15.16034
G1 X154.756 Y157.186 E15.21115
G1 X155.229 Y157.094 E15.22718
G1 X156.491 Y156.231 E15.27803
G1 X156.848 Y155.897 E15.29429
G1 X157.034 Y155.668 E15.3041
G1 X157.292 Y155.329 E15.31827
G1 X157.617 Y154.662 E15.34295
G1 X157.66 Y154.445 E15.35031
G1 X157.745 Y154.102 E15.36206
G1 X157.793 Y153.761 E15.37351
G1 X157.793 Y153.266 E15.38998
G1 X157.733 Y152.775 E15.40643
G1 X157.675 Y152.587 E15.41297
G1 X157.9 Y152.781 E15.42286
G1 X157.9 Y155.219 E15.50394
G1 X155.152 Y157.6 E15.62488
G1 X143.1 Y157.6 E16.02573
G1 X143.1 Y150.4 E16.2652
M204 S5000
M205 X30 Y30
G0 F3600 X148.303 Y150.4
M204 S500
M205 X20 Y20
G1 F1800 X152.297 Y150.4 E16.39804
G1 X152.1 Y150.5 E16.40539
G1 X148.522 Y150.5 E16.5244
G1 X148.465 Y150.488 E16.52633
G1 X148.303 Y150.4 E16.53247
M204 S5000
M205 X30 Y30
G0 F3600 X144.018 Y150.56
M204 S500
M205 X20 Y20
G1 F1800 X144.018 Y151.018 E16.5477
M204 S5000
M205 X30 Y30
G0 F3600 X143.363 Y152.019
M204 S500
M205 X20 Y20
G1 F1800 X143.26 Y152.019 E16.55112
M204 S5000
M205 X30 Y30
G0 F3600 X144.018 Y155.989
M204 S500
M205 X20 Y20
G1 F1800 X144.018 Y157.44 E16.59938
M204 S5000
M205 X30 Y30
G0 F3600 X143.26 Y157.353
M204 S500
M205 X20 Y20
G1 F1800 X155.192 Y157.353 E16.99624
M204 S5000
M205 X30 Y30
G0 F3600 X154.686 Y157.334
M204 S500
M205 X20 Y20
G1 F1800 X154.686 Y157.44 E16.99977
M204 S5000
M205 X30 Y30
G0 F3600 X152.019 Y157.44
M204 S500
M205 X20 Y20
G1 F1800 X152.019 Y156.66 E17.02571
M204 S5000
M205 X30 Y30
G0 F3600 X149.352 Y156.66
M204 S500
M205 X20 Y20
G1 F1800 X149.352 Y157.44 E17.05166
M204 S5000
M205 X30 Y30
G0 F3600 X146.685 Y157.44
M204 S500
M205 X20 Y20
G1 F1800 X146.685 Y157.191 E17.05994
M204 S5000
M205 X30 Y30
G1 F2400 E12.05994
;MESH:AkkusteckerHalterung.stl
G0 F3600 X146.685 Y150.165
G0 X146.685 Y148.88
G0 X142.53 Y148.17
G0 X142.6 Y148.1
M204 S500
M205 X20 Y20
;TYPE:WALL-INNER
G1 F2400 E17.05994
G1 F1800 X159.2 Y148.1 E17.61206
G1 X159.2 Y151.487 E17.72471
G1 X159.2 Y151.488 E17.72474
G1 X159.2 Y151.924 E17.73924
G1 X158.87 Y151.638 E17.74716
G1 X155.71 Y148.9 E17.88623
G1 X141.6 Y148.9 E18.35553
G1 X141.6 Y159.1 E18.69478
G1 X155.71 Y159.1 E19.16408
G1 X158.87 Y156.362 E19.30315
G1 X159.2 Y156.076 E19.31767
G1 X159.2 Y156.512 E19.32558
G1 X159.2 Y156.513 E19.32562
G1 X159.2 Y157.136 E19.34634
G1 X156.009 Y159.9 E19.48675
G1 X140.8 Y159.9 E19.9926
G1 X140.8 Y140.1 E20.65115
G1 X142.6 Y140.1 E20.71102
G1 X142.6 Y148.1 E20.9771
M204 S5000
M205 X30 Y30
G0 F3600 X143 Y147.7
M204 S500
M205 X20 Y20
;TYPE:WALL-OUTER
G1 F1800 X159.6 Y147.7 E21.52922
G1 X159.6 Y157.318 E21.84912
G1 X156.158 Y160.3 E22.00059
G1 X140.4 Y160.3 E22.5247
G1 X140.4 Y139.7 E23.20986
G1 X143 Y139.7 E23.29633
G1 X143 Y147.7 E23.56241
M204 S5000
M205 X30 Y30
G0 F3600 X143.2 Y147.7
G0 X143.2 Y148.2
G0 X141.572 Y148.872
G0 X141.5 Y149.3
G0 X142 Y149.3
M204 S500
M205 X20 Y20
G1 F1800 X142 Y158.7 E23.87506
G1 X155.561 Y158.7 E24.3261
G1 X159 Y155.72 E24.47745
G1 X159 Y152.28 E24.59187
G1 X155.561 Y149.3 E24.74322
G1 X142 Y149.3 E25.19426
M204 S5000
M205 X30 Y30
G0 F3600 X142 Y149.5
G0 X141.5 Y149.5
G0 X141.572 Y148.872
G0 X142.21 Y148.49
M204 S500
M205 X20 Y20
;TYPE:SKIN
G1 F1800 X158.81 Y148.49 E25.74638
G1 X158.81 Y151.07 E25.83219
G1 X155.856 Y148.51 E25.9622
G1 X141.21 Y148.51 E26.44933
G1 X141.21 Y159.49 E26.81452
G1 X155.856 Y159.49 E27.30165
G1 X158.81 Y156.93 E27.43166
G1 X158.81 Y156.958 E27.43259
G1 X155.864 Y159.51 E27.56223
G1 X141.19 Y159.51 E28.05029
G1 X141.19 Y140.49 E28.6829
G1 X142.21 Y140.49 E28.71682
G1 X142.21 Y148.49 E28.9829
M204 S5000
M205 X30 Y30
G0 F3600 X141.54 Y148.329
M204 S500
M205 X20 Y20
G1 F1800 X141.369 Y148.157 E28.99097
M204 S5000
M205 X30 Y30
G0 F3600 X141.369 Y147.591
M204 S500
M205 X20 Y20
G1 F1800 X142.03 Y148.252 E29.02206
M204 S5000
M205 X30 Y30
G0 F3600 X142.03 Y147.687
M204 S500
M205 X20 Y20
G1 F1800 X141.369 Y147.025 E29.05318
M204 S5000
M205 X30 Y30
G0 F3600 X141.369 Y146.46
M204 S500
M205 X20 Y20
G1 F1800 X142.03 Y147.121 E29.08427
M204 S5000
M205 X30 Y30
G0 F3600 X142.03 Y146.555
M204 S500
M205 X20 Y20
G1 F1800 X141.369 Y145.894 E29.11536
M204 S5000
M205 X30 Y30
G0 F3600 X141.369 Y145.328
M204 S500
M205 X20 Y20
G1 F1800 X142.03 Y145.989 E29.14645
M204 S5000
M205 X30 Y30
G0 F3600 X142.03 Y145.424
M204 S500
M205 X20 Y20
G1 F1800 X141.369 Y144.763 E29.17754
M204 S5000
M205 X30 Y30
G0 F3600 X141.369 Y144.197
M204 S500
M205 X20 Y20
G1 F1800 X142.03 Y144.858 E29.20863
M204 S5000
M205 X30 Y30
G0 F3600 X142.03 Y144.292
M204 S500
M205 X20 Y20
G1 F1800 X141.369 Y143.631 E29.23972
M204 S5000
M205 X30 Y30
G0 F3600 X141.369 Y143.066
M204 S500
M205 X20 Y20
G1 F1800 X142.03 Y143.727 E29.27082
M204 S5000
M205 X30 Y30
G0 F3600 X142.03 Y143.161
M204 S500
M205 X20 Y20
G1 F1800 X141.369 Y142.5 E29.30191
M204 S5000
M205 X30 Y30
G0 F3600 X141.369 Y141.934
M204 S500
M205 X20 Y20
G1 F1800 X142.03 Y142.595 E29.333
M204 S5000
M205 X30 Y30
G0 F3600 X142.03 Y142.03
M204 S500
M205 X20 Y20
G1 F1800 X141.369 Y141.369 E29.36409
M204 S5000
M205 X30 Y30
G0 F3600 X141.369 Y140.803
M204 S500
M205 X20 Y20
G1 F1800 X142.03 Y141.464 E29.39518
M204 S5000
M205 X30 Y30
G0 F3600 X142.03 Y140.898
M204 S500
M205 X20 Y20
G1 F1800 X141.801 Y140.67 E29.40593
M204 S5000
M205 X30 Y30
G0 F3600 X142.572 Y148.128
G0 X156.589 Y148.669
M204 S500
M205 X20 Y20
G1 F1800 X158.373 Y150.453 E29.48984
M204 S5000
M205 X30 Y30
G0 F3600 X158.629 Y150.144
M204 S500
M205 X20 Y20
G1 F1800 X157.155 Y148.669 E29.5592
M204 S5000
M205 X30 Y30
G0 F3600 X157.72 Y148.669
M204 S500
M205 X20 Y20
G1 F1800 X158.629 Y149.578 E29.60196
M204 S5000
M205 X30 Y30
G0 F3600 X158.629 Y149.012
M204 S500
M205 X20 Y20
G1 F1800 X158.286 Y148.669 E29.61809
M204 S5000
M205 X30 Y30
G0 F3600 X159.146 Y152.263
G0 X159.299 Y152.228
M204 S500
M205 X20 Y20
;TYPE:SKIN
G1 F1800 X159.299 Y152.511 E29.62345
G1 X159.299 Y155.622 E29.68241
G1 X159.262 Y155.868 E29.68713
M204 S5000
M205 X30 Y30
G0 F3600 X159.385 Y155.485
G1 F2400 E24.68713
;MESH:NONMESH
G0 F3600 X159.001 Y152.287
G0 X158.139 Y152.672
G0 X144.018 Y150.4
;TIME_ELAPSED:42.229438
;LAYER:1
M140 S60
M106 S255
G0 F5400 X144.018 Y150.4 Z0.4
M204 S500
M205 X20 Y20
;TYPE:SUPPORT
G1 F2400 E29.68713
G1 F2700 X143.1 Y150.4 E29.71766
G1 X143.1 Y157.6 E29.95714
G1 X144.018 Y157.6 E29.98767
G1 X144.018 Y155.739 E30.04957
G1 X144.18 Y155.933 E30.05797
G1 X144.452 Y156.19 E30.07042
G1 X144.836 Y156.466 E30.08615
G1 X145.219 Y156.671 E30.1006
G1 X145.703 Y156.856 E30.11783
G1 X146.57 Y157.056 E30.14742
G1 X146.685 Y157.023 E30.1514
G1 X146.685 Y157.6 E30.17059
G1 X149.352 Y157.6 E30.2593
G1 X149.352 Y156.5 E30.29588
G1 X152.019 Y156.5 E30.38459
G1 X152.019 Y157.6 E30.42118
G1 X154.686 Y157.6 E30.50988
G1 X154.686 Y157.171 E30.52415
G1 X154.754 Y157.186 E30.52646
G1 X155.228 Y157.096 E30.54251
G1 X156.493 Y156.23 E30.5935
G1 X156.846 Y155.896 E30.60966
G1 X157.03 Y155.675 E30.61923
