;FLAVOR:Marlin
;TIME:3186
;Filament used: 3.07323m
;Layer height: 0.2
;Generated with Cura_SteamEngine 3.6.0
M140 S60
M105
M190 S60
M104 S200
M105
M109 S200
M82 ;absolute extrusion mode
G28 ;Home
G1 Z15.0 F6000 ;Move the platform down 15mm
;Prime the extruder
G92 E0
G1 F200 E3
G92 E0
G92 E0
G1 F2400 E-5
;LAYER_COUNT:208
;LAYER:0
M107
M204 S5000
M205 X30 Y30
G0 F3600 X129.737 Y144.492 Z0.2
M204 S500
M205 X20 Y20
;TYPE:SKIRT
G1 F2400 E0
G1 F1800 X130.319 Y144.077 E0.02377
G1 X130.982 Y143.71 E0.04898
G1 X133.705 Y142.408 E0.14937
G1 X138.425 Y139.906 E0.32705
G1 X142.936 Y137.179 E0.50237
G1 X148.376 Y133.391 E0.72285
G1 X150.018 Y132.146 E0.79138
G1 X151.118 Y131.309 E0.83736
G1 X151.71 Y130.908 E0.86114
G1 X152.344 Y130.576 E0.88494
G1 X153.011 Y130.317 E0.90874
G1 X153.702 Y130.134 E0.93252
G1 X154.409 Y130.029 E0.95629
G1 X155.124 Y130.003 E0.98009
G1 X155.722 Y130.044 E1.00002
G1 X156.036 Y130.08 E1.01053
G1 X156.741 Y130.201 E1.03432
G1 X157.428 Y130.4 E1.05811
G1 X158.089 Y130.674 E1.08191
G1 X158.714 Y131.02 E1.10567
G1 X159.212 Y131.367 E1.12586
G1 X162.604 Y133.979 E1.26825
G1 X166.989 Y137.033 E1.44598
G1 X168.484 Y137.97 E1.50467
G1 X168.547 Y138.011 E1.50717
G1 X169.712 Y138.76 E1.55323
G1 X170.291 Y139.179 E1.577
G1 X170.82 Y139.661 E1.60081
G1 X171.291 Y140.199 E1.62459
G1 X171.7 Y140.786 E1.64839
G1 X172.041 Y141.415 E1.67218
G1 X172.309 Y142.078 E1.69597
G1 X172.501 Y142.767 E1.71976
G1 X172.616 Y143.473 E1.74355
G1 X172.651 Y144.187 E1.76732
G1 X172.606 Y144.901 E1.79112
G1 X172.482 Y145.606 E1.81493
G1 X172.279 Y146.292 E1.83872
G1 X172.002 Y146.951 E1.8625
G1 X171.653 Y147.575 E1.88628
G1 X171.236 Y148.157 E1.91009
G1 X170.757 Y148.688 E1.93388
G1 X170.384 Y149.03 E1.95071
G1 X167.797 Y151.218 E2.0634
G1 X167.616 Y151.365 E2.07115
G1 X164.364 Y153.918 E2.20867
G1 X164.129 Y154.094 E2.21843
G1 X159.738 Y157.227 E2.39784
G1 X159.465 Y157.411 E2.40879
G1 X154.832 Y160.369 E2.59161
G1 X154.546 Y160.541 E2.60271
G1 X149.819 Y163.223 E2.78348
G1 X149.601 Y163.342 E2.79174
G1 X147.281 Y164.542 E2.87861
G1 X147.1 Y164.632 E2.88534
G1 X143.377 Y166.411 E3.02257
G1 X143.112 Y166.53 E3.03224
G1 X138.141 Y168.633 E3.21176
G1 X137.922 Y168.721 E3.21961
G1 X136.018 Y169.445 E3.28736
G1 X135.336 Y169.662 E3.31116
G1 X134.634 Y169.801 E3.33497
G1 X133.922 Y169.861 E3.35873
G1 X133.207 Y169.84 E3.38252
G1 X132.498 Y169.741 E3.40633
G1 X131.806 Y169.563 E3.4301
G1 X131.137 Y169.308 E3.45391
G1 X130.501 Y168.981 E3.4777
G1 X129.906 Y168.585 E3.50147
G1 X129.358 Y168.125 E3.52526
G1 X128.865 Y167.606 E3.54907
G1 X128.433 Y167.036 E3.57286
G1 X128.068 Y166.421 E3.59665
G1 X127.773 Y165.77 E3.62042
G1 X127.553 Y165.089 E3.64422
G1 X127.41 Y164.388 E3.66802
G1 X127.343 Y163.463 E3.69886
G1 X127.343 Y149.484 E4.16381
G1 X127.383 Y148.77 E4.18759
G1 X127.502 Y148.065 E4.21137
G1 X127.7 Y147.377 E4.23518
G1 X127.973 Y146.716 E4.25897
G1 X128.317 Y146.089 E4.28276
G1 X128.73 Y145.505 E4.30655
G1 X129.205 Y144.971 E4.33032
G1 X129.737 Y144.492 E4.35413
M204 S5000
M205 X30 Y30
G0 F3600 X130.127 Y144.696
M204 S500
M205 X20 Y20
G1 F1800 X130.702 Y144.311 E4.37714
G1 X131.155 Y144.071 E4.39419
G1 X133.886 Y142.765 E4.49488
G1 X138.614 Y140.259 E4.67286
G1 X143.15 Y137.517 E4.84915
G1 X148.602 Y133.721 E5.07011
G1 X150.259 Y132.464 E5.13928
G1 X151.36 Y131.627 E5.18528
G1 X151.934 Y131.24 E5.20831
G1 X152.55 Y130.922 E5.23136
G1 X153.197 Y130.677 E5.25437
G1 X153.869 Y130.508 E5.27742
G1 X154.556 Y130.418 E5.30047
G1 X155.248 Y130.407 E5.32348
G1 X155.676 Y130.441 E5.33776
G1 X155.99 Y130.477 E5.34828
G1 X156.673 Y130.596 E5.37134
G1 X157.337 Y130.792 E5.39436
G1 X157.974 Y131.063 E5.41739
G1 X158.576 Y131.406 E5.44043
G1 X158.968 Y131.684 E5.45642
G1 X162.381 Y134.312 E5.59968
G1 X166.76 Y137.362 E5.77718
G1 X168.271 Y138.309 E5.83649
G1 X168.331 Y138.347 E5.83885
G1 X169.496 Y139.096 E5.88492
G1 X170.056 Y139.504 E5.90796
G1 X170.565 Y139.973 E5.93098
G1 X171.017 Y140.498 E5.95402
G1 X171.405 Y141.071 E5.97704
G1 X171.725 Y141.686 E6.0001
G1 X171.971 Y142.333 E6.02312
G1 X172.142 Y143.004 E6.04615
G1 X172.234 Y143.69 E6.06917
G1 X172.246 Y144.383 E6.09222
G1 X172.179 Y145.072 E6.11525
G1 X172.032 Y145.749 E6.13829
G1 X171.809 Y146.404 E6.1613
G1 X171.511 Y147.03 E6.18436
G1 X171.143 Y147.616 E6.20738
G1 X170.711 Y148.157 E6.2304
G1 X170.126 Y148.724 E6.2575
G1 X167.539 Y150.912 E6.37019
G1 X167.369 Y151.05 E6.37748
G1 X164.117 Y153.603 E6.51499
G1 X163.897 Y153.768 E6.52413
G1 X159.506 Y156.901 E6.70354
G1 X159.25 Y157.074 E6.71382
G1 X154.617 Y160.032 E6.89664
G1 X154.349 Y160.194 E6.90706
G1 X149.622 Y162.876 E7.08782
G1 X149.418 Y162.986 E7.09553
G1 X147.098 Y164.186 E7.1824
G1 X146.928 Y164.271 E7.18873
G1 X143.205 Y166.05 E7.32596
G1 X142.956 Y166.162 E7.33505
G1 X137.985 Y168.265 E7.51457
G1 X137.78 Y168.347 E7.52191
G1 X135.876 Y169.071 E7.58966
G1 X135.215 Y169.28 E7.61272
G1 X134.535 Y169.41 E7.63575
G1 X133.844 Y169.462 E7.65879
G1 X133.152 Y169.434 E7.68183
G1 X132.468 Y169.326 E7.70486
G1 X131.801 Y169.14 E7.72789
G1 X131.16 Y168.879 E7.75091
G1 X130.553 Y168.545 E7.77396
G1 X129.989 Y168.143 E7.79699
G1 X129.475 Y167.68 E7.82
G1 X129.017 Y167.16 E7.84305
G1 X128.623 Y166.591 E7.86607
G1 X128.296 Y165.98 E7.88912
G1 X128.043 Y165.335 E7.91216
G1 X127.865 Y164.666 E7.93519
G1 X127.765 Y163.981 E7.95821
G1 X127.743 Y163.463 E7.97545
G1 X127.743 Y149.484 E8.4404
G1 X127.783 Y148.793 E8.46342
G1 X127.902 Y148.11 E8.48648
G1 X128.1 Y147.447 E8.50949
G1 X128.372 Y146.81 E8.53253
G1 X128.716 Y146.209 E8.55556
G1 X129.127 Y145.651 E8.57861
G1 X129.599 Y145.145 E8.60163
G1 X130.127 Y144.696 E8.62468
M204 S5000
M205 X30 Y30
G0 F3600 X129.992 Y145.326
M204 S500
M205 X20 Y20
G1 F1800 X130.514 Y144.908 E8.64692
G1 X131.327 Y144.432 E8.67826
G1 X134.067 Y143.122 E8.77927
G1 X138.821 Y140.602 E8.95823
G1 X143.361 Y137.858 E9.13467
G1 X148.845 Y134.039 E9.35694
G1 X150.501 Y132.783 E9.42606
G1 X151.602 Y131.945 E9.47208
G1 X152.158 Y131.573 E9.49433
G1 X152.754 Y131.269 E9.51659
G1 X153.382 Y131.039 E9.53883
G1 X154.033 Y130.885 E9.56108
G1 X154.698 Y130.81 E9.58334
G1 X155.631 Y130.838 E9.61439
G1 X155.945 Y130.874 E9.6249
G1 X156.604 Y130.99 E9.64715
G1 X157.244 Y131.184 E9.6694
G1 X157.857 Y131.452 E9.69165
G1 X158.433 Y131.792 E9.71389
G1 X158.724 Y132.001 E9.72581
G1 X162.135 Y134.628 E9.86901
G1 X166.545 Y137.7 E10.04776
G1 X168.059 Y138.648 E10.10718
G1 X168.114 Y138.684 E10.10936
G1 X169.279 Y139.433 E10.15543
G1 X169.82 Y139.827 E10.17769
G1 X170.309 Y140.284 E10.19995
G1 X170.74 Y140.795 E10.22218
G1 X171.107 Y141.354 E10.24442
G1 X171.405 Y141.953 E10.26668
G1 X171.63 Y142.584 E10.28896
G1 X171.777 Y143.236 E10.31119
G1 X171.846 Y143.902 E10.33346
G1 X171.835 Y144.571 E10.35571
G1 X171.744 Y145.234 E10.37797
G1 X171.575 Y145.881 E10.40021
G1 X171.329 Y146.503 E10.42246
G1 X171.012 Y147.092 E10.44471
G1 X170.626 Y147.639 E10.46697
G1 X170.178 Y148.136 E10.48923
G1 X169.867 Y148.419 E10.50321
G1 X167.28 Y150.607 E10.61591
G1 X167.122 Y150.736 E10.62269
G1 X163.87 Y153.289 E10.7602
G1 X163.665 Y153.443 E10.76873
G1 X159.274 Y156.576 E10.94814
G1 X159.035 Y156.737 E10.95772
G1 X154.402 Y159.695 E11.14055
G1 X154.151 Y159.846 E11.15029
G1 X149.424 Y162.528 E11.33105
G1 X149.234 Y162.631 E11.33824
G1 X146.914 Y163.831 E11.42511
G1 X146.755 Y163.91 E11.43102
G1 X143.032 Y165.689 E11.56826
G1 X142.8 Y165.793 E11.57671
G1 X137.829 Y167.896 E11.75624
G1 X137.637 Y167.973 E11.76312
G1 X135.733 Y168.697 E11.83087
G1 X135.095 Y168.897 E11.85311
G1 X134.437 Y169.02 E11.87537
G1 X133.77 Y169.063 E11.8976
G1 X133.102 Y169.026 E11.91985
G1 X132.443 Y168.91 E11.94211
G1 X131.802 Y168.716 E11.96438
G1 X131.19 Y168.447 E11.98662
G1 X130.614 Y168.107 E12.00886
G1 X130.082 Y167.701 E12.03112
G1 X129.603 Y167.234 E12.05337
G1 X129.183 Y166.713 E12.07563
G1 X128.828 Y166.146 E12.09788
G1 X128.543 Y165.541 E12.12012
G1 X128.332 Y164.906 E12.14238
G1 X128.199 Y164.25 E12.16464
G1 X128.143 Y163.463 E12.19088
G1 X128.143 Y149.484 E12.65583
G1 X128.183 Y148.816 E12.67809
G1 X128.302 Y148.158 E12.70033
G1 X128.499 Y147.518 E12.7226
G1 X128.771 Y146.907 E12.74484
G1 X129.114 Y146.333 E12.76708
G1 X129.523 Y145.803 E12.78935
G1 X129.992 Y145.326 E12.8116
M204 S5000
M205 X30 Y30
G0 F3600 X130.383 Y145.515
M204 S500
M205 X20 Y20
G1 F1800 X130.9 Y145.13 E12.83304
G1 X131.5 Y144.793 E12.85593
G1 X134.229 Y143.488 E12.95654
G1 X139.023 Y140.947 E13.137
G1 X143.593 Y138.184 E13.31462
G1 X149.071 Y134.37 E13.53663
G1 X150.743 Y133.102 E13.60642
G1 X151.844 Y132.264 E13.65244
G1 X152.381 Y131.906 E13.67391
G1 X152.957 Y131.617 E13.69534
G1 X153.565 Y131.402 E13.71679
G1 X154.194 Y131.264 E13.73821
G1 X154.836 Y131.204 E13.75966
G1 X155.585 Y131.236 E13.78459
G1 X155.899 Y131.272 E13.7951
G1 X156.534 Y131.385 E13.81656
G1 X157.15 Y131.575 E13.838
G1 X157.737 Y131.841 E13.85943
G1 X158.48 Y132.318 E13.8888
G1 X161.899 Y134.951 E14.03233
G1 X166.321 Y138.031 E14.21156
G1 X167.847 Y138.987 E14.27146
G1 X167.898 Y139.02 E14.27348
G1 X169.063 Y139.769 E14.31954
G1 X169.583 Y140.151 E14.341
G1 X170.051 Y140.594 E14.36244
G1 X170.461 Y141.091 E14.38386
G1 X170.806 Y141.635 E14.40529
G1 X171.082 Y142.218 E14.42674
G1 X171.283 Y142.831 E14.4482
G1 X171.406 Y143.464 E14.46965
G1 X171.451 Y144.107 E14.49109
G1 X171.415 Y144.75 E14.51251
G1 X171.301 Y145.385 E14.53396
G1 X171.108 Y146 E14.5554
G1 X170.841 Y146.587 E14.57685
G1 X170.503 Y147.136 E14.59829
G1 X170.1 Y147.639 E14.61973
G1 X169.609 Y148.113 E14.64243
G1 X167.022 Y150.301 E14.75512
G1 X166.875 Y150.421 E14.76143
G1 X163.623 Y152.974 E14.89894
G1 X163.432 Y153.117 E14.90688
G1 X159.041 Y156.25 E15.08629
G1 X158.819 Y156.4 E15.0952
G1 X154.186 Y159.358 E15.27802
G1 X153.954 Y159.498 E15.28704
G1 X149.227 Y162.18 E15.4678
G1 X149.05 Y162.276 E15.4745
G1 X146.73 Y163.476 E15.56137
G1 X146.583 Y163.549 E15.56683
G1 X142.86 Y165.328 E15.70407
G1 X142.644 Y165.425 E15.71194
G1 X137.673 Y167.528 E15.89147
G1 X137.495 Y167.599 E15.89784
G1 X135.591 Y168.323 E15.96559
G1 X134.976 Y168.515 E15.98702
G1 X134.341 Y168.628 E16.00847
G1 X133.697 Y168.663 E16.02992
G1 X133.054 Y168.617 E16.05136
G1 X132.422 Y168.492 E16.07279
G1 X131.81 Y168.29 E16.09423
G1 X131.227 Y168.014 E16.11568
G1 X130.683 Y167.668 E16.13712
G1 X130.187 Y167.257 E16.15855
G1 X129.745 Y166.787 E16.18001
G1 X129.364 Y166.267 E16.20145
G1 X129.051 Y165.704 E16.22287
G1 X128.809 Y165.106 E16.24433
G1 X128.644 Y164.483 E16.26577
G1 X128.557 Y163.844 E16.28722
G1 X128.543 Y163.463 E16.2999
G1 X128.543 Y149.484 E16.76484
G1 X128.583 Y148.841 E16.78627
G1 X128.702 Y148.207 E16.80772
G1 X128.899 Y147.593 E16.82917
G1 X129.17 Y147.008 E16.85061
G1 X129.512 Y146.461 E16.87207
G1 X129.918 Y145.961 E16.89349
G1 X130.383 Y145.515 E16.91492
M204 S5000
M205 X30 Y30
G1 F2400 E11.91492
G0 F3600 X137.257 Y147.154
G0 X137.301 Y147.163
G0 X143.254 Y148.582
G0 X143.298 Y148.592
G0 X143.562 Y148.657
M204 S500
M205 X20 Y20
;TYPE:SUPPORT
G1 F2400 E16.91492
G1 F1800 X143.605 Y148.528 E16.91944
G1 X143.663 Y148.43 E16.92323
G1 X143.759 Y148.33 E16.92784
G1 X143.863 Y148.26 E16.93201
G1 X143.984 Y148.211 E16.93635
G1 X144.102 Y148.192 E16.94033
G1 X144.236 Y148.2 E16.94479
G1 X144.369 Y148.236 E16.94938
G1 X144.473 Y148.291 E16.95329
G1 X144.571 Y148.375 E16.95758
G1 X144.652 Y148.481 E16.96202
G1 X144.705 Y148.597 E16.96626
G1 X144.732 Y148.718 E16.97039
G1 X144.732 Y148.852 E16.97484
G1 X144.705 Y148.973 E16.97897
G1 X144.652 Y149.089 E16.98321
G1 X144.571 Y149.195 E16.98764
G1 X144.473 Y149.279 E16.99194
G1 X144.369 Y149.334 E16.99585
G1 X144.236 Y149.37 E17.00043
G1 X144.102 Y149.378 E17.0049
G1 X143.984 Y149.359 E17.00887
G1 X143.862 Y149.31 E17.01325
G1 X143.755 Y149.238 E17.01754
G1 X143.664 Y149.141 E17.02196
G1 X143.605 Y149.042 E17.02579
G1 X143.562 Y148.913 E17.03031
G1 X143.547 Y148.785 E17.0346
G1 X143.562 Y148.657 E17.03889
M204 S5000
M205 X30 Y30
G0 F3600 X144.018 Y148.368
M204 S500
M205 X20 Y20
G1 F1800 X144.018 Y149.199 E17.06653
M204 S5000
M205 X30 Y30
G1 F2400 E12.06653
G0 F3600 X144.973 Y148.563
G0 X145.01 Y148.539
G0 X151.21 Y144.427
G0 X151.247 Y144.402
G0 X151.472 Y144.255
M204 S500
M205 X20 Y20
G1 F2400 E17.06653
G1 F1800 X151.417 Y144.162 E17.07012
G1 X151.374 Y144.032 E17.07467
G1 X151.359 Y143.904 E17.07896
G1 X151.374 Y143.774 E17.08331
G1 X151.417 Y143.645 E17.08784
G1 X151.472 Y143.552 E17.09143
G1 X151.573 Y143.447 E17.09628
G1 X151.674 Y143.378 E17.10034
G1 X151.796 Y143.329 E17.10472
G1 X151.916 Y143.31 E17.10876
G1 X152.051 Y143.317 E17.11325
G1 X152.175 Y143.351 E17.11753
G1 X152.286 Y143.411 E17.12173
G1 X152.385 Y143.495 E17.12605
G1 X152.458 Y143.59 E17.13003
G1 X152.519 Y143.724 E17.13493
G1 X152.544 Y143.835 E17.13871
G1 X152.544 Y143.972 E17.14327
G1 X152.519 Y144.084 E17.14708
G1 X152.459 Y144.215 E17.15188
G1 X152.385 Y144.313 E17.15596
G1 X152.286 Y144.396 E17.16026
G1 X152.175 Y144.456 E17.16446
G1 X152.051 Y144.49 E17.16873
G1 X151.916 Y144.497 E17.17323
G1 X151.796 Y144.478 E17.17727
G1 X151.674 Y144.429 E17.18164
G1 X151.573 Y144.36 E17.18571
G1 X151.472 Y144.255 E17.19056
M204 S5000
M205 X30 Y30
G0 F3600 X151.538 Y144.018
M204 S500
M205 X20 Y20
G1 F1800 X152.37 Y144.018 E17.21823
M204 S5000
M205 X30 Y30
G0 F3600 X152.019 Y144.332
M204 S500
M205 X20 Y20
G1 F1800 X152.019 Y143.476 E17.2467
M204 S5000
M205 X30 Y30
G1 F2400 E12.2467
G0 F3600 X152.058 Y143.044
G0 X152.061 Y143
G0 X152.425 Y138.931
G0 X152.428 Y138.887
G0 X152.456 Y138.591
M204 S500
M205 X20 Y20
G1 F2400 E17.2467
G1 F1800 X153.664 Y137.693 E17.29676
G1 X155.049 Y136.599 E17.35546
G1 X155.209 Y136.618 E17.36082
G1 X159.604 Y142.035 E17.59284
G1 X159.109 Y142.435 E17.614
G1 X152.456 Y138.591 E17.86956
M204 S5000
M205 X30 Y30
G0 F3600 X152.937 Y138.684
M204 S500
M205 X20 Y20
G1 F1800 X156.679 Y138.684 E17.99402
M204 S5000
M205 X30 Y30
G0 F3600 X157.353 Y139.516
M204 S500
M205 X20 Y20
G1 F1800 X157.353 Y141.235 E18.0512
M204 S5000
M205 X30 Y30
G0 F3600 X157.552 Y141.351
M204 S500
M205 X20 Y20
G1 F1800 X158.843 Y141.351 E18.09414
M204 S5000
M205 X30 Y30
G0 F3600 X154.686 Y139.694
M204 S500
M205 X20 Y20
G1 F1800 X154.686 Y137.089 E18.18078
M204 S5000
M205 X30 Y30
G1 F2400 E13.18078
;MESH:InnenraumAbdeckungVorne.stl
G0 F3600 X153.358 Y139.384
G0 X152.716 Y140.497
G0 X159.251 Y144.343
G0 X159.244 Y144.244
M204 S500
M205 X20 Y20
;TYPE:WALL-INNER
G1 F2400 E18.18078
G1 F1800 X160.404 Y143.32 E18.2301
G1 X161.736 Y142.222 E18.28752
G1 X164.984 Y144.095 E18.41222
G1 X165.229 Y144.236 E18.42162
G1 X165.014 Y144.419 E18.42718
G1 X163.811 Y145.441 E18.47968
G1 X161.711 Y147.135 E18.56942
G1 X159.569 Y148.773 E18.6591
G1 X157.371 Y150.364 E18.74935
G1 X155.151 Y151.886 E18.83887
G1 X152.875 Y153.362 E18.9291
G1 X150.565 Y154.775 E19.01916
G1 X148.238 Y156.119 E19.10854
G1 X145.853 Y157.412 E19.19878
G1 X143.45 Y158.638 E19.2885
G1 X141.007 Y159.806 E19.37856
G1 X138.548 Y160.902 E19.46811
G1 X136.053 Y161.939 E19.55797
G1 X134.604 Y162.498 E19.60963
G1 X134.333 Y162.602 E19.61928
G1 X134.333 Y162.312 E19.62495
G1 X134.333 Y162.311 E19.62499
G1 X134.333 Y149.863 E20.03901
G1 X136.35 Y148.958 E20.11254
G1 X138.699 Y147.823 E20.19931
G1 X141.015 Y146.622 E20.28608
G1 X143.295 Y145.357 E20.3728
G1 X145.54 Y144.027 E20.45959
G1 X147.745 Y142.635 E20.54632
G1 X149.912 Y141.182 E20.6331
G1 X151.715 Y139.896 E20.70676
G1 X159.244 Y144.244 E20.99593
M204 S5000
M205 X30 Y30
G0 F3600 X159.251 Y144.343
G0 X153.19 Y145.727
G0 X153.134 Y145.645
M204 S500
M205 X20 Y20
G1 F1800 X153.48 Y145.349 E21.01108
G1 X153.755 Y144.988 E21.02617
G1 X153.946 Y144.575 E21.0413
G1 X154.044 Y144.132 E21.0564
G1 X154.044 Y143.675 E21.0716
G1 X153.946 Y143.232 E21.08669
G1 X153.755 Y142.819 E21.10182
G1 X153.48 Y142.458 E21.11691
G1 X153.134 Y142.162 E21.13206
G1 X152.732 Y141.949 E21.14719
G1 X152.293 Y141.827 E21.16234
G1 X151.839 Y141.803 E21.17747
G1 X151.391 Y141.876 E21.19256
G1 X150.967 Y142.045 E21.20774
G1 X150.591 Y142.301 E21.22287
G1 X150.279 Y142.63 E21.23795
G1 X150.044 Y143.02 E21.2531
G1 X149.899 Y143.452 E21.26825
G1 X149.85 Y143.904 E21.28338
G1 X149.899 Y144.355 E21.29846
