;FLAVOR:Marlin
;TIME:2133
;Filament used: 0.92453m
;Layer height: 0.1
;Generated with Cura_SteamEngine 3.6.0
M140 S60
M105
M190 S60
M104 S200
M105
M109 S200
M82 ;absolute extrusion mode
G28 ;Home
G1 Z15.0 F6000 ;Move the platform down 15mm
;Prime the extruder
G92 E0
G1 F200 E3
G92 E0
G92 E0
G1 F2400 E-5
;LAYER_COUNT:123
;LAYER:0
M107
M204 S5000
M205 X30 Y30
G0 F3600 X137.487 Y137.479 Z0.2
M204 S500
M205 X20 Y20
;TYPE:SKIRT
G1 F2400 E0
G1 F1800 X138.02 Y137.003 E0.02377
G1 X138.604 Y136.589 E0.04758
G1 X139.23 Y136.243 E0.07137
G1 X139.891 Y135.969 E0.09517
G1 X140.578 Y135.771 E0.11895
G1 X141.283 Y135.65 E0.14274
G1 X142.008 Y135.609 E0.16689
G1 X157.994 Y135.61 E0.69859
G1 X158.709 Y135.65 E0.7224
G1 X159.414 Y135.769 E0.74618
G1 X160.101 Y135.967 E0.76996
G1 X160.762 Y136.24 E0.79375
G1 X161.389 Y136.585 E0.81755
G1 X161.973 Y136.997 E0.84132
G1 X162.508 Y137.473 E0.86514
G1 X162.992 Y138.012 E0.88924
G1 X166.988 Y143.007 E1.10199
G1 X167.402 Y143.59 E1.12577
G1 X167.75 Y144.215 E1.14957
G1 X168.025 Y144.875 E1.17335
G1 X168.225 Y145.562 E1.19715
G1 X168.347 Y146.266 E1.22091
G1 X168.39 Y147.005 E1.24553
G1 X168.39 Y152.997 E1.44483
G1 X168.35 Y153.711 E1.46861
G1 X168.231 Y154.416 E1.49239
G1 X168.033 Y155.104 E1.5162
G1 X167.76 Y155.765 E1.53999
G1 X167.416 Y156.392 E1.56377
G1 X166.987 Y156.996 E1.58842
G1 X162.991 Y161.99 E1.80115
G1 X162.514 Y162.522 E1.82491
G1 X161.98 Y162.998 E1.8487
G1 X161.396 Y163.412 E1.87251
G1 X160.77 Y163.758 E1.8963
G1 X160.109 Y164.031 E1.92009
G1 X159.422 Y164.23 E1.94388
G1 X158.717 Y164.35 E1.96766
G1 X157.994 Y164.391 E1.99175
G1 X142.006 Y164.39 E2.52351
G1 X141.291 Y164.35 E2.54733
G1 X140.586 Y164.231 E2.57111
G1 X139.899 Y164.033 E2.59489
G1 X139.238 Y163.76 E2.61868
G1 X138.611 Y163.415 E2.64248
G1 X138.027 Y163.003 E2.66625
G1 X137.492 Y162.527 E2.69007
G1 X137.008 Y161.988 E2.71416
G1 X133.012 Y156.993 E2.92692
G1 X132.598 Y156.41 E2.9507
G1 X132.25 Y155.785 E2.97449
G1 X131.975 Y155.125 E2.99827
G1 X131.775 Y154.438 E3.02207
G1 X131.653 Y153.734 E3.04584
G1 X131.61 Y152.995 E3.07046
G1 X131.61 Y147.009 E3.26955
G1 X131.65 Y146.295 E3.29334
G1 X131.769 Y145.59 E3.31712
G1 X131.967 Y144.902 E3.34093
G1 X132.24 Y144.241 E3.36472
G1 X132.584 Y143.614 E3.3885
G1 X133.011 Y143.012 E3.41305
G1 X137.009 Y138.012 E3.62598
G1 X137.487 Y137.479 E3.64979
M204 S5000
M205 X30 Y30
G0 F3600 X137.785 Y137.747
M204 S500
M205 X20 Y20
G1 F1800 X138.304 Y137.289 E3.67281
G1 X138.873 Y136.893 E3.69587
G1 X139.483 Y136.566 E3.71889
G1 X140.127 Y136.311 E3.74193
G1 X140.796 Y136.133 E3.76495
G1 X141.481 Y136.032 E3.78798
G1 X142.008 Y136.009 E3.80553
G1 X157.994 Y136.01 E4.33722
G1 X158.686 Y136.05 E4.36028
G1 X159.368 Y136.169 E4.3833
G1 X160.032 Y136.367 E4.40635
G1 X160.668 Y136.639 E4.42936
G1 X161.27 Y136.983 E4.45242
G1 X161.827 Y137.394 E4.47544
G1 X162.333 Y137.866 E4.49845
G1 X162.679 Y138.262 E4.51595
G1 X166.675 Y143.257 E4.7287
G1 X167.076 Y143.822 E4.75174
G1 X167.409 Y144.429 E4.77477
G1 X167.67 Y145.07 E4.79779
G1 X167.855 Y145.738 E4.82085
G1 X167.962 Y146.422 E4.84387
G1 X167.99 Y147.005 E4.86329
G1 X167.99 Y152.997 E5.06258
G1 X167.95 Y153.688 E5.0856
G1 X167.831 Y154.371 E5.10866
G1 X167.633 Y155.034 E5.13167
G1 X167.361 Y155.671 E5.15471
G1 X167.017 Y156.272 E5.17774
G1 X166.675 Y156.746 E5.19718
G1 X162.679 Y161.74 E5.40991
G1 X162.216 Y162.254 E5.43292
G1 X161.696 Y162.713 E5.45599
G1 X161.128 Y163.108 E5.479
G1 X160.517 Y163.435 E5.50205
G1 X159.873 Y163.689 E5.52508
G1 X159.204 Y163.868 E5.54811
G1 X158.519 Y163.968 E5.57114
G1 X157.994 Y163.991 E5.58861
G1 X142.006 Y163.99 E6.12038
G1 X141.314 Y163.95 E6.14343
G1 X140.632 Y163.831 E6.16646
G1 X139.968 Y163.633 E6.1895
G1 X139.332 Y163.361 E6.21251
G1 X138.73 Y163.017 E6.23557
G1 X138.173 Y162.606 E6.25859
G1 X137.667 Y162.134 E6.28161
G1 X137.321 Y161.738 E6.2991
G1 X133.325 Y156.743 E6.51186
G1 X132.924 Y156.178 E6.5349
G1 X132.591 Y155.571 E6.55793
G1 X132.33 Y154.93 E6.58095
G1 X132.145 Y154.262 E6.604
G1 X132.038 Y153.578 E6.62703
G1 X132.01 Y152.995 E6.64644
G1 X132.01 Y147.009 E6.84554
G1 X132.05 Y146.318 E6.86856
G1 X132.169 Y145.635 E6.89162
G1 X132.367 Y144.972 E6.91463
G1 X132.639 Y144.335 E6.93767
G1 X132.983 Y143.734 E6.9607
G1 X133.324 Y143.262 E6.98007
G1 X137.322 Y138.262 E7.19299
G1 X137.785 Y137.747 E7.21603
M204 S5000
M205 X30 Y30
G0 F3600 X138.083 Y138.015
M204 S500
M205 X20 Y20
G1 F1800 X138.587 Y137.576 E7.23826
G1 X139.14 Y137.199 E7.26052
G1 X139.734 Y136.891 E7.28277
G1 X140.361 Y136.657 E7.30503
G1 X141.011 Y136.499 E7.32728
G1 X142.008 Y136.409 E7.36058
G1 X157.994 Y136.41 E7.89227
G1 X158.662 Y136.45 E7.91453
G1 X159.32 Y136.569 E7.93677
G1 X159.96 Y136.766 E7.95904
G1 X160.571 Y137.038 E7.98129
G1 X161.146 Y137.381 E8.00355
G1 X161.675 Y137.79 E8.02579
G1 X162.367 Y138.512 E8.05906
G1 X166.363 Y143.507 E8.27181
G1 X166.749 Y144.053 E8.29405
G1 X167.067 Y144.642 E8.31632
G1 X167.313 Y145.264 E8.33856
G1 X167.482 Y145.911 E8.3608
G1 X167.573 Y146.574 E8.38306
G1 X167.59 Y147.005 E8.39741
G1 X167.59 Y152.997 E8.5967
G1 X167.55 Y153.665 E8.61896
G1 X167.431 Y154.323 E8.6412
G1 X167.234 Y154.963 E8.66347
G1 X166.962 Y155.574 E8.68572
G1 X166.619 Y156.148 E8.70796
G1 X166.363 Y156.496 E8.72233
G1 X162.367 Y161.49 E8.93506
G1 X161.918 Y161.986 E8.95731
G1 X161.414 Y162.426 E8.97956
G1 X160.86 Y162.802 E9.00183
G1 X160.266 Y163.109 E9.02407
G1 X159.64 Y163.344 E9.04631
G1 X158.989 Y163.502 E9.06859
G1 X157.994 Y163.591 E9.10182
G1 X142.006 Y163.59 E9.63358
G1 X141.338 Y163.55 E9.65584
G1 X140.68 Y163.431 E9.67808
G1 X140.04 Y163.234 E9.70035
G1 X139.429 Y162.962 E9.72259
G1 X138.854 Y162.619 E9.74486
G1 X138.325 Y162.21 E9.7671
G1 X137.633 Y161.488 E9.80037
G1 X133.637 Y156.493 E10.01312
G1 X133.251 Y155.947 E10.03536
G1 X132.933 Y155.358 E10.05762
G1 X132.687 Y154.736 E10.07987
G1 X132.518 Y154.089 E10.10211
G1 X132.427 Y153.426 E10.12437
G1 X132.41 Y152.995 E10.13872
G1 X132.41 Y147.009 E10.33781
G1 X132.45 Y146.341 E10.36007
G1 X132.569 Y145.683 E10.38231
G1 X132.766 Y145.043 E10.40458
G1 X133.038 Y144.432 E10.42683
G1 X133.381 Y143.858 E10.44907
G1 X133.636 Y143.512 E10.46336
G1 X137.634 Y138.512 E10.67629
G1 X138.083 Y138.015 E10.69857
M204 S5000
M205 X30 Y30
G0 F3600 X138.38 Y138.284
M204 S500
M205 X20 Y20
G1 F1800 X138.869 Y137.864 E10.72001
G1 X139.406 Y137.507 E10.74145
G1 X139.983 Y137.22 E10.76289
G1 X140.591 Y137.006 E10.78433
G1 X141.221 Y136.869 E10.80577
G1 X142.008 Y136.809 E10.83202
G1 X157.994 Y136.81 E11.36372
G1 X158.638 Y136.85 E11.38518
G1 X159.271 Y136.969 E11.4066
G1 X159.885 Y137.166 E11.42805
G1 X160.47 Y137.437 E11.44949
G1 X161.017 Y137.779 E11.47095
G1 X161.517 Y138.185 E11.49237
G1 X162.055 Y138.762 E11.51861
G1 X166.051 Y143.757 E11.73137
G1 X166.421 Y144.284 E11.75278
G1 X166.724 Y144.853 E11.77422
G1 X166.954 Y145.455 E11.79566
G1 X167.107 Y146.082 E11.81712
G1 X167.19 Y147.005 E11.84795
G1 X167.19 Y152.997 E12.04724
G1 X167.15 Y153.64 E12.06867
G1 X167.031 Y154.274 E12.09012
G1 X166.834 Y154.888 E12.11157
G1 X166.563 Y155.473 E12.13302
G1 X166.05 Y156.246 E12.16387
G1 X162.054 Y161.24 E12.3766
G1 X161.621 Y161.717 E12.39803
G1 X161.132 Y162.137 E12.41947
G1 X160.595 Y162.494 E12.44092
G1 X160.018 Y162.781 E12.46235
G1 X159.409 Y162.995 E12.48382
G1 X158.779 Y163.131 E12.50526
G1 X157.994 Y163.191 E12.53144
G1 X142.006 Y163.19 E13.0632
G1 X141.362 Y163.15 E13.08467
G1 X140.729 Y163.031 E13.10609
G1 X140.115 Y162.834 E13.12754
G1 X139.53 Y162.563 E13.14898
G1 X138.983 Y162.221 E13.17044
G1 X138.483 Y161.815 E13.19186
G1 X137.945 Y161.238 E13.2181
G1 X133.949 Y156.243 E13.43085
G1 X133.579 Y155.716 E13.45227
G1 X133.276 Y155.147 E13.47371
G1 X133.046 Y154.545 E13.49514
G1 X132.893 Y153.918 E13.51661
G1 X132.81 Y152.995 E13.54743
G1 X132.81 Y147.009 E13.74653
G1 X132.85 Y146.366 E13.76796
G1 X132.969 Y145.732 E13.78941
G1 X133.166 Y145.118 E13.81086
G1 X133.437 Y144.533 E13.8323
G1 X133.949 Y143.762 E13.86308
G1 X137.947 Y138.762 E14.07601
G1 X138.38 Y138.284 E14.09746
M204 S5000
M205 X30 Y30
G1 F2400 E9.09746
;MESH:LinsenHalterung.stl
G0 F3600 X138.614 Y146.335
G0 X138.614 Y147.614
G0 X139.01 Y147.664
G0 X139.069 Y147.744
M204 S500
M205 X20 Y20
;TYPE:WALL-INNER
G1 F2400 E14.09746
G1 F1800 X138.79 Y147.99 E14.10983
G1 X138.6 Y148.205 E14.11938
G1 X138.6 Y147.99 E14.12057
G1 X138.6 Y147.6 E14.13354
G1 X138.79 Y147.6 E14.13911
G1 X139.069 Y147.6 E14.14502
G1 X139.284 Y147.6 E14.15218
G1 X139.069 Y147.744 E14.15459
M204 S5000
M205 X30 Y30
G0 F3600 X139.01 Y147.664
G0 X138.402 Y149.359
G0 X138.317 Y150
G0 X138.385 Y150.518
G0 X139.009 Y152.336
G0 X139.069 Y152.256
M204 S500
M205 X20 Y20
G1 F1800 X139.284 Y152.4 E14.16319
G1 X139.069 Y152.4 E14.16417
G1 X138.79 Y152.4 E14.17299
G1 X138.6 Y152.4 E14.17931
G1 X138.6 Y152.01 E14.19228
G1 X138.6 Y151.795 E14.19944
G1 X138.79 Y152.01 E14.203
G1 X139.069 Y152.256 E14.21199
M204 S5000
M205 X30 Y30
G0 F3600 X139.009 Y152.336
G0 X144.721 Y153.02
G0 X145.463 Y154.008
G0 X146.478 Y154.886
G0 X147.346 Y155.784
G0 X148.606 Y155.838
G0 X149.77 Y155.998
G0 X150.946 Y155.93
G0 X152.085 Y155.635
G0 X153.238 Y155.511
G0 X157.33 Y152.33
G0 X157.4 Y152.4
M204 S500
M205 X20 Y20
G1 F1800 X157.4 Y157.4 E14.3783
G1 X142.6 Y157.4 E14.87055
G1 X142.6 Y152.4 E15.03685
G1 X142.531 Y152.4 E15.03914
G1 X142.316 Y152.4 E15.04629
G1 X142.512 Y152.269 E15.04813
G1 X142.531 Y152.256
G1 X142.81 Y152.01 E15.0605
G1 X143.056 Y151.731 E15.07287
G1 X143.263 Y151.422 E15.08524
G1 X143.313 Y151.32 E15.08902
G1 X143.427 Y151.088 E15.09762
G1 X143.544 Y150.744 E15.1097
G1 X143.597 Y151.058 E15.11165
G1 X143.618 Y151.182 E15.11475
G1 X143.679 Y151.434 E15.12147
G1 X143.723 Y151.615 E15.12767
G1 X143.858 Y152.038 E15.14243
G1 X144.016 Y152.44 E15.1568
G1 X144.202 Y152.831 E15.1712
G1 X144.412 Y153.207 E15.18553
G1 X144.649 Y153.572 E15.2
G1 X144.913 Y153.922 E15.21458
G1 X145.198 Y154.253 E15.22911
G1 X145.507 Y154.566 E15.24374
G1 X145.939 Y154.937 E15.26268
G1 X146.273 Y155.184 E15.2765
G1 X146.618 Y155.405 E15.29012
G1 X146.976 Y155.604 E15.30375
G1 X147.346 Y155.784 E15.31743
G1 X147.725 Y155.944 E15.33111
G1 X148.119 Y156.079 E15.34497
G1 X148.522 Y156.189 E15.35886
G1 X148.929 Y156.272 E15.37268
G1 X149.34 Y156.329 E15.38648
G1 X149.755 Y156.359 E15.40032
G1 X150.172 Y156.363 E15.41419
G1 X150.589 Y156.337 E15.42808
G1 X151.003 Y156.286 E15.44196
G1 X151.41 Y156.206 E15.45575
G1 X151.81 Y156.102 E15.4695
G1 X152.204 Y155.976 E15.48326
G1 X152.594 Y155.828 E15.49713
G1 X152.981 Y155.651 E15.51128
G1 X153.353 Y155.448 E15.52538
G1 X153.713 Y155.222 E15.53952
G1 X154.058 Y154.97 E15.55373
G1 X154.385 Y154.697 E15.56789
G1 X154.694 Y154.402 E15.5821
G1 X154.982 Y154.086 E15.59632
G1 X155.249 Y153.753 E15.61052
G1 X155.495 Y153.401 E15.6248
G1 X155.716 Y153.033 E15.63908
G1 X155.914 Y152.651 E15.65339
G1 X156.084 Y152.258 E15.66763
G1 X156.231 Y151.851 E15.68203
G1 X156.346 Y151.444 E15.69609
G1 X156.348 Y151.434 E15.69643
G1 X156.367 Y151.344 E15.69949
G1 X156.428 Y151.058 E15.70922
G1 X156.438 Y151.013 E15.71075
G1 X156.471 Y150.787 E15.71835
G1 X156.536 Y150.979 E15.719
G1 X156.573 Y151.088 E15.72004
G1 X156.666 Y151.277 E15.72361
G1 X156.737 Y151.422 E15.72809
G1 X156.743 Y151.431 E15.72845
G1 X156.944 Y151.731 E15.74046
G1 X157.19 Y152.01 E15.75283
G1 X157.469 Y152.256 E15.76521
G1 X157.487 Y152.268 E15.76593
G1 X157.684 Y152.4 E15.77381
G1 X157.469 Y152.4 E15.77497
G1 X157.4 Y152.4
M204 S5000
M205 X30 Y30
G0 F3600 X157.33 Y152.33
G0 X159.013 Y152.467
G0 X160.991 Y152.336
G0 X160.931 Y152.256
M204 S500
M205 X20 Y20
G1 F1800 X161.21 Y152.01 E15.78735
G1 X161.4 Y151.795 E15.79689
G1 X161.4 Y152.01 E15.79808
G1 X161.4 Y152.4 E15.81105
G1 X161.21 Y152.4 E15.81662
G1 X160.931 Y152.4 E15.82253
G1 X160.716 Y152.4 E15.82969
G1 X160.931 Y152.256 E15.8321
M204 S5000
M205 X30 Y30
G0 F3600 X160.991 Y152.336
G0 X161.598 Y150.641
G0 X161.683 Y150
G0 X161.615 Y149.482
G0 X160.997 Y147.669
G0 X160.931 Y147.744
M204 S500
M205 X20 Y20
G1 F1800 X160.716 Y147.6 E15.8407
G1 X160.931 Y147.6 E15.84168
G1 X161.21 Y147.6 E15.8505
G1 X161.4 Y147.6 E15.85682
G1 X161.4 Y147.99 E15.86979
G1 X161.4 Y148.205 E15.87695
G1 X161.21 Y147.99 E15.88051
G1 X160.931 Y147.744 E15.88951
M204 S5000
M205 X30 Y30
G0 F3600 X160.997 Y147.669
G0 X159.38 Y147.533
G0 X157.33 Y147.67
G0 X157.4 Y147.6
M204 S500
M205 X20 Y20
G1 F1800 X157.469 Y147.6 E15.8918
G1 X157.684 Y147.6 E15.89895
G1 X157.488 Y147.731 E15.90079
G1 X157.469 Y147.744
G1 X157.19 Y147.99 E15.91316
G1 X156.944 Y148.269 E15.92553
G1 X156.744 Y148.568 E15.9375
G1 X156.737 Y148.578 E15.9379
G1 X156.729 Y148.595 E15.93853
G1 X156.573 Y148.912 E15.95028
G1 X156.496 Y149.137 E15.95819
G1 X156.472 Y148.923 E15.95892
G1 X156.463 Y148.854
G1 X156.422 Y148.639 E15.96204
G1 X156.38 Y148.426 E15.96811
G1 X156.377 Y148.414 E15.96852
G1 X156.271 Y148.005 E15.98258
G1 X156.135 Y147.591 E15.99707
G1 X155.968 Y147.184 E16.0117
G1 X155.776 Y146.79 E16.02628
G1 X155.559 Y146.408 E16.04089
G1 X155.315 Y146.041 E16.05555
G1 X155.047 Y145.688 E16.07029
G1 X154.749 Y145.35 E16.08528
G1 X154.417 Y145.031 E16.10059
G1 X154.062 Y144.737 E16.11592
G1 X153.689 Y144.469 E16.1312
G1 X153.299 Y144.228 E16.14645
G1 X152.892 Y144.015 E16.16173
G1 X152.473 Y143.829 E16.17697
G1 X152.042 Y143.674 E16.19221
G1 X151.599 Y143.548 E16.20753
G1 X151.151 Y143.453 E16.22276
G1 X150.696 Y143.389 E16.23804
G1 X150.237 Y143.356 E16.25335
G1 X149.778 Y143.356 E16.26861
G1 X149.322 Y143.387 E16.28381
G1 X148.866 Y143.45 E16.29912
G1 X148.417 Y143.543 E16.31438
G1 X147.976 Y143.668 E16.32962
G1 X147.543 Y143.823 E16.34492
G1 X147.124 Y144.006 E16.36012
G1 X146.715 Y144.22 E16.37548
G1 X146.321 Y144.463 E16.39087
G1 X145.947 Y144.735 E16.40626
G1 X145.601 Y145.036 E16.42151
G1 X145.279 Y145.354 E16.43656
G1 X144.977 Y145.695 E16.45171
G1 X144.703 Y146.057 E16.46681
G1 X144.453 Y146.433 E16.48183
G1 X144.23 Y146.827 E16.49689
G1 X144.036 Y147.234 E16.51188
G1 X143.868 Y147.65 E16.5268
G1 X143.73 Y148.082 E16.54189
G1 X143.631 Y148.479 E16.5555
G1 X143.622 Y148.518 E16.55683
G1 X143.602 Y148.635 E16.56078
G1 X143.551 Y148.933 E16.57083
G1 X143.546 Y148.96 E16.57174
G1 X143.522 Y149.192 E16.5795
G1 X143.454 Y148.991 E16.5802
G1 X143.427 Y148.912
G1 X143.31 Y148.673 E16.58476
G1 X143.263 Y148.578 E16.58744
G1 X143.241 Y148.544 E16.58878
G1 X143.056 Y148.269 E16.59981
G1 X142.81 Y147.99 E16.61218
G1 X142.531 Y147.744 E16.62455
G1 X142.513 Y147.732 E16.62527
G1 X142.316 Y147.6 E16.63316
G1 X142.531 Y147.6 E16.63432
G1 X142.6 Y147.6
G1 X142.6 Y142.6 E16.80062
G1 X157.4 Y142.6 E17.29287
G1 X157.4 Y147.6 E17.45917
M204 S5000
M205 X30 Y30
G0 F3600 X157.8 Y147.2
M204 S500
M205 X20 Y20
;TYPE:WALL-OUTER
G1 F1800 X158.767 Y147.2 E17.49133
G1 X158.882 Y147.2 E17.49516
G1 X159.2 Y147.2 E17.50573
G1 X159.518 Y147.2 E17.51631
G1 X159.633 Y147.2 E17.52014
G1 X161.8 Y147.2 E17.59221
G1 X161.8 Y148.943 E17.65018
G1 X161.8 Y149.065 E17.65424
G1 X161.8 Y149.369 E17.66435
G1 X161.8 Y149.682 E17.67476
G1 X161.8 Y150 E17.68534
G1 X161.8 Y150.318 E17.69592
G1 X161.8 Y150.631 E17.70633
G1 X161.8 Y150.935 E17.71644
G1 X161.8 Y151.057 E17.7205
G1 X161.8 Y152.8 E17.77847
G1 X159.633 Y152.8 E17.85054
G1 X159.518 Y152.8 E17.85437
G1 X159.2 Y152.8 E17.86494
G1 X158.882 Y152.8 E17.87552
G1 X158.767 Y152.8 E17.87935
G1 X157.8 Y152.8 E17.91151
G1 X157.8 Y157.8 E18.07781
G1 X142.2 Y157.8 E18.59667
G1 X142.2 Y152.8 E18.76297
G1 X141.233 Y152.8 E18.79513
G1 X141.118 Y152.8 E18.79896
G1 X140.8 Y152.8 E18.80953
G1 X140.482 Y152.8 E18.82011
G1 X140.367 Y152.8 E18.82393
G1 X138.2 Y152.8 E18.89601
G1 X138.2 Y151.057 E18.95398
G1 X138.2 Y150.935 E18.95804
G1 X138.2 Y150.631 E18.96815
G1 X138.2 Y150.318 E18.97856
G1 X138.2 Y150 E18.98914
G1 X138.2 Y149.682 E18.99971
G1 X138.2 Y149.369 E19.01012
G1 X138.2 Y149.065 E19.02023
G1 X138.2 Y148.943 E19.02429
G1 X138.2 Y147.2 E19.08226
G1 X140.367 Y147.2 E19.15434
G1 X140.482 Y147.2 E19.15816
G1 X140.8 Y147.2 E19.16874
G1 X141.118 Y147.2 E19.17932
G1 X141.233 Y147.2 E19.18314
G1 X142.2 Y147.2 E19.21531
G1 X142.2 Y142.2 E19.38161
G1 X157.8 Y142.2 E19.90046
