;FLAVOR:Marlin
;TIME:1827
;Filament used: 1.72842m
;Layer height: 0.2
;Generated with Cura_SteamEngine 3.6.0
M140 S60
M105
M190 S60
M104 S200
M105
M109 S200
M82 ;absolute extrusion mode
G28 ;Home
G1 Z15.0 F6000 ;Move the platform down 15mm
;Prime the extruder
G92 E0
G1 F200 E3
G92 E0
G92 E0
G1 F2400 E-5
;LAYER_COUNT:13
;LAYER:0
M107
M204 S5000
M205 X30 Y30
G0 F3600 X199.442 Y214.75 Z0.2
M204 S500
M205 X20 Y20
;TYPE:SKIRT
G1 F2400 E0
G1 F1800 X200.092 Y214.154 E0.02933
G1 X200.689 Y213.673 E0.05483
G1 X201.287 Y213.242 E0.07935
G1 X202.127 Y212.784 E0.11117
G1 X202.84 Y212.458 E0.13725
G1 X203.527 Y212.188 E0.1618
G1 X204.425 Y211.957 E0.19264
G1 X205.167 Y211.819 E0.21774
G1 X205.898 Y211.723 E0.24226
G1 X206.786 Y211.714 E0.2718
G1 X207.526 Y211.755 E0.29645
G1 X208.259 Y211.836 E0.32098
G1 X209.094 Y212.029 E0.34948
G1 X209.798 Y212.239 E0.37391
G1 X210.492 Y212.487 E0.39843
G1 X211.323 Y212.907 E0.4294
G1 X212.004 Y213.311 E0.45573
G1 X212.617 Y213.721 E0.48026
G1 X213.364 Y214.372 E0.51322
G1 X213.932 Y214.945 E0.54005
G1 X214.422 Y215.496 E0.56458
G1 X214.985 Y216.32 E0.59777
G1 X215.373 Y216.989 E0.62349
G1 X215.708 Y217.646 E0.64802
G1 X216.02 Y218.499 E0.67823
G1 X216.23 Y219.22 E0.70321
G1 X216.397 Y219.938 E0.72772
G1 X216.493 Y220.793 E0.75634
G1 X216.528 Y221.516 E0.78041
G1 X216.524 Y222.253 E0.80493
G1 X216.453 Y222.906 E0.82677
G1 X216.366 Y223.457 E0.84533
G1 X216.211 Y224.178 E0.86986
G1 X216.004 Y224.815 E0.89213
G1 X215.741 Y225.506 E0.91673
G1 X215.442 Y226.18 E0.94125
G1 X214.995 Y226.932 E0.97035
G1 X214.57 Y227.552 E0.99535
G1 X214.121 Y228.136 E1.01985
G1 X213.611 Y228.669 E1.04438
G1 X213.163 Y229.054 E1.06403
G1 X212.271 Y229.755 E1.10176
G1 X211.667 Y230.178 E1.12629
G1 X211.021 Y230.534 E1.15082
G1 X210.431 Y230.785 E1.17215
G1 X209.675 Y231.065 E1.19896
G1 X208.97 Y231.283 E1.22351
G1 X207.986 Y231.455 E1.25673
G1 X207.182 Y231.535 E1.2836
G1 X206.446 Y231.568 E1.30811
G1 X205.423 Y231.481 E1.34225
G1 X204.65 Y231.356 E1.3683
G1 X203.93 Y231.199 E1.39281
G1 X203.069 Y230.898 E1.42315
G1 X202.37 Y230.6 E1.44842
G1 X201.709 Y230.275 E1.47292
G1 X200.954 Y229.783 E1.50289
G1 X200.356 Y229.334 E1.52776
G1 X199.791 Y228.86 E1.55229
G1 X199.161 Y228.183 E1.58305
G1 X198.668 Y227.576 E1.60906
G1 X198.235 Y226.979 E1.63359
G1 X197.804 Y226.207 E1.663
G1 X197.5 Y225.567 E1.68656
G1 X197.22 Y224.884 E1.71111
G1 X197.016 Y224.176 E1.73562
G1 X196.911 Y223.613 E1.75467
G1 X196.744 Y222.447 E1.79384
G1 X196.679 Y221.713 E1.81835
G1 X196.694 Y220.976 E1.84287
G1 X196.78 Y220.291 E1.86583
G1 X196.919 Y219.51 E1.89222
G1 X197.088 Y218.793 E1.91672
G1 X197.41 Y217.918 E1.94773
G1 X197.716 Y217.236 E1.97259
G1 X198.054 Y216.581 E1.99711
G1 X198.525 Y215.881 E2.02517
G1 X198.963 Y215.31 E2.0491
G1 X199.442 Y214.75 E2.07361
M204 S5000
M205 X30 Y30
G0 F3600 X199.746 Y215.011
M204 S500
M205 X20 Y20
G1 F1800 X200.343 Y214.465 E2.10052
G1 X200.94 Y213.984 E2.12602
G1 X201.521 Y213.567 E2.14981
G1 X202.294 Y213.148 E2.17905
G1 X203.007 Y212.822 E2.20513
G1 X203.673 Y212.561 E2.22892
G1 X204.498 Y212.35 E2.25724
G1 X205.24 Y212.212 E2.28234
G1 X205.949 Y212.121 E2.30612
G1 X206.764 Y212.114 E2.33323
G1 X207.504 Y212.155 E2.35788
G1 X208.215 Y212.234 E2.38167
G1 X208.979 Y212.412 E2.40776
G1 X209.683 Y212.622 E2.4322
G1 X210.356 Y212.864 E2.45598
G1 X211.119 Y213.251 E2.48444
G1 X211.8 Y213.655 E2.51077
G1 X212.394 Y214.053 E2.53456
G1 X213.08 Y214.653 E2.56487
G1 X213.648 Y215.226 E2.5917
G1 X214.123 Y215.762 E2.61552
G1 X214.639 Y216.521 E2.64605
G1 X215.027 Y217.19 E2.67177
G1 X215.351 Y217.828 E2.69557
G1 X215.636 Y218.611 E2.72328
G1 X215.846 Y219.332 E2.74826
G1 X216.007 Y220.029 E2.77205
G1 X216.094 Y220.813 E2.79829
G1 X216.129 Y221.536 E2.82237
G1 X216.123 Y222.251 E2.84615
G1 X216.058 Y222.843 E2.86596
G1 X215.971 Y223.394 E2.88451
G1 X215.82 Y224.093 E2.90829
G1 X215.63 Y224.673 E2.92859
G1 X215.367 Y225.364 E2.95319
G1 X215.076 Y226.017 E2.97696
G1 X214.665 Y226.706 E3.00365
G1 X214.24 Y227.326 E3.02865
G1 X213.803 Y227.892 E3.05243
G1 X213.306 Y228.406 E3.07621
G1 X212.916 Y228.739 E3.09327
G1 X212.024 Y229.44 E3.131
G1 X211.437 Y229.85 E3.15482
G1 X210.809 Y230.192 E3.1786
G1 X210.292 Y230.41 E3.19726
G1 X209.536 Y230.69 E3.22408
G1 X208.852 Y230.9 E3.24787
G1 X207.947 Y231.057 E3.27842
G1 X207.143 Y231.137 E3.3053
G1 X206.428 Y231.167 E3.3291
G1 X205.487 Y231.086 E3.36051
G1 X204.714 Y230.961 E3.38656
G1 X204.016 Y230.807 E3.41033
G1 X203.226 Y230.53 E3.43817
G1 X202.527 Y230.232 E3.46345
G1 X201.886 Y229.915 E3.48723
G1 X201.194 Y229.463 E3.51472
G1 X200.596 Y229.014 E3.53959
G1 X200.049 Y228.553 E3.56339
G1 X199.471 Y227.931 E3.59163
G1 X198.978 Y227.324 E3.61764
G1 X198.559 Y226.744 E3.64144
G1 X198.165 Y226.035 E3.66841
G1 X197.861 Y225.395 E3.69198
G1 X197.591 Y224.733 E3.71576
G1 X197.396 Y224.044 E3.73957
G1 X197.307 Y223.556 E3.75607
G1 X197.14 Y222.39 E3.79525
G1 X197.078 Y221.678 E3.81902
G1 X197.096 Y220.963 E3.84281
G1 X197.174 Y220.362 E3.86297
G1 X197.313 Y219.581 E3.88935
G1 X197.478 Y218.884 E3.91317
G1 X197.775 Y218.082 E3.94162
G1 X198.081 Y217.4 E3.96648
G1 X198.41 Y216.765 E3.99027
G1 X198.842 Y216.125 E4.01595
G1 X199.28 Y215.554 E4.03989
G1 X199.746 Y215.011 E4.06368
M204 S5000
M205 X30 Y30
G0 F3600 X200.05 Y215.273
M204 S500
M205 X20 Y20
G1 F1800 X200.594 Y214.777 E4.08817
G1 X201.191 Y214.296 E4.11367
G1 X201.754 Y213.893 E4.1367
G1 X202.46 Y213.511 E4.1634
G1 X203.173 Y213.185 E4.18947
G1 X203.818 Y212.934 E4.21249
G1 X204.571 Y212.743 E4.23833
G1 X205.313 Y212.605 E4.26343
G1 X206 Y212.518 E4.28646
G1 X206.742 Y212.513 E4.31114
G1 X207.482 Y212.554 E4.33579
G1 X208.17 Y212.632 E4.35882
G1 X208.865 Y212.795 E4.38257
G1 X209.569 Y213.005 E4.407
G1 X210.22 Y213.241 E4.43003
G1 X210.915 Y213.595 E4.45597
G1 X211.596 Y213.999 E4.48231
G1 X212.171 Y214.386 E4.50536
G1 X212.796 Y214.935 E4.53303
G1 X213.364 Y215.508 E4.55987
G1 X213.823 Y216.027 E4.58291
G1 X214.293 Y216.722 E4.61082
G1 X214.681 Y217.391 E4.63654
G1 X214.994 Y218.009 E4.65958
G1 X215.252 Y218.723 E4.68483
G1 X215.462 Y219.444 E4.70981
G1 X215.617 Y220.119 E4.73284
G1 X215.694 Y220.832 E4.75669
G1 X215.729 Y221.555 E4.78077
G1 X215.722 Y222.247 E4.80379
G1 X215.663 Y222.781 E4.82165
G1 X215.576 Y223.332 E4.84021
G1 X215.428 Y224.008 E4.86322
G1 X215.257 Y224.53 E4.88149
G1 X214.994 Y225.221 E4.90609
G1 X214.71 Y225.853 E4.92913
G1 X214.335 Y226.479 E4.9534
G1 X213.91 Y227.099 E4.9784
G1 X213.486 Y227.647 E5.00145
G1 X213.002 Y228.142 E5.02447
G1 X212.668 Y228.425 E5.03903
G1 X211.776 Y229.126 E5.07677
G1 X211.208 Y229.521 E5.09978
G1 X210.598 Y229.849 E5.12281
G1 X210.153 Y230.034 E5.13884
G1 X209.397 Y230.314 E5.16566
G1 X208.735 Y230.517 E5.18869
G1 X207.907 Y230.659 E5.21663
G1 X207.103 Y230.739 E5.2435
G1 X206.411 Y230.767 E5.26654
G1 X205.551 Y230.691 E5.29525
G1 X204.778 Y230.566 E5.3213
G1 X204.102 Y230.416 E5.34433
G1 X203.383 Y230.162 E5.36969
G1 X202.684 Y229.864 E5.39496
G1 X202.064 Y229.556 E5.41799
G1 X201.434 Y229.143 E5.44304
G1 X200.836 Y228.694 E5.46791
G1 X200.308 Y228.247 E5.49092
G1 X199.782 Y227.679 E5.51667
G1 X199.289 Y227.072 E5.54268
G1 X198.884 Y226.51 E5.56572
G1 X198.526 Y225.863 E5.59032
G1 X198.222 Y225.223 E5.61388
G1 X197.962 Y224.582 E5.63689
G1 X197.777 Y223.914 E5.65994
G1 X197.703 Y223.5 E5.67393
G1 X197.536 Y222.334 E5.71311
G1 X197.477 Y221.644 E5.73614
G1 X197.499 Y220.951 E5.7592
G1 X197.568 Y220.432 E5.77661
G1 X197.707 Y219.651 E5.803
G1 X197.867 Y218.977 E5.82604
G1 X198.14 Y218.246 E5.85199
G1 X198.446 Y217.564 E5.87685
G1 X198.765 Y216.949 E5.8999
G1 X199.159 Y216.368 E5.92325
G1 X199.597 Y215.797 E5.94718
G1 X200.05 Y215.273 E5.97022
M204 S5000
M205 X30 Y30
G0 F3600 X200.353 Y215.535
M204 S500
M205 X20 Y20
G1 F1800 X200.845 Y215.088 E5.99233
G1 X201.442 Y214.607 E6.01783
G1 X201.987 Y214.219 E6.04008
G1 X202.626 Y213.875 E6.06422
G1 X203.339 Y213.549 E6.09029
G1 X203.963 Y213.308 E6.11254
G1 X204.644 Y213.136 E6.1359
G1 X205.386 Y212.998 E6.161
G1 X206.05 Y212.916 E6.18326
G1 X206.72 Y212.913 E6.20554
G1 X207.46 Y212.954 E6.23019
G1 X208.124 Y213.03 E6.25242
G1 X208.751 Y213.179 E6.27386
G1 X209.455 Y213.389 E6.29829
G1 X210.083 Y213.618 E6.32052
G1 X210.711 Y213.939 E6.34398
G1 X211.392 Y214.343 E6.37032
G1 X211.946 Y214.718 E6.39257
G1 X212.512 Y215.217 E6.41766
G1 X213.08 Y215.79 E6.4445
G1 X213.522 Y216.292 E6.46675
G1 X213.947 Y216.922 E6.49202
G1 X214.335 Y217.591 E6.51774
G1 X214.636 Y218.189 E6.54001
G1 X214.868 Y218.835 E6.56284
G1 X215.078 Y219.556 E6.58782
G1 X215.226 Y220.208 E6.61005
G1 X215.294 Y220.851 E6.63156
G1 X215.329 Y221.574 E6.65564
G1 X215.322 Y222.243 E6.67789
G1 X215.267 Y222.718 E6.69379
G1 X215.18 Y223.269 E6.71235
G1 X215.037 Y223.923 E6.73461
G1 X214.883 Y224.388 E6.7509
G1 X214.62 Y225.079 E6.77549
G1 X214.345 Y225.689 E6.79775
G1 X214.005 Y226.253 E6.81965
G1 X213.58 Y226.873 E6.84465
G1 X213.169 Y227.401 E6.86691
G1 X212.699 Y227.877 E6.88916
G1 X212.421 Y228.11 E6.90122
G1 X211.529 Y228.811 E6.93896
G1 X210.979 Y229.192 E6.96121
G1 X210.388 Y229.505 E6.98345
G1 X210.014 Y229.659 E6.9969
G1 X209.258 Y229.939 E7.02372
G1 X208.618 Y230.134 E7.04597
G1 X207.867 Y230.26 E7.0713
G1 X207.063 Y230.34 E7.09817
G1 X206.395 Y230.367 E7.12041
G1 X205.615 Y230.296 E7.14646
G1 X204.842 Y230.171 E7.1725
G1 X204.189 Y230.025 E7.19476
G1 X203.54 Y229.794 E7.21767
G1 X202.841 Y229.496 E7.24294
G1 X202.242 Y229.198 E7.2652
G1 X201.675 Y228.823 E7.28781
G1 X201.077 Y228.374 E7.31268
G1 X200.567 Y227.941 E7.33493
G1 X200.092 Y227.427 E7.35821
G1 X199.599 Y226.82 E7.38422
G1 X199.209 Y226.276 E7.40648
G1 X198.888 Y225.692 E7.42864
G1 X198.584 Y225.052 E7.45221
G1 X198.333 Y224.431 E7.47449
G1 X198.159 Y223.786 E7.49671
G1 X198.099 Y223.443 E7.50829
G1 X197.932 Y222.277 E7.54747
G1 X197.876 Y221.61 E7.56973
G1 X197.901 Y220.942 E7.59196
G1 X197.962 Y220.502 E7.60674
G1 X198.101 Y219.721 E7.63312
G1 X198.257 Y219.07 E7.65539
G1 X198.505 Y218.41 E7.67884
G1 X198.811 Y217.728 E7.7037
G1 X199.121 Y217.135 E7.72595
G1 X199.477 Y216.612 E7.747
G1 X199.915 Y216.041 E7.77093
G1 X200.353 Y215.535 E7.79319
M204 S5000
M205 X30 Y30
G0 F3600 X200.655 Y215.798
M204 S500
M205 X20 Y20
G1 F1800 X201.096 Y215.4 E7.81295
G1 X201.693 Y214.919 E7.83845
G1 X202.219 Y214.546 E7.85989
G1 X202.793 Y214.239 E7.88154
G1 X203.506 Y213.913 E7.90762
G1 X204.108 Y213.682 E7.92907
G1 X204.717 Y213.53 E7.94994
G1 X205.459 Y213.392 E7.97505
G1 X206.099 Y213.313 E7.99649
G1 X206.698 Y213.312 E8.01642
G1 X207.438 Y213.353 E8.04107
G1 X208.078 Y213.428 E8.0625
G1 X208.636 Y213.562 E8.08159
G1 X209.34 Y213.772 E8.10602
G1 X209.946 Y213.994 E8.12749
G1 X210.507 Y214.283 E8.14847
G1 X211.188 Y214.687 E8.17481
G1 X211.721 Y215.049 E8.19624
G1 X212.228 Y215.498 E8.21877
G1 X212.796 Y216.071 E8.2456
G1 X213.221 Y216.556 E8.26705
G1 X213.601 Y217.123 E8.28975
G1 X213.989 Y217.792 E8.31547
G1 X214.277 Y218.369 E8.33692
G1 X214.484 Y218.947 E8.35734
G1 X214.694 Y219.668 E8.38232
G1 X214.835 Y220.297 E8.40376
G1 X214.895 Y220.871 E8.42295
G1 X214.93 Y221.594 E8.44703
G1 X214.921 Y222.238 E8.46845
G1 X214.872 Y222.656 E8.48245
G1 X214.785 Y223.207 E8.501
G1 X214.646 Y223.836 E8.52243
G1 X214.509 Y224.246 E8.53681
G1 X214.246 Y224.937 E8.5614
G1 X213.98 Y225.524 E8.58283
G1 X213.675 Y226.027 E8.6024
G1 X213.25 Y226.647 E8.6274
G1 X212.853 Y227.155 E8.64884
G1 X212.174 Y227.796 E8.6799
G1 X211.282 Y228.497 E8.71763
G1 X210.751 Y228.863 E8.73908
G1 X210.18 Y229.16 E8.76049
G1 X209.875 Y229.284 E8.77144
G1 X209.119 Y229.564 E8.79825
G1 X208.502 Y229.75 E8.81969
G1 X207.828 Y229.862 E8.84241
G1 X207.024 Y229.942 E8.86929
G1 X206.38 Y229.966 E8.89072
G1 X205.679 Y229.901 E8.91413
G1 X204.906 Y229.776 E8.94018
G1 X204.277 Y229.634 E8.96163
G1 X203.697 Y229.426 E8.98212
G1 X202.998 Y229.128 E9.00739
G1 X202.421 Y228.839 E9.02886
G1 X201.915 Y228.503 E9.04906
G1 X201.317 Y228.054 E9.07393
G1 X200.826 Y227.636 E9.09538
G1 X200.403 Y227.174 E9.11621
G1 X199.91 Y226.567 E9.14222
G1 X199.535 Y226.043 E9.16365
G1 X199.249 Y225.52 E9.18348
G1 X198.945 Y224.88 E9.20704
G1 X198.705 Y224.282 E9.22848
G1 X198.495 Y223.386 E9.25908
G1 X198.328 Y222.22 E9.29826
G1 X198.276 Y221.578 E9.31968
G1 X198.304 Y220.934 E9.34112
G1 X198.355 Y220.572 E9.35328
G1 X198.494 Y219.791 E9.37967
G1 X198.647 Y219.164 E9.40113
G1 X198.87 Y218.573 E9.42214
G1 X199.176 Y217.891 E9.44701
G1 X199.476 Y217.321 E9.46843
G1 X199.794 Y216.855 E9.48719
G1 X200.232 Y216.284 E9.51113
G1 X200.655 Y215.798 E9.53256
M204 S5000
M205 X30 Y30
G1 F2400 E4.53256
;MESH:PlatinenAbstandshalterRing.stl
G0 F3600 X202.857 Y220.93
G0 X204.096 Y221.323
G0 X204.195 Y222.055
G0 X204.096 Y222.068
M204 S500
M205 X20 Y20
;TYPE:WALL-INNER
G1 F2400 E9.53256
G1 F1800 X204.077 Y221.944 E9.53673
G1 X204.072 Y221.849 E9.5399
G1 X204.06 Y221.664 E9.54606
G1 X204.058 Y221.632 E9.54713
G1 X204.07 Y221.43 E9.55386
G1 X204.077 Y221.321 E9.55749
G1 X204.099 Y221.202 E9.56152
G1 X204.133 Y221.018 E9.56774
G1 X204.147 Y220.973 E9.56931
G1 X204.204 Y220.793 E9.57559
G1 X204.231 Y220.711 E9.57846
G1 X204.283 Y220.585 E9.58299
G1 X204.29 Y220.57 E9.58354
G1 X204.365 Y220.42 E9.58912
G1 X204.397 Y220.368 E9.59115
G1 X204.495 Y220.21 E9.59733
G1 X204.519 Y220.172 E9.59883
G1 X204.612 Y220.047 E9.60401
G1 X204.637 Y220.018 E9.60528
G1 X204.716 Y219.924 E9.60937
G1 X204.777 Y219.861 E9.61229
G1 X204.828 Y219.807 E9.61476
G1 X204.941 Y219.709 E9.61973
G1 X205.049 Y219.615 E9.62449
G1 X205.115 Y219.568 E9.62719
G1 X205.186 Y219.517 E9.6301
G1 X205.3 Y219.45 E9.63449
G1 X205.443 Y219.365 E9.64003
G1 X205.487 Y219.344 E9.64165
G1 X205.588 Y219.296 E9.64537
G1 X205.685 Y219.258 E9.64883
G1 X205.754 Y219.23 E9.65131
G1 X205.897 Y219.188 E9.65627
G1 X206.029 Y219.149 E9.66084
G1 X206.121 Y219.134 E9.66394
G1 X206.302 Y219.104 E9.67005
G1 X206.346 Y219.096 E9.67153
G1 X206.536 Y219.088 E9.67786
G1 X206.643 Y219.083 E9.68142
G1 X206.77 Y219.092 E9.68566
G1 X206.963 Y219.108 E9.6921
G1 X207.001 Y219.115 E9.69338
G1 X207.188 Y219.154 E9.69974
G1 X207.276 Y219.173 E9.70273
G1 X207.407 Y219.216 E9.70732
G1 X207.577 Y219.274 E9.71329
G1 X207.626 Y219.297 E9.71509
G1 X207.797 Y219.379 E9.7214
G1 X207.837 Y219.399 E9.72289
G1 X207.978 Y219.483 E9.72834
G1 X208.01 Y219.506 E9.72966
G1 X208.165 Y219.617 E9.736
G1 X208.218 Y219.656 E9.73819
G1 X208.34 Y219.762 E9.74356
G1 X208.354 Y219.776 E9.74422
G1 X208.459 Y219.88 E9.74913
G1 X208.496 Y219.921 E9.75097
G1 X208.564 Y219.997 E9.75436
G1 X208.636 Y220.089 E9.75825
G1 X208.65 Y220.107 E9.75901
G1 X208.757 Y220.27 E9.76549
G1 X208.828 Y220.378 E9.76979
G1 X208.872 Y220.468 E9.77312
G1 X208.96 Y220.649 E9.77982
G1 X208.975 Y220.692 E9.78133
G1 X209.065 Y220.95 E9.79042
G1 X209.091 Y221.074 E9.79463
G1 X209.127 Y221.244 E9.80041
G1 X209.134 Y221.301 E9.80232
G1 X209.148 Y221.417 E9.80621
G1 X209.153 Y221.51 E9.80931
G1 X209.156 Y221.556 E9.81084
G1 X209.151 Y221.729 E9.8166
G1 X209.147 Y221.866 E9.82116
G1 X209.137 Y221.951 E9.824
G1 X209.128 Y222.015 E9.82615
G1 X209.095 Y222.168 E9.83136
G1 X209.06 Y222.33 E9.83687
G1 X209.036 Y222.399 E9.8393
G1 X208.974 Y222.572 E9.84541
G1 X208.95 Y222.637 E9.84772
G1 X208.878 Y222.782 E9.8531
G1 X208.814 Y222.91 E9.85786
G1 X208.775 Y222.973 E9.86033
G1 X208.739 Y223.032 E9.86262
G1 X208.645 Y223.157 E9.86783
G1 X208.549 Y223.285 E9.87315
G1 X208.499 Y223.337 E9.87555
G1 X208.373 Y223.469 E9.88162
G1 X208.348 Y223.496 E9.88284
G1 X208.215 Y223.612 E9.88871
G1 X208.177 Y223.641 E9.8903
G1 X208.105 Y223.696 E9.89331
G1 X207.86 Y223.851 E9.90296
G1 X207.823 Y223.874 E9.90441
G1 X207.638 Y223.961 E9.9112
G1 X207.55 Y224.002 E9.91443
G1 X207.42 Y224.044 E9.91898
G1 X207.252 Y224.099 E9.92486
G1 X207.196 Y224.11 E9.92676
G1 X207.014 Y224.147 E9.93293
G1 X206.96 Y224.158 E9.93477
G1 X206.782 Y224.17 E9.9407
G1 X206.642 Y224.181 E9.94537
G1 X206.552 Y224.178 E9.94837
G1 X206.368 Y224.169 E9.95449
G1 X206.325 Y224.167 E9.95592
G1 X206.132 Y224.134 E9.96244
G1 X206.024 Y224.115 E9.96608
G1 X205.906 Y224.08 E9.97018
G1 X205.734 Y224.028 E9.97615
G1 X205.686 Y224.007 E9.9779
G1 X205.516 Y223.931 E9.98409
