;FLAVOR:Marlin
;TIME:4383
;Filament used: 4.08124m
;Layer height: 0.2
;Generated with Cura_SteamEngine 3.6.0
M140 S60
M105
M190 S60
M104 S200
M105
M109 S200
M82 ;absolute extrusion mode
G28 ;Home
G1 Z15.0 F6000 ;Move the platform down 15mm
;Prime the extruder
G92 E0
G1 F200 E3
G92 E0
G92 E0
G1 F2400 E-5
;LAYER_COUNT:33
;LAYER:0
M107
M204 S5000
M205 X30 Y30
G0 F3600 X109.499 Y86.251 Z0.2
M204 S500
M205 X20 Y20
;TYPE:SKIRT
G1 F2400 E0
G1 F1800 X109.974 Y85.716 E0.0238
G1 X110.506 Y85.238 E0.04758
G1 X111.087 Y84.822 E0.07135
G1 X111.712 Y84.474 E0.09514
G1 X112.372 Y84.197 E0.11895
G1 X113.058 Y83.996 E0.14273
G1 X113.762 Y83.872 E0.1665
G1 X114.476 Y83.828 E0.19029
G1 X115.191 Y83.864 E0.2141
G1 X115.897 Y83.979 E0.2379
G1 X116.693 Y84.211 E0.26547
G1 X119.752 Y85.319 E0.37368
G1 X119.955 Y85.396 E0.3809
G1 X123.96 Y87.003 E0.52443
G1 X124.201 Y87.106 E0.53315
G1 X128.094 Y88.856 E0.67511
G1 X128.329 Y88.967 E0.68376
G1 X132.234 Y90.917 E0.82893
G1 X132.469 Y91.041 E0.83777
G1 X136.213 Y93.109 E0.98003
G1 X136.439 Y93.24 E0.98872
G1 X140.104 Y95.464 E1.1313
G1 X140.325 Y95.604 E1.14001
G1 X143.937 Y98.003 E1.28422
G1 X144.154 Y98.154 E1.29302
G1 X147.641 Y100.684 E1.43631
G1 X147.851 Y100.843 E1.44507
G1 X151.231 Y103.514 E1.58835
G1 X151.48 Y103.721 E1.59912
G1 X156.253 Y107.902 E1.81017
G1 X156.492 Y108.123 E1.82099
G1 X159.578 Y111.117 E1.964
G1 X159.762 Y111.302 E1.97268
G1 X162.73 Y114.426 E2.116
G1 X162.906 Y114.619 E2.12469
G1 X165.717 Y117.831 E2.26665
G1 X165.885 Y118.03 E2.27532
G1 X168.569 Y121.361 E2.41759
G1 X168.73 Y121.571 E2.4264
G1 X171.314 Y125.064 E2.57091
G1 X171.466 Y125.278 E2.57964
G1 X173.888 Y128.849 E2.72315
G1 X174.032 Y129.071 E2.73195
G1 X176.295 Y132.724 E2.87488
G1 X176.427 Y132.948 E2.88352
G1 X178.542 Y136.695 E3.02663
G1 X178.667 Y136.926 E3.03537
G1 X180.627 Y140.757 E3.1785
G1 X180.742 Y140.994 E3.18726
G1 X182.543 Y144.903 E3.33041
G1 X182.673 Y145.205 E3.34134
G1 X185.103 Y151.284 E3.55909
G1 X185.238 Y151.657 E3.57228
G1 X187.238 Y157.726 E3.78481
G1 X187.35 Y158.101 E3.79783
G1 X189.005 Y164.394 E4.01425
G1 X189.093 Y164.777 E4.02732
G1 X190.329 Y171.009 E4.23864
G1 X190.384 Y171.329 E4.24944
G1 X191.008 Y175.602 E4.39307
G1 X191.04 Y175.862 E4.40178
G1 X191.487 Y180.14 E4.54484
G1 X191.509 Y180.404 E4.55365
G1 X191.781 Y184.737 E4.69805
G1 X191.793 Y185 E4.70681
G1 X191.886 Y189.297 E4.84976
G1 X191.886 Y189.559 E4.85847
G1 X191.803 Y193.852 E5.00129
G1 X191.792 Y194.113 E5.00998
G1 X191.533 Y198.416 E5.15335
G1 X191.512 Y198.676 E5.16203
G1 X191.083 Y202.911 E5.30361
G1 X191.052 Y203.171 E5.31232
G1 X190.443 Y207.434 E5.45554
G1 X190.408 Y207.653 E5.46292
G1 X189.83 Y210.894 E5.57242
G1 X189.665 Y211.59 E5.59621
G1 X189.423 Y212.263 E5.61999
G1 X189.108 Y212.905 E5.64378
G1 X188.724 Y213.508 E5.66756
G1 X188.274 Y214.064 E5.69135
G1 X187.765 Y214.567 E5.71515
G1 X187.204 Y215.01 E5.73892
G1 X186.596 Y215.387 E5.76272
G1 X185.95 Y215.694 E5.78651
G1 X185.274 Y215.928 E5.8103
G1 X184.576 Y216.084 E5.83409
G1 X183.865 Y216.161 E5.85787
G1 X183.15 Y216.159 E5.88165
G1 X182.439 Y216.077 E5.90546
G1 X181.742 Y215.915 E5.92926
G1 X181.068 Y215.678 E5.95302
G1 X180.33 Y215.313 E5.98041
G1 X175.763 Y212.677 E6.15579
G1 X175.164 Y212.285 E6.1796
G1 X174.613 Y211.829 E6.20339
G1 X174.175 Y211.382 E6.2242
G1 X170.849 Y207.634 E6.39087
G1 X167.391 Y204.108 E6.55513
G1 X166.919 Y203.571 E6.57891
G1 X166.511 Y202.983 E6.60271
G1 X166.17 Y202.354 E6.62651
G1 X165.902 Y201.691 E6.6503
G1 X165.71 Y201.003 E6.67405
G1 X165.595 Y200.296 E6.69788
G1 X165.561 Y199.512 E6.72398
G1 X165.678 Y193.02 E6.93994
G1 X165.451 Y187.743 E7.11561
G1 X164.925 Y182.481 E7.2915
G1 X164.094 Y177.201 E7.46928
G1 X163.587 Y174.676 E7.55493
G1 X162.997 Y172.121 E7.64215
G1 X161.575 Y166.969 E7.81991
G1 X159.867 Y161.912 E7.99744
G1 X158.963 Y159.564 E8.08113
G1 X156.816 Y154.633 E8.26
G1 X154.43 Y149.905 E8.43615
G1 X151.781 Y145.319 E8.6123
G1 X148.885 Y140.903 E8.78794
G1 X145.723 Y136.63 E8.96474
G1 X142.332 Y132.548 E9.14125
G1 X140.604 Y130.641 E9.22684
G1 X136.852 Y126.835 E9.4046
G1 X132.925 Y123.28 E9.58078
G1 X128.804 Y119.952 E9.75696
G1 X124.516 Y116.873 E9.93254
G1 X120.056 Y114.039 E10.10829
G1 X114.415 Y110.92 E10.32268
G1 X113.809 Y110.539 E10.34649
G1 X113.25 Y110.094 E10.37025
G1 X112.744 Y109.588 E10.39405
G1 X112.297 Y109.029 E10.41786
G1 X111.916 Y108.424 E10.44164
G1 X111.604 Y107.781 E10.46541
G1 X111.326 Y106.962 E10.49418
G1 X110.671 Y104.497 E10.57901
G1 X108.42 Y97.471 E10.82439
G1 X108.24 Y96.779 E10.84818
G1 X108.139 Y96.071 E10.87196
G1 X108.115 Y95.52 E10.89031
G1 X108.113 Y90.23 E11.06625
G1 X108.153 Y89.516 E11.09004
G1 X108.272 Y88.811 E11.11382
G1 X108.469 Y88.123 E11.13762
G1 X108.742 Y87.462 E11.16141
G1 X109.086 Y86.835 E11.18519
G1 X109.499 Y86.251 E11.20898
M204 S5000
M205 X30 Y30
G0 F3600 X109.895 Y86.397
M204 S500
M205 X20 Y20
G1 F1800 X110.367 Y85.89 E11.23202
G1 X110.895 Y85.442 E11.25505
G1 X111.47 Y85.057 E11.27807
G1 X112.087 Y84.74 E11.30114
G1 X112.735 Y84.497 E11.32416
G1 X113.407 Y84.331 E11.34718
G1 X114.094 Y84.243 E11.37022
G1 X114.787 Y84.234 E11.39327
G1 X115.476 Y84.306 E11.41631
G1 X116.152 Y84.456 E11.43934
G1 X116.556 Y84.587 E11.45347
G1 X119.615 Y85.695 E11.56168
G1 X119.806 Y85.768 E11.56848
G1 X123.811 Y87.375 E11.71201
G1 X124.037 Y87.47 E11.72016
G1 X127.93 Y89.22 E11.86212
G1 X128.151 Y89.325 E11.87026
G1 X132.056 Y91.275 E12.01544
G1 X132.276 Y91.391 E12.02371
G1 X136.02 Y93.459 E12.16597
G1 X136.232 Y93.582 E12.17412
G1 X139.897 Y95.806 E12.31671
G1 X140.104 Y95.937 E12.32485
G1 X143.716 Y98.336 E12.46907
G1 X143.92 Y98.478 E12.47734
G1 X147.407 Y101.008 E12.62063
G1 X147.603 Y101.156 E12.6288
G1 X150.983 Y103.827 E12.77208
G1 X151.217 Y104.022 E12.78221
G1 X155.99 Y108.203 E12.99326
G1 X156.214 Y108.41 E13.0034
G1 X159.3 Y111.404 E13.14641
G1 X159.472 Y111.577 E13.15452
G1 X162.44 Y114.701 E13.29785
G1 X162.605 Y114.883 E13.30602
G1 X165.416 Y118.095 E13.44798
G1 X165.573 Y118.281 E13.45608
G1 X168.257 Y121.612 E13.59836
G1 X168.409 Y121.809 E13.60663
G1 X170.993 Y125.302 E13.75114
G1 X171.135 Y125.502 E13.7593
G1 X173.557 Y129.073 E13.90282
G1 X173.692 Y129.281 E13.91106
G1 X175.955 Y132.934 E14.05399
G1 X176.079 Y133.145 E14.06213
G1 X178.194 Y136.892 E14.20524
G1 X178.311 Y137.108 E14.21341
G1 X180.271 Y140.939 E14.35653
G1 X180.378 Y141.161 E14.36473
G1 X182.179 Y145.07 E14.50788
G1 X182.301 Y145.354 E14.51816
G1 X184.731 Y151.433 E14.7359
G1 X184.859 Y151.782 E14.74827
G1 X186.859 Y157.851 E14.9608
G1 X186.963 Y158.203 E14.97301
G1 X188.618 Y164.496 E15.18943
G1 X188.7 Y164.855 E15.20168
G1 X189.936 Y171.087 E15.413
G1 X189.988 Y171.387 E15.42312
G1 X190.612 Y175.66 E15.56675
G1 X190.643 Y175.903 E15.5749
G1 X191.09 Y180.181 E15.71796
G1 X191.11 Y180.429 E15.72623
G1 X191.382 Y184.762 E15.87063
G1 X191.393 Y185.008 E15.87882
G1 X191.486 Y189.305 E16.02178
G1 X191.486 Y189.551 E16.02996
G1 X191.403 Y193.844 E16.17277
G1 X191.393 Y194.088 E16.18089
G1 X191.134 Y198.391 E16.32427
G1 X191.114 Y198.636 E16.33245
G1 X190.685 Y202.871 E16.47402
G1 X190.656 Y203.115 E16.4822
G1 X190.047 Y207.378 E16.62542
G1 X190.014 Y207.582 E16.6323
G1 X189.436 Y210.823 E16.74179
G1 X189.275 Y211.497 E16.76484
G1 X189.038 Y212.148 E16.78789
G1 X188.727 Y212.767 E16.81093
G1 X188.347 Y213.346 E16.83396
G1 X187.903 Y213.877 E16.85698
G1 X187.401 Y214.354 E16.88001
G1 X186.847 Y214.769 E16.90304
G1 X186.249 Y215.118 E16.92607
G1 X185.614 Y215.396 E16.94912
G1 X184.952 Y215.599 E16.97215
G1 X184.271 Y215.724 E16.99518
G1 X183.58 Y215.77 E17.01821
G1 X182.888 Y215.736 E17.04126
G1 X182.205 Y215.622 E17.06429
G1 X181.54 Y215.431 E17.0873
G1 X180.9 Y215.164 E17.11037
G1 X180.53 Y214.967 E17.12431
G1 X175.963 Y212.331 E17.29969
G1 X175.384 Y211.95 E17.32275
G1 X174.853 Y211.506 E17.34577
G1 X174.474 Y211.116 E17.36385
G1 X171.15 Y207.371 E17.5304
G1 X167.676 Y203.828 E17.69544
G1 X167.221 Y203.307 E17.71844
G1 X166.828 Y202.736 E17.7415
G1 X166.504 Y202.124 E17.76453
G1 X166.253 Y201.479 E17.78755
G1 X166.078 Y200.809 E17.81058
G1 X165.981 Y200.123 E17.83363
G1 X165.961 Y199.519 E17.85373
G1 X166.078 Y193.01 E18.07025
G1 X165.85 Y187.721 E18.24633
G1 X165.322 Y182.433 E18.42308
G1 X164.488 Y177.129 E18.60166
G1 X163.977 Y174.586 E18.68793
G1 X163.389 Y172.038 E18.77491
G1 X161.958 Y166.856 E18.95371
G1 X160.237 Y161.759 E19.13264
G1 X159.328 Y159.401 E19.21669
G1 X157.182 Y154.471 E19.39553
G1 X154.776 Y149.704 E19.57313
G1 X152.132 Y145.126 E19.74897
G1 X149.203 Y140.66 E19.9266
G1 X146.044 Y136.391 E20.10324
G1 X142.633 Y132.284 E20.2808
G1 X140.891 Y130.362 E20.36708
G1 X137.132 Y126.549 E20.54517
G1 X133.19 Y122.98 E20.72203
G1 X129.054 Y119.64 E20.89885
G1 X124.718 Y116.527 E21.07638
G1 X120.266 Y113.698 E21.25182
G1 X114.609 Y110.57 E21.46682
G1 X114.023 Y110.2 E21.48987
G1 X113.484 Y109.766 E21.51289
G1 X112.998 Y109.272 E21.53594
G1 X112.573 Y108.725 E21.55898
G1 X112.213 Y108.134 E21.582
G1 X111.924 Y107.504 E21.60505
G1 X111.713 Y106.859 E21.62762
G1 X111.058 Y104.392 E21.71252
G1 X108.801 Y97.349 E21.9585
G1 X108.628 Y96.678 E21.98155
G1 X108.534 Y95.992 E22.00458
G1 X108.515 Y95.52 E22.02029
G1 X108.513 Y90.23 E22.19624
G1 X108.553 Y89.539 E22.21926
G1 X108.672 Y88.857 E22.24228
G1 X108.869 Y88.193 E22.26532
G1 X109.141 Y87.556 E22.28836
G1 X109.485 Y86.955 E22.31139
G1 X109.895 Y86.397 E22.33442
M204 S5000
M205 X30 Y30
G0 F3600 X110.291 Y86.549
M204 S500
M205 X20 Y20
G1 F1800 X110.76 Y86.071 E22.35669
G1 X111.283 Y85.654 E22.37894
G1 X111.851 Y85.301 E22.40118
G1 X112.458 Y85.019 E22.42344
G1 X113.094 Y84.811 E22.4457
G1 X113.75 Y84.68 E22.46795
G1 X114.417 Y84.629 E22.4902
G1 X115.085 Y84.657 E22.51244
G1 X115.746 Y84.765 E22.53471
G1 X116.42 Y84.963 E22.55808
G1 X119.479 Y86.071 E22.66629
G1 X119.657 Y86.139 E22.67263
G1 X123.662 Y87.746 E22.81616
G1 X123.873 Y87.835 E22.82377
G1 X127.766 Y89.585 E22.96574
G1 X127.972 Y89.683 E22.97332
G1 X131.877 Y91.633 E23.1185
G1 X132.083 Y91.741 E23.12623
G1 X135.827 Y93.809 E23.26849
G1 X136.024 Y93.924 E23.27608
G1 X139.689 Y96.148 E23.41867
G1 X139.882 Y96.27 E23.42626
G1 X143.494 Y98.669 E23.57048
G1 X143.685 Y98.801 E23.5782
G1 X147.172 Y101.331 E23.72149
G1 X147.355 Y101.47 E23.72913
G1 X150.735 Y104.141 E23.87242
G1 X150.953 Y104.323 E23.88186
G1 X155.726 Y108.504 E24.09291
G1 X155.935 Y108.697 E24.10237
G1 X159.021 Y111.691 E24.24538
G1 X159.182 Y111.853 E24.25297
G1 X162.15 Y114.977 E24.3963
G1 X162.304 Y115.146 E24.4039
G1 X165.115 Y118.358 E24.54587
G1 X165.262 Y118.532 E24.55344
G1 X167.946 Y121.863 E24.69572
G1 X168.087 Y122.047 E24.70343
G1 X170.671 Y125.54 E24.84794
G1 X170.804 Y125.727 E24.85558
G1 X173.226 Y129.298 E24.99909
G1 X173.352 Y129.492 E25.00678
G1 X175.615 Y133.145 E25.14971
G1 X175.731 Y133.341 E25.15728
G1 X177.846 Y137.088 E25.30039
G1 X177.954 Y137.29 E25.30801
G1 X179.914 Y141.121 E25.45114
G1 X180.015 Y141.329 E25.45883
G1 X181.816 Y145.238 E25.60198
G1 X181.93 Y145.502 E25.61154
G1 X184.36 Y151.581 E25.82928
G1 X184.479 Y151.907 E25.84083
G1 X186.479 Y157.976 E26.05336
G1 X186.576 Y158.305 E26.06477
G1 X188.231 Y164.598 E26.28119
G1 X188.308 Y164.933 E26.29263
G1 X189.544 Y171.165 E26.50394
G1 X189.592 Y171.445 E26.51339
G1 X190.216 Y175.718 E26.65702
G1 X190.245 Y175.945 E26.66463
G1 X190.692 Y180.223 E26.80769
G1 X190.711 Y180.454 E26.8154
G1 X190.983 Y184.787 E26.9598
G1 X190.993 Y185.017 E26.96746
G1 X191.086 Y189.314 E27.11041
G1 X191.086 Y189.543 E27.11802
G1 X191.003 Y193.836 E27.26084
G1 X190.994 Y194.064 E27.26843
G1 X190.735 Y198.367 E27.4118
G1 X190.716 Y198.595 E27.41941
G1 X190.287 Y202.83 E27.56099
G1 X190.26 Y203.058 E27.56863
G1 X189.651 Y207.321 E27.71185
G1 X189.62 Y207.512 E27.71829
G1 X189.042 Y210.753 E27.82779
G1 X188.885 Y211.404 E27.85006
G1 X188.652 Y212.031 E27.87231
G1 X188.346 Y212.626 E27.89456
G1 X187.971 Y213.18 E27.91681
G1 X187.533 Y213.685 E27.93905
G1 X187.037 Y214.135 E27.96132
G1 X186.492 Y214.522 E27.98355
G1 X185.904 Y214.841 E28.0058
G1 X185.282 Y215.088 E28.02806
G1 X184.636 Y215.26 E28.0503
G1 X183.973 Y215.352 E28.07256
G1 X183.304 Y215.365 E28.09481
G1 X182.638 Y215.299 E28.11707
G1 X181.985 Y215.153 E28.13933
G1 X181.354 Y214.931 E28.16158
G1 X180.73 Y214.62 E28.18477
G1 X176.163 Y211.984 E28.36015
G1 X175.604 Y211.616 E28.38241
G1 X175.094 Y211.183 E28.40466
G1 X174.773 Y210.851 E28.42002
G1 X171.433 Y207.087 E28.58739
G1 X167.962 Y203.548 E28.75227
G1 X167.523 Y203.043 E28.77452
G1 X167.147 Y202.49 E28.79676
G1 X166.84 Y201.896 E28.819
G1 X166.606 Y201.269 E28.84126
G1 X166.448 Y200.619 E28.86351
G1 X166.37 Y199.954 E28.88578
G1 X166.361 Y199.526 E28.90002
G1 X166.478 Y193.017 E29.11654
G1 X166.248 Y187.681 E29.29419
G1 X165.719 Y182.383 E29.47127
G1 X164.882 Y177.062 E29.65043
G1 X164.372 Y174.523 E29.73656
G1 X163.769 Y171.911 E29.82572
G1 X162.344 Y166.747 E30.0039
G1 X160.617 Y161.636 E30.18333
G1 X159.694 Y159.238 E30.26879
G1 X157.539 Y154.289 E30.44833
G1 X155.137 Y149.53 E30.62563
G1 X152.467 Y144.907 E30.80319
G1 X149.538 Y140.44 E30.98086
G1 X146.357 Y136.142 E31.1587
G1 X142.93 Y132.016 E31.3371
G1 X141.179 Y130.083 E31.42384
G1 X137.403 Y126.254 E31.60271
G1 X133.457 Y122.681 E31.77976
G1 X129.294 Y119.32 E31.95771
G1 X124.961 Y116.208 E32.13515
G1 X120.464 Y113.35 E32.31237
G1 X114.802 Y110.22 E32.52755
G1 X114.237 Y109.862 E32.5498
G1 X113.719 Y109.439 E32.57204
G1 X113.255 Y108.957 E32.59429
G1 X112.851 Y108.423 E32.61656
G1 X112.514 Y107.845 E32.63882
G1 X112.249 Y107.231 E32.66106
G1 X112.1 Y106.756 E32.67762
G1 X111.444 Y104.288 E32.76255
G1 X109.182 Y97.227 E33.00916
G1 X109.016 Y96.579 E33.03141
G1 X108.929 Y95.915 E33.05368
G1 X108.915 Y95.52 E33.06683
G1 X108.913 Y90.23 E33.24277
G1 X108.953 Y89.562 E33.26503
G1 X109.072 Y88.904 E33.28727
G1 X109.269 Y88.264 E33.30954
G1 X109.54 Y87.653 E33.33177
G1 X109.883 Y87.078 E33.35404
G1 X110.291 Y86.549 E33.37626
M204 S5000
M205 X30 Y30
G0 F3600 X110.281 Y87.207
M204 S500
M205 X20 Y20
G1 F1800 X110.687 Y86.707 E33.39768
G1 X111.152 Y86.26 E33.41914
G1 X111.669 Y85.875 E33.44058
G1 X112.229 Y85.556 E33.46201
G1 X112.825 Y85.31 E33.48346
G1 X113.446 Y85.139 E33.50488
G1 X114.084 Y85.046 E33.52633
G1 X114.729 Y85.032 E33.54778
G1 X115.37 Y85.099 E33.56922
G1 X116.284 Y85.339 E33.60065
G1 X119.343 Y86.447 E33.70886
G1 X119.508 Y86.51 E33.71473
G1 X123.513 Y88.117 E33.85826
G1 X123.709 Y88.2 E33.86534
G1 X127.602 Y89.95 E34.00731
G1 X127.793 Y90.041 E34.01434
G1 X131.698 Y91.991 E34.15952
G1 X131.889 Y92.091 E34.16669
G1 X135.633 Y94.159 E34.30895
G1 X135.817 Y94.265 E34.31601
G1 X139.482 Y96.489 E34.4586
G1 X139.661 Y96.603 E34.46566
G1 X143.273 Y99.002 E34.60987
G1 X143.45 Y99.125 E34.61704
G1 X146.937 Y101.655 E34.76033
G1 X147.107 Y101.784 E34.76743
G1 X150.487 Y104.455 E34.91071
G1 X150.689 Y104.623 E34.91945
G1 X155.462 Y108.804 E35.1305
G1 X155.657 Y108.984 E35.13932
G1 X158.743 Y111.978 E35.28233
G1 X158.892 Y112.128 E35.28936
G1 X161.86 Y115.252 E35.43269
G1 X162.003 Y115.409 E35.43975
G1 X164.814 Y118.621 E35.58171
G1 X164.95 Y118.783 E35.58875
G1 X167.634 Y122.114 E35.73103
G1 X167.765 Y122.284 E35.73817
G1 X170.349 Y125.777 E35.88268
G1 X170.473 Y125.951 E35.88979
G1 X172.895 Y129.522 E36.0333
G1 X173.012 Y129.703 E36.04047
G1 X175.275 Y133.356 E36.18339
G1 X175.382 Y133.538 E36.19041
G1 X177.497 Y137.285 E36.33352
G1 X177.598 Y137.473 E36.34062
G1 X179.558 Y141.304 E36.48375
G1 X179.652 Y141.496 E36.49086
G1 X181.453 Y145.405 E36.63401
G1 X181.559 Y145.651 E36.64292
G1 X183.989 Y151.73 E36.86066
G1 X184.099 Y152.032 E36.87135
G1 X186.099 Y158.101 E37.08388
G1 X186.189 Y158.406 E37.09446
G1 X187.844 Y164.699 E37.31088
G1 X187.916 Y165.01 E37.3215
G1 X189.152 Y171.242 E37.53282
G1 X189.196 Y171.503 E37.54162
G1 X189.82 Y175.776 E37.68525
G1 X189.847 Y175.987 E37.69232
G1 X190.294 Y180.265 E37.83538
G1 X190.312 Y180.479 E37.84253
G1 X190.584 Y184.812 E37.98693
G1 X190.593 Y185.025 E37.99402
G1 X190.686 Y189.322 E38.13697
G1 X190.686 Y189.536 E38.14409
G1 X190.603 Y193.829 E38.2869
G1 X190.595 Y194.04 E38.29392
G1 X190.336 Y198.343 E38.4373
