;FLAVOR:Marlin
;TIME:3109
;Filament used: 2.82162m
;Layer height: 0.2
;Generated with Cura_SteamEngine 3.6.0
M140 S60
M105
M190 S60
M104 S200
M105
M109 S200
M82 ;absolute extrusion mode
G28 ;Home
G1 Z15.0 F6000 ;Move the platform down 15mm
;Prime the extruder
G92 E0
G1 F200 E3
G92 E0
G92 E0
G1 F2400 E-5
;LAYER_COUNT:12
;LAYER:0
M107
M204 S5000
M205 X30 Y30
G0 F3600 X226.668 Y73.071 Z0.2
M204 S500
M205 X20 Y20
;TYPE:SKIRT
G1 F2400 E0
G1 F1800 X226.941 Y72.41 E0.02379
G1 X227.285 Y71.783 E0.04757
G1 X227.698 Y71.199 E0.07136
G1 X228.173 Y70.665 E0.09513
G1 X228.705 Y70.186 E0.11894
G1 X229.287 Y69.771 E0.14272
G1 X229.912 Y69.422 E0.16653
G1 X230.572 Y69.146 E0.19032
G1 X231.258 Y68.945 E0.2141
G1 X231.963 Y68.822 E0.2379
G1 X232.711 Y68.778 E0.26282
G1 X250.132 Y68.779 E0.84225
G1 X250.847 Y68.819 E0.86606
G1 X251.552 Y68.938 E0.88984
G1 X252.239 Y69.136 E0.91362
G1 X252.9 Y69.409 E0.93741
G1 X253.527 Y69.754 E0.96121
G1 X254.111 Y70.166 E0.98498
G1 X254.646 Y70.642 E1.0088
G1 X255.124 Y71.174 E1.03259
G1 X255.539 Y71.756 E1.05636
G1 X255.888 Y72.38 E1.08014
G1 X256.164 Y73.04 E1.10394
G1 X256.365 Y73.727 E1.12774
G1 X256.488 Y74.431 E1.15151
G1 X256.532 Y75.179 E1.17644
G1 X256.532 Y85.16 E1.50841
G1 X256.492 Y85.874 E1.53219
G1 X256.373 Y86.579 E1.55597
G1 X256.175 Y87.267 E1.57978
G1 X255.902 Y87.928 E1.60357
G1 X255.558 Y88.555 E1.62736
G1 X255.145 Y89.139 E1.65115
G1 X254.67 Y89.673 E1.67492
G1 X254.138 Y90.152 E1.69873
G1 X253.556 Y90.567 E1.7225
G1 X252.931 Y90.916 E1.74631
G1 X252.271 Y91.192 E1.7701
G1 X251.585 Y91.393 E1.79388
G1 X250.88 Y91.516 E1.81768
G1 X250.132 Y91.56 E1.8426
G1 X232.711 Y91.56 E2.42203
G1 X231.997 Y91.52 E2.44581
G1 X231.292 Y91.401 E2.46959
G1 X230.604 Y91.203 E2.4934
G1 X229.943 Y90.93 E2.51719
G1 X229.316 Y90.586 E2.54098
G1 X228.732 Y90.173 E2.56477
G1 X228.198 Y89.698 E2.58854
G1 X227.719 Y89.166 E2.61235
G1 X227.304 Y88.584 E2.63612
G1 X226.955 Y87.959 E2.65993
G1 X226.679 Y87.299 E2.68373
G1 X226.478 Y86.613 E2.7075
G1 X226.355 Y85.908 E2.7313
G1 X226.311 Y85.16 E2.75623
G1 X226.311 Y75.178 E3.08823
G1 X226.351 Y74.464 E3.11201
G1 X226.47 Y73.759 E3.13579
G1 X226.668 Y73.071 E3.1596
M204 S5000
M205 X30 Y30
G0 F3600 X227.068 Y73.141
M204 S500
M205 X20 Y20
G1 F1800 X227.34 Y72.504 E3.18264
G1 X227.684 Y71.903 E3.20567
G1 X228.095 Y71.345 E3.22872
G1 X228.567 Y70.839 E3.25174
G1 X229.095 Y70.39 E3.27479
G1 X229.67 Y70.005 E3.29781
G1 X230.287 Y69.69 E3.32085
G1 X230.935 Y69.447 E3.34387
G1 X231.608 Y69.28 E3.36693
G1 X232.294 Y69.192 E3.38993
G1 X232.711 Y69.178 E3.40381
G1 X250.132 Y69.179 E3.98324
G1 X250.824 Y69.219 E4.00629
G1 X251.506 Y69.338 E4.02932
G1 X252.17 Y69.536 E4.05236
G1 X252.806 Y69.808 E4.07537
G1 X253.408 Y70.152 E4.09843
G1 X253.965 Y70.563 E4.12145
G1 X254.471 Y71.035 E4.14447
G1 X254.92 Y71.563 E4.16752
G1 X255.305 Y72.139 E4.19056
G1 X255.621 Y72.755 E4.21359
G1 X255.863 Y73.404 E4.23663
G1 X256.03 Y74.076 E4.25966
G1 X256.118 Y74.763 E4.2827
G1 X256.132 Y75.179 E4.29654
G1 X256.132 Y85.16 E4.62851
G1 X256.092 Y85.851 E4.65153
G1 X255.973 Y86.534 E4.67459
G1 X255.775 Y87.197 E4.6976
G1 X255.503 Y87.834 E4.72064
G1 X255.159 Y88.435 E4.74367
G1 X254.748 Y88.993 E4.76672
G1 X254.276 Y89.499 E4.78974
G1 X253.748 Y89.948 E4.81279
G1 X253.173 Y90.333 E4.83581
G1 X252.556 Y90.648 E4.85885
G1 X251.908 Y90.891 E4.88187
G1 X251.235 Y91.058 E4.90493
G1 X250.549 Y91.146 E4.92793
G1 X250.132 Y91.16 E4.94181
G1 X232.711 Y91.16 E5.52123
G1 X232.02 Y91.12 E5.54425
G1 X231.337 Y91.001 E5.56731
G1 X230.674 Y90.803 E5.59033
G1 X230.037 Y90.531 E5.61336
G1 X229.436 Y90.187 E5.6364
G1 X228.878 Y89.776 E5.65945
G1 X228.372 Y89.304 E5.68246
G1 X227.923 Y88.776 E5.70551
G1 X227.538 Y88.201 E5.72853
G1 X227.223 Y87.584 E5.75157
G1 X226.98 Y86.936 E5.77459
G1 X226.813 Y86.263 E5.79765
G1 X226.725 Y85.577 E5.82066
G1 X226.711 Y85.16 E5.83453
G1 X226.711 Y75.178 E6.16654
G1 X226.751 Y74.487 E6.18956
G1 X226.87 Y73.804 E6.21262
G1 X227.068 Y73.141 E6.23563
M204 S5000
M205 X30 Y30
G0 F3600 X227.467 Y73.212
M204 S500
M205 X20 Y20
G1 F1800 X227.739 Y72.601 E6.25787
G1 X228.082 Y72.027 E6.28011
G1 X228.491 Y71.497 E6.30238
G1 X228.96 Y71.02 E6.32463
G1 X229.482 Y70.602 E6.34687
G1 X230.051 Y70.25 E6.36913
G1 X230.658 Y69.968 E6.39139
G1 X231.294 Y69.76 E6.41364
G1 X231.95 Y69.63 E6.43589
G1 X232.711 Y69.578 E6.46126
G1 X250.132 Y69.579 E7.04068
G1 X250.8 Y69.619 E7.06294
G1 X251.458 Y69.738 E7.08518
G1 X252.098 Y69.935 E7.10745
G1 X252.709 Y70.207 E7.1297
G1 X253.284 Y70.55 E7.15196
G1 X253.813 Y70.959 E7.1742
G1 X254.29 Y71.428 E7.19645
G1 X254.708 Y71.951 E7.21872
G1 X255.06 Y72.519 E7.24095
G1 X255.342 Y73.126 E7.26321
G1 X255.55 Y73.762 E7.28546
G1 X255.68 Y74.418 E7.30771
G1 X255.732 Y75.179 E7.33308
G1 X255.732 Y85.16 E7.66505
G1 X255.692 Y85.828 E7.6873
G1 X255.573 Y86.486 E7.70954
G1 X255.376 Y87.126 E7.73182
G1 X255.104 Y87.737 E7.75406
G1 X254.761 Y88.311 E7.7763
G1 X254.352 Y88.841 E7.79857
G1 X253.883 Y89.318 E7.82082
G1 X253.361 Y89.736 E7.84306
G1 X252.792 Y90.088 E7.86531
G1 X252.185 Y90.37 E7.88757
G1 X251.549 Y90.578 E7.90983
G1 X250.893 Y90.708 E7.93207
G1 X250.132 Y90.76 E7.95744
G1 X232.711 Y90.76 E8.53687
G1 X232.043 Y90.72 E8.55913
G1 X231.385 Y90.601 E8.58137
G1 X230.745 Y90.404 E8.60364
G1 X230.134 Y90.132 E8.62588
G1 X229.56 Y89.789 E8.64812
G1 X229.03 Y89.38 E8.67039
G1 X228.553 Y88.911 E8.69264
G1 X228.135 Y88.389 E8.71488
G1 X227.783 Y87.82 E8.73713
G1 X227.501 Y87.213 E8.7594
G1 X227.293 Y86.577 E8.78165
G1 X227.163 Y85.921 E8.80389
G1 X227.111 Y85.16 E8.82926
G1 X227.111 Y75.178 E9.16127
G1 X227.151 Y74.51 E9.18353
G1 X227.27 Y73.852 E9.20577
G1 X227.467 Y73.212 E9.22804
M204 S5000
M205 X30 Y30
G0 F3600 X227.867 Y73.287
M204 S500
M205 X20 Y20
G1 F1800 X228.138 Y72.702 E9.24948
G1 X228.48 Y72.155 E9.27094
G1 X228.886 Y71.655 E9.29236
G1 X229.351 Y71.209 E9.31379
G1 X229.868 Y70.824 E9.33523
G1 X230.429 Y70.505 E9.35669
G1 X231.025 Y70.259 E9.37814
G1 X231.646 Y70.088 E9.39956
G1 X232.284 Y69.996 E9.421
G1 X232.711 Y69.978 E9.43522
G1 X250.132 Y69.979 E10.01464
G1 X250.776 Y70.019 E10.0361
G1 X251.409 Y70.138 E10.05752
G1 X252.023 Y70.335 E10.07897
G1 X252.608 Y70.606 E10.10042
G1 X253.155 Y70.948 E10.12187
G1 X253.655 Y71.354 E10.14329
G1 X254.101 Y71.82 E10.16475
G1 X254.486 Y72.337 E10.18619
G1 X254.805 Y72.897 E10.20762
G1 X255.051 Y73.493 E10.22907
G1 X255.222 Y74.115 E10.25052
G1 X255.314 Y74.753 E10.27196
G1 X255.332 Y75.179 E10.28614
G1 X255.332 Y85.16 E10.61811
G1 X255.292 Y85.803 E10.63954
G1 X255.173 Y86.437 E10.661
G1 X254.976 Y87.051 E10.68244
G1 X254.705 Y87.636 E10.70389
G1 X254.363 Y88.183 E10.72534
G1 X253.957 Y88.683 E10.74677
G1 X253.492 Y89.129 E10.7682
G1 X252.975 Y89.514 E10.78964
G1 X252.414 Y89.833 E10.8111
G1 X251.818 Y90.079 E10.83255
G1 X251.197 Y90.25 E10.85397
G1 X250.559 Y90.342 E10.87541
G1 X250.132 Y90.36 E10.88962
G1 X232.711 Y90.36 E11.46905
G1 X232.068 Y90.32 E11.49048
G1 X231.434 Y90.201 E11.51193
G1 X230.82 Y90.004 E11.53338
G1 X230.235 Y89.733 E11.55482
G1 X229.688 Y89.391 E11.57628
G1 X229.188 Y88.985 E11.5977
G1 X228.742 Y88.52 E11.61913
G1 X228.357 Y88.003 E11.64057
G1 X228.038 Y87.442 E11.66203
G1 X227.792 Y86.846 E11.68348
G1 X227.621 Y86.225 E11.7049
G1 X227.529 Y85.587 E11.72634
G1 X227.511 Y85.16 E11.74056
G1 X227.511 Y75.178 E12.07256
G1 X227.551 Y74.535 E12.09399
G1 X227.67 Y73.901 E12.11544
G1 X227.867 Y73.287 E12.13689
M204 S5000
M205 X30 Y30
G1 F2400 E7.13689
;MESH:TOF_HalterungszusatzVorne.stl
G0 F3600 X232.037 Y75.783
G0 X233.316 Y75.783
G0 X233.934 Y80.106
G0 X233.981 Y80.194
M204 S500
M205 X20 Y20
;TYPE:WALL-INNER
G1 F2400 E12.13689
G1 F1800 X233.775 Y80.353 E12.14554
G1 X233.687 Y80.444 E12.14975
G1 X233.595 Y80.539 E12.15415
G1 X233.446 Y80.751 E12.16277
G1 X233.33 Y80.984 E12.17143
G1 X233.302 Y81.073 E12.17453
G1 X233.302 Y80.984
G1 X233.302 Y80.751 E12.17602
G1 X233.302 Y80.539 E12.17968
G1 X233.302 Y80.407 E12.18353
G1 X233.302 Y75.769 E12.33779
G1 X249.541 Y75.769 E12.8779
G1 X249.541 Y80.914 E13.04902
G1 X249.541 Y81.106 E13.05541
G1 X249.541 Y81.358 E13.06379
G1 X249.541 Y81.617 E13.0724
G1 X249.541 Y81.877 E13.08105
G1 X249.541 Y82.129 E13.08943
G1 X249.541 Y82.321 E13.09582
G1 X249.541 Y84.569 E13.17059
G1 X233.302 Y84.569 E13.7107
G1 X233.302 Y82.828 E13.7686
G1 X233.302 Y82.694 E13.77306
G1 X233.302 Y82.484 E13.78005
G1 X233.302 Y82.251 E13.7878
G1 X233.302 Y82.161 E13.79079
G1 X233.33 Y82.251 E13.791
G1 X233.447 Y82.484 E13.79339
G1 X233.594 Y82.694 E13.79856
G1 X233.686 Y82.791 E13.80245
G1 X233.775 Y82.883 E13.80671
G1 X233.981 Y83.039 E13.8153
G1 X234.209 Y83.163 E13.82394
G1 X234.453 Y83.25 E13.83255
G1 X234.705 Y83.299 E13.84109
G1 X234.966 Y83.311 E13.84978
G1 X235.224 Y83.28 E13.85842
G1 X235.473 Y83.212 E13.86701
G1 X235.71 Y83.106 E13.87564
G1 X235.929 Y82.965 E13.88431
G1 X236.121 Y82.792 E13.8929
G1 X236.287 Y82.592 E13.90155
G1 X236.419 Y82.369 E13.91017
G1 X236.516 Y82.129 E13.91878
G1 X236.575 Y81.877 E13.92738
G1 X236.596 Y81.617 E13.93606
G1 X236.575 Y81.358 E13.9447
G1 X236.516 Y81.106 E13.95331
G1 X236.419 Y80.866 E13.96192
G1 X236.287 Y80.643 E13.97054
G1 X236.121 Y80.443 E13.97918
G1 X235.929 Y80.27 E13.98778
G1 X235.711 Y80.13 E13.9964
G1 X235.475 Y80.022 E14.00503
G1 X235.222 Y79.954 E14.01374
G1 X234.966 Y79.925 E14.02231
G1 X234.707 Y79.934 E14.03093
G1 X234.451 Y79.984 E14.03961
G1 X234.21 Y80.072 E14.04814
G1 X233.981 Y80.194 E14.05677
M204 S5000
M205 X30 Y30
G0 F3600 X233.934 Y80.106
G0 X234.623 Y79.917
G0 X246.634 Y80.106
G0 X246.681 Y80.194
M204 S500
M205 X20 Y20
G1 F1800 X246.475 Y80.353 E14.06543
G1 X246.295 Y80.539 E14.07403
G1 X246.146 Y80.751 E14.08265
G1 X246.03 Y80.984 E14.09131
G1 X245.953 Y81.23 E14.09988
G1 X245.912 Y81.487 E14.10854
G1 X245.912 Y81.749 E14.11725
G1 X245.953 Y82.003 E14.12581
G1 X246.03 Y82.251 E14.13445
G1 X246.147 Y82.484 E14.14312
G1 X246.294 Y82.694 E14.15164
G1 X246.475 Y82.883 E14.16035
G1 X246.681 Y83.039 E14.16894
G1 X246.909 Y83.163 E14.17758
G1 X247.153 Y83.25 E14.18619
G1 X247.405 Y83.299 E14.19473
G1 X247.666 Y83.311 E14.20342
G1 X247.924 Y83.28 E14.21206
G1 X248.173 Y83.212 E14.22065
G1 X248.41 Y83.106 E14.22928
G1 X248.629 Y82.965 E14.23795
G1 X248.821 Y82.792 E14.24654
G1 X248.987 Y82.592 E14.25519
G1 X249.119 Y82.369 E14.26381
G1 X249.144 Y82.307 E14.26603
G1 X249.216 Y82.129 E14.27183
G1 X249.275 Y81.877 E14.27823
G1 X249.296 Y81.617 E14.28377
G1 X249.275 Y81.358 E14.28929
G1 X249.216 Y81.106 E14.29569
G1 X249.144 Y80.928 E14.30149
G1 X249.119 Y80.866 E14.30371
G1 X248.987 Y80.643 E14.31233
G1 X248.821 Y80.443 E14.32098
G1 X248.629 Y80.27 E14.32957
G1 X248.411 Y80.13 E14.33819
G1 X248.175 Y80.022 E14.34682
G1 X247.922 Y79.954 E14.35553
G1 X247.666 Y79.925 E14.3641
G1 X247.407 Y79.934 E14.37272
G1 X247.151 Y79.984 E14.3814
G1 X246.91 Y80.072 E14.38993
G1 X246.681 Y80.194 E14.39856
M204 S5000
M205 X30 Y30
G0 F3600 X246.634 Y80.106
G0 X246.111 Y80.734
G0 X245.916 Y81.218
G0 X245.873 Y81.755
G0 X245.992 Y82.263
G0 X246.267 Y82.723
G0 X246.656 Y83.069
G0 X246.931 Y83.192
G0 X247.629 Y83.409
G0 X247.651 Y82.91
M204 S500
M205 X20 Y20
;TYPE:WALL-OUTER
G1 F1800 X247.847 Y82.886 E14.40513
G1 X248.038 Y82.834 E14.41171
G1 X248.219 Y82.753 E14.41831
G1 X248.385 Y82.646 E14.42488
G1 X248.532 Y82.514 E14.43145
G1 X248.659 Y82.361 E14.43806
G1 X248.76 Y82.191 E14.44464
G1 X248.834 Y82.008 E14.45121
G1 X248.879 Y81.815 E14.4578
G1 X248.895 Y81.617 E14.4644
G1 X248.879 Y81.42 E14.47098
G1 X248.834 Y81.227 E14.47757
G1 X248.76 Y81.044 E14.48413
G1 X248.659 Y80.874 E14.49071
G1 X248.532 Y80.721 E14.49732
G1 X248.385 Y80.589 E14.5039
G1 X248.219 Y80.482 E14.51046
G1 X248.039 Y80.4 E14.51704
G1 X247.847 Y80.348 E14.52366
G1 X247.651 Y80.326 E14.53022
G1 X247.453 Y80.333 E14.53681
G1 X247.258 Y80.371 E14.54342
G1 X247.073 Y80.438 E14.54996
G1 X246.899 Y80.531 E14.55652
G1 X246.742 Y80.652 E14.56312
G1 X246.604 Y80.794 E14.5697
G1 X246.491 Y80.956 E14.57627
G1 X246.402 Y81.134 E14.58289
G1 X246.343 Y81.322 E14.58944
G1 X246.312 Y81.518 E14.59604
G1 X246.312 Y81.717 E14.60266
G1 X246.343 Y81.912 E14.60923
G1 X246.402 Y82.101 E14.61581
G1 X246.491 Y82.278 E14.6224
G1 X246.604 Y82.439 E14.62895
G1 X246.742 Y82.583 E14.63558
G1 X246.899 Y82.702 E14.64213
G1 X247.073 Y82.797 E14.64873
G1 X247.259 Y82.863 E14.65529
G1 X247.453 Y82.901 E14.66187
G1 X247.651 Y82.91 E14.66846
M204 S5000
M205 X30 Y30
G0 F3600 X247.847 Y82.886
G0 X247.849 Y82.886
G0 X247.908 Y83.383
G0 X249.471 Y84.499
G0 X249.941 Y84.969
M204 S500
M205 X20 Y20
G1 F1800 X232.902 Y84.969 E15.23518
G1 X232.902 Y75.369 E15.55447
G1 X249.941 Y75.369 E16.12119
G1 X249.941 Y84.969 E16.44049
M204 S5000
M205 X30 Y30
G0 F3600 X249.741 Y84.969
G0 X249.471 Y84.499
G0 X234.929 Y83.409
G0 X234.951 Y82.91
M204 S500
M205 X20 Y20
G1 F1800 X235.147 Y82.886 E16.44706
G1 X235.338 Y82.834 E16.45364
G1 X235.519 Y82.753 E16.46024
G1 X235.685 Y82.646 E16.46681
G1 X235.832 Y82.514 E16.47338
G1 X235.959 Y82.361 E16.47999
G1 X236.06 Y82.191 E16.48657
G1 X236.134 Y82.008 E16.49313
G1 X236.179 Y81.815 E16.49973
G1 X236.195 Y81.617 E16.50633
G1 X236.179 Y81.42 E16.51291
G1 X236.134 Y81.227 E16.5195
G1 X236.06 Y81.044 E16.52606
G1 X235.959 Y80.874 E16.53264
G1 X235.832 Y80.721 E16.53925
G1 X235.685 Y80.589 E16.54582
G1 X235.519 Y80.482 E16.55239
G1 X235.339 Y80.4 E16.55897
G1 X235.147 Y80.348 E16.56559
G1 X234.951 Y80.326 E16.57215
G1 X234.753 Y80.333 E16.57874
G1 X234.558 Y80.371 E16.58534
G1 X234.373 Y80.438 E16.59189
G1 X234.199 Y80.531 E16.59845
G1 X234.042 Y80.652 E16.60504
G1 X233.904 Y80.794 E16.61163
G1 X233.791 Y80.956 E16.6182
G1 X233.702 Y81.134 E16.62482
G1 X233.643 Y81.322 E16.63137
G1 X233.612 Y81.518 E16.63797
G1 X233.612 Y81.717 E16.64459
G1 X233.643 Y81.912 E16.65116
G1 X233.702 Y82.101 E16.65774
G1 X233.791 Y82.278 E16.66433
G1 X233.904 Y82.439 E16.67087
G1 X234.042 Y82.583 E16.67751
G1 X234.199 Y82.702 E16.68406
G1 X234.373 Y82.797 E16.69065
G1 X234.559 Y82.863 E16.69722
G1 X234.753 Y82.901 E16.70379
G1 X234.951 Y82.91 E16.71039
M204 S5000
M205 X30 Y30
G0 F3600 X235.147 Y82.886
G0 X235.149 Y82.886
G0 X235.299 Y83.664
M204 S500
M205 X20 Y20
;TYPE:SKIN
G1 F1800 X235.605 Y83.58 E16.72094
G1 X235.897 Y83.449 E16.73158
G1 X236.167 Y83.275 E16.74227
G1 X236.403 Y83.063 E16.75282
G1 X236.607 Y82.818 E16.76342
G1 X236.77 Y82.542 E16.77408
G1 X236.889 Y82.247 E16.78466
G1 X236.961 Y81.938 E16.79522
G1 X236.988 Y81.617 E16.80593
G1 X236.961 Y81.297 E16.81661
G1 X236.889 Y80.988 E16.82717
G1 X236.77 Y80.693 E16.83775
G1 X236.607 Y80.417 E16.84841
G1 X236.403 Y80.172 E16.85901
G1 X236.167 Y79.959 E16.86958
G1 X235.898 Y79.787 E16.8802
G1 X235.608 Y79.654 E16.89081
G1 X235.294 Y79.57 E16.90163
G1 X234.981 Y79.535 E16.9121
G1 X234.662 Y79.546 E16.92272
G1 X234.346 Y79.607 E16.93342
G1 X234.051 Y79.715 E16.94387
G1 X233.768 Y79.865 E16.95452
G1 X233.692 Y79.924 E16.95772
G1 X233.692 Y76.159 E17.08295
G1 X249.151 Y76.159 E17.59712
G1 X249.151 Y80.23 E17.73252
G1 X249.103 Y80.172 E17.73502
G1 X248.867 Y79.959 E17.7456
G1 X248.598 Y79.787 E17.75622
G1 X248.308 Y79.654 E17.76683
G1 X247.994 Y79.57 E17.77764
G1 X247.681 Y79.535 E17.78811
G1 X247.362 Y79.546 E17.79873
G1 X247.046 Y79.607 E17.80943
G1 X246.751 Y79.715 E17.81988
G1 X246.468 Y79.865 E17.83054
G1 X246.214 Y80.062 E17.84123
G1 X245.993 Y80.29 E17.85179
G1 X245.81 Y80.551 E17.86239
G1 X245.667 Y80.838 E17.87305
G1 X245.573 Y81.14 E17.88357
G1 X245.522 Y81.456 E17.89422
G1 X245.522 Y81.78 E17.905
G1 X245.573 Y82.093 E17.91554
G1 X245.667 Y82.397 E17.92613
G1 X245.811 Y82.685 E17.93684
G1 X245.992 Y82.942 E17.94729
G1 X246.215 Y83.175 E17.95802
G1 X246.469 Y83.368 E17.96863
G1 X246.75 Y83.52 E17.97926
G1 X247.05 Y83.627 E17.98985
G1 X247.358 Y83.687 E18.00029
G1 X247.68 Y83.703 E18.01101
G1 X247.999 Y83.664 E18.0217
G1 X248.305 Y83.58 E18.03225
G1 X248.597 Y83.449 E18.0429
G1 X248.867 Y83.275 E18.05358
G1 X249.103 Y83.063 E18.06413
G1 X249.151 Y83.005 E18.06664
G1 X249.151 Y84.179 E18.10568
G1 X233.692 Y84.179 E18.61985
G1 X233.692 Y83.309 E18.64879
G1 X233.769 Y83.368 E18.65201
G1 X234.05 Y83.52 E18.66264
G1 X234.35 Y83.627 E18.67323
