;FLAVOR:Marlin
;TIME:1565
;Filament used: 0.751148m
;Layer height: 0.2
;Generated with Cura_SteamEngine 3.6.0
M140 S60
M105
M190 S60
M104 S200
M105
M109 S200
M82 ;absolute extrusion mode
G28 ;Home
G1 Z15.0 F6000 ;Move the platform down 15mm
;Prime the extruder
G92 E0
G1 F200 E3
G92 E0
G92 E0
G1 F2400 E-5
;LAYER_COUNT:76
;LAYER:0
M107
M204 S5000
M205 X30 Y30
G0 F3600 X196.693 Y143.33 Z0.2
M204 S500
M205 X20 Y20
;TYPE:SKIRT
G1 F2400 E0
G1 F1800 X197.13 Y142.794 E0.023
G1 X197.847 Y142.004 E0.05849
G1 X198.356 Y141.502 E0.08226
G1 X199.047 Y140.973 E0.11121
G1 X200.177 Y140.223 E0.15632
G1 X200.794 Y139.861 E0.18011
G1 X201.608 Y139.512 E0.20957
G1 X202.623 Y139.158 E0.24532
G1 X203.311 Y138.961 E0.26912
G1 X203.726 Y138.88 E0.28319
G1 X204.405 Y138.772 E0.30605
G1 X205.339 Y138.693 E0.33723
G1 X206.064 Y138.685 E0.36134
G1 X207.049 Y138.751 E0.39418
G1 X207.832 Y138.864 E0.42049
G1 X208.538 Y139.006 E0.44444
G1 X208.84 Y139.085 E0.45483
G1 X209.663 Y139.362 E0.48371
G1 X210.6 Y139.749 E0.51743
G1 X211.245 Y140.058 E0.54121
G1 X211.652 Y140.302 E0.557
G1 X212.304 Y140.727 E0.58288
G1 X213.079 Y141.322 E0.61538
G1 X213.616 Y141.803 E0.63936
G1 X214.251 Y142.458 E0.6697
G1 X214.702 Y142.996 E0.69305
G1 X215.13 Y143.569 E0.71684
G1 X215.479 Y144.163 E0.73975
G1 X216.13 Y145.419 E0.7868
G1 X216.423 Y146.071 E0.81058
G1 X216.663 Y146.835 E0.83721
G1 X216.882 Y147.725 E0.8677
G1 X217.013 Y148.428 E0.89148
G1 X217.065 Y149.081 E0.91327
G1 X217.096 Y150.228 E0.95143
G1 X217.075 Y150.943 E0.97523
G1 X217.015 Y151.431 E0.99158
G1 X216.897 Y152.155 E1.01598
G1 X216.742 Y152.853 E1.03976
G1 X216.591 Y153.322 E1.05615
G1 X216.22 Y154.337 E1.09209
G1 X215.937 Y154.994 E1.11588
G1 X215.731 Y155.375 E1.13029
G1 X215.39 Y155.957 E1.15272
G1 X214.994 Y156.553 E1.17652
G1 X214.616 Y157.014 E1.19635
G1 X213.731 Y157.993 E1.24025
G1 X213.222 Y158.496 E1.26405
G1 X212.53 Y159.028 E1.29308
G1 X211.602 Y159.646 E1.33016
G1 X210.986 Y160.008 E1.35393
G1 X210.1 Y160.383 E1.38592
G1 X208.739 Y160.842 E1.4337
G1 X208.05 Y161.033 E1.45748
G1 X207.147 Y161.162 E1.48782
G1 X206.091 Y161.237 E1.52303
G1 X205.376 Y161.248 E1.54681
G1 X204.916 Y161.212 E1.56216
G1 X204.211 Y161.132 E1.58576
G1 X203.309 Y160.963 E1.61628
G1 X202.623 Y160.783 E1.63987
G1 X201.942 Y160.564 E1.66366
G1 X201.559 Y160.401 E1.6775
G1 X200.63 Y159.971 E1.71155
G1 X199.998 Y159.635 E1.73536
G1 X199.432 Y159.248 E1.75816
G1 X198.563 Y158.584 E1.79454
G1 X198.02 Y158.119 E1.81832
G1 X197.563 Y157.633 E1.8405
G1 X196.892 Y156.84 E1.87505
G1 X196.462 Y156.269 E1.89883
G1 X196.122 Y155.7 E1.92088
G1 X195.627 Y154.765 E1.95606
G1 X195.328 Y154.116 E1.97983
G1 X195.13 Y153.531 E2.00037
G1 X194.864 Y152.601 E2.03254
G1 X194.706 Y151.903 E2.05635
G1 X194.63 Y151.249 E2.07824
G1 X194.558 Y150.122 E2.11581
G1 X194.552 Y149.407 E2.13959
G1 X194.599 Y148.888 E2.15692
G1 X194.699 Y148.12 E2.18268
G1 X194.83 Y147.417 E2.20646
G1 X194.949 Y146.996 E2.22101
G1 X195.243 Y146.077 E2.25311
G1 X195.499 Y145.409 E2.2769
G1 X195.776 Y144.863 E2.29726
G1 X196.306 Y143.931 E2.33292
G1 X196.693 Y143.33 E2.3567
M204 S5000
M205 X30 Y30
G0 F3600 X197.03 Y143.548
M204 S500
M205 X20 Y20
G1 F1800 X197.426 Y143.063 E2.37752
G1 X198.143 Y142.273 E2.41301
G1 X198.637 Y141.788 E2.43603
G1 X199.268 Y141.306 E2.46244
G1 X200.398 Y140.556 E2.50755
G1 X200.996 Y140.207 E2.53058
G1 X201.74 Y139.89 E2.55748
G1 X202.755 Y139.536 E2.59323
G1 X203.421 Y139.346 E2.61627
G1 X203.789 Y139.275 E2.62873
G1 X204.468 Y139.167 E2.6516
G1 X205.344 Y139.093 E2.68084
G1 X206.069 Y139.085 E2.70496
G1 X206.992 Y139.147 E2.73572
G1 X207.775 Y139.26 E2.76204
G1 X208.436 Y139.393 E2.78446
G1 X208.738 Y139.472 E2.79484
G1 X209.51 Y139.731 E2.82193
G1 X210.447 Y140.118 E2.85565
G1 X211.071 Y140.419 E2.87869
G1 X211.433 Y140.638 E2.89276
G1 X212.085 Y141.063 E2.91865
G1 X212.812 Y141.62 E2.94911
G1 X213.349 Y142.101 E2.97309
G1 X213.944 Y142.715 E3.00152
G1 X214.395 Y143.253 E3.02487
G1 X214.809 Y143.809 E3.04793
G1 X215.124 Y144.347 E3.06866
G1 X215.775 Y145.603 E3.11572
G1 X216.058 Y146.235 E3.13875
G1 X216.274 Y146.93 E3.16295
G1 X216.493 Y147.82 E3.19344
G1 X216.62 Y148.501 E3.21648
G1 X216.665 Y149.092 E3.23619
G1 X216.696 Y150.239 E3.27436
G1 X216.675 Y150.931 E3.29738
G1 X216.62 Y151.366 E3.31197
G1 X216.502 Y152.09 E3.33636
G1 X216.351 Y152.766 E3.3594
G1 X216.215 Y153.185 E3.37405
G1 X215.844 Y154.2 E3.41
G1 X215.569 Y154.835 E3.43301
G1 X215.386 Y155.173 E3.4458
G1 X215.045 Y155.755 E3.46823
G1 X214.661 Y156.331 E3.49126
G1 X214.319 Y156.746 E3.50914
G1 X213.434 Y157.725 E3.55304
G1 X212.941 Y158.211 E3.57606
G1 X212.309 Y158.695 E3.60254
G1 X211.381 Y159.313 E3.63962
G1 X210.783 Y159.663 E3.66267
G1 X209.972 Y160.004 E3.69193
G1 X208.611 Y160.463 E3.7397
G1 X207.944 Y160.646 E3.76271
G1 X207.119 Y160.763 E3.79042
G1 X206.063 Y160.838 E3.82563
G1 X205.371 Y160.847 E3.84865
G1 X204.961 Y160.815 E3.86233
G1 X204.256 Y160.735 E3.88593
G1 X203.41 Y160.577 E3.91455
G1 X202.724 Y160.397 E3.93814
G1 X202.066 Y160.182 E3.96116
G1 X201.727 Y160.038 E3.97341
G1 X200.798 Y159.608 E4.00746
G1 X200.187 Y159.281 E4.03051
G1 X199.675 Y158.931 E4.05114
G1 X198.806 Y158.267 E4.08751
G1 X198.281 Y157.815 E4.11056
G1 X197.869 Y157.375 E4.1306
G1 X197.198 Y156.582 E4.16515
G1 X196.782 Y156.028 E4.1882
G1 X196.475 Y155.513 E4.20814
G1 X195.98 Y154.578 E4.24333
G1 X195.692 Y153.949 E4.26634
G1 X195.514 Y153.421 E4.28487
G1 X195.248 Y152.491 E4.31704
G1 X195.097 Y151.815 E4.34008
G1 X195.029 Y151.224 E4.35986
G1 X194.957 Y150.097 E4.39743
G1 X194.953 Y149.404 E4.42047
G1 X194.995 Y148.939 E4.436
G1 X195.095 Y148.171 E4.46176
G1 X195.224 Y147.491 E4.48478
G1 X195.33 Y147.118 E4.49768
G1 X195.624 Y146.199 E4.52977
G1 X195.873 Y145.552 E4.55283
G1 X196.123 Y145.061 E4.57116
G1 X196.653 Y144.129 E4.60682
G1 X197.03 Y143.548 E4.62985
M204 S5000
M205 X30 Y30
G0 F3600 X197.366 Y143.766
M204 S500
M205 X20 Y20
G1 F1800 X197.722 Y143.331 E4.64855
G1 X198.439 Y142.541 E4.68403
G1 X198.918 Y142.074 E4.70628
G1 X199.489 Y141.639 E4.73016
G1 X200.619 Y140.889 E4.77527
G1 X201.198 Y140.553 E4.79753
G1 X201.872 Y140.267 E4.82188
G1 X202.887 Y139.913 E4.85764
G1 X203.851 Y139.671 E4.89069
G1 X204.53 Y139.563 E4.91356
G1 X205.348 Y139.493 E4.94087
G1 X206.073 Y139.485 E4.96498
G1 X206.935 Y139.542 E4.99372
G1 X207.718 Y139.655 E5.02003
G1 X208.335 Y139.78 E5.04097
G1 X208.637 Y139.859 E5.05135
G1 X209.358 Y140.101 E5.07664
G1 X210.295 Y140.488 E5.11036
G1 X210.897 Y140.78 E5.13262
G1 X211.215 Y140.973 E5.14499
G1 X211.867 Y141.398 E5.17087
G1 X212.545 Y141.918 E5.19929
G1 X213.082 Y142.399 E5.22327
G1 X213.638 Y142.972 E5.24983
G1 X214.089 Y143.51 E5.27318
G1 X214.487 Y144.048 E5.29544
G1 X214.769 Y144.531 E5.31404
G1 X215.42 Y145.787 E5.36109
G1 X215.692 Y146.398 E5.38333
G1 X215.886 Y147.026 E5.4052
G1 X216.105 Y147.916 E5.43568
G1 X216.226 Y148.574 E5.45793
G1 X216.265 Y149.103 E5.47557
G1 X216.296 Y150.25 E5.51374
G1 X216.274 Y150.918 E5.53597
G1 X216.225 Y151.302 E5.54884
G1 X216.107 Y152.026 E5.57324
G1 X215.96 Y152.679 E5.5955
G1 X215.84 Y153.047 E5.60838
G1 X215.469 Y154.062 E5.64432
G1 X215.202 Y154.676 E5.66659
G1 X215.041 Y154.971 E5.67777
G1 X214.7 Y155.553 E5.7002
G1 X214.328 Y156.109 E5.72245
G1 X214.022 Y156.477 E5.73837
G1 X213.137 Y157.456 E5.78227
G1 X212.66 Y157.925 E5.80452
G1 X212.087 Y158.362 E5.82848
G1 X211.159 Y158.98 E5.86557
G1 X210.581 Y159.317 E5.88782
G1 X209.845 Y159.625 E5.91436
G1 X208.484 Y160.084 E5.96213
G1 X207.838 Y160.26 E5.9844
G1 X207.091 Y160.364 E6.00948
G1 X206.035 Y160.439 E6.04469
G1 X205.366 Y160.446 E6.06695
G1 X205.007 Y160.417 E6.07893
G1 X204.302 Y160.337 E6.10252
G1 X203.512 Y160.19 E6.12925
G1 X202.826 Y160.01 E6.15284
G1 X201.895 Y159.675 E6.18575
G1 X200.966 Y159.245 E6.2198
G1 X200.376 Y158.928 E6.24207
G1 X199.918 Y158.613 E6.26056
G1 X199.049 Y157.949 E6.29694
G1 X198.543 Y157.511 E6.3192
G1 X198.174 Y157.116 E6.33717
G1 X197.503 Y156.323 E6.37172
G1 X197.102 Y155.788 E6.39396
G1 X196.829 Y155.326 E6.41181
G1 X196.334 Y154.391 E6.447
G1 X196.057 Y153.782 E6.46925
G1 X195.899 Y153.311 E6.48577
G1 X195.633 Y152.381 E6.51795
G1 X195.488 Y151.728 E6.54019
G1 X195.428 Y151.198 E6.55793
G1 X195.356 Y150.071 E6.59549
G1 X195.354 Y149.402 E6.61775
G1 X195.392 Y148.991 E6.63147
G1 X195.492 Y148.223 E6.65723
G1 X195.618 Y147.566 E6.67948
G1 X195.711 Y147.24 E6.69076
G1 X196.005 Y146.321 E6.72285
G1 X196.247 Y145.697 E6.74511
G1 X196.471 Y145.259 E6.76147
G1 X197.001 Y144.327 E6.79713
G1 X197.366 Y143.766 E6.81939
M204 S5000
M205 X30 Y30
G0 F3600 X197.702 Y143.985
M204 S500
M205 X20 Y20
G1 F1800 X198.018 Y143.6 E6.83596
G1 X198.735 Y142.81 E6.87144
G1 X199.197 Y142.361 E6.89287
G1 X199.71 Y141.972 E6.91429
G1 X200.84 Y141.222 E6.95939
G1 X201.399 Y140.9 E6.98085
G1 X202.004 Y140.645 E7.00269
G1 X203.019 Y140.291 E7.03844
G1 X203.914 Y140.066 E7.06913
G1 X204.593 Y139.958 E7.092
G1 X205.353 Y139.893 E7.11737
G1 X206.078 Y139.885 E7.14149
G1 X206.878 Y139.938 E7.16815
G1 X207.661 Y140.051 E7.19447
G1 X208.234 Y140.167 E7.21391
G1 X208.536 Y140.246 E7.22429
G1 X209.205 Y140.471 E7.24777
G1 X210.142 Y140.858 E7.28149
G1 X210.997 Y141.308 E7.31362
G1 X211.649 Y141.733 E7.33951
G1 X212.278 Y142.216 E7.36589
G1 X212.815 Y142.697 E7.38986
G1 X213.331 Y143.229 E7.41451
G1 X213.782 Y143.767 E7.43786
G1 X214.165 Y144.286 E7.45932
G1 X214.414 Y144.715 E7.47582
G1 X215.065 Y145.971 E7.52287
G1 X215.325 Y146.561 E7.54431
G1 X215.497 Y147.122 E7.56383
G1 X215.716 Y148.012 E7.59431
G1 X215.831 Y148.646 E7.61574
G1 X215.865 Y149.114 E7.63135
G1 X215.896 Y150.261 E7.66951
G1 X215.874 Y150.905 E7.69095
G1 X215.83 Y151.237 E7.70209
G1 X215.712 Y151.961 E7.72648
G1 X215.569 Y152.59 E7.74794
G1 X215.464 Y152.91 E7.75914
G1 X215.093 Y153.925 E7.79508
G1 X214.696 Y154.769 E7.8261
G1 X214.355 Y155.351 E7.84854
G1 X213.995 Y155.886 E7.86999
G1 X213.725 Y156.209 E7.88399
G1 X212.84 Y157.188 E7.92788
G1 X212.379 Y157.639 E7.94933
G1 X211.865 Y158.029 E7.97079
G1 X210.937 Y158.647 E8.00788
G1 X210.38 Y158.97 E8.02929
G1 X209.717 Y159.246 E8.05318
G1 X208.356 Y159.705 E8.10095
G1 X207.733 Y159.873 E8.12241
G1 X207.062 Y159.965 E8.14494
G1 X206.006 Y160.04 E8.18015
G1 X205.052 Y160.02 E8.21189
G1 X204.347 Y159.94 E8.23549
G1 X203.613 Y159.803 E8.26032
G1 X202.927 Y159.623 E8.28391
G1 X202.063 Y159.312 E8.31445
G1 X201.134 Y158.882 E8.3485
G1 X200.567 Y158.575 E8.36994
G1 X200.161 Y158.295 E8.38635
G1 X199.292 Y157.631 E8.42272
G1 X198.805 Y157.208 E8.44418
G1 X198.479 Y156.858 E8.46009
G1 X197.808 Y156.065 E8.49464
G1 X197.423 Y155.548 E8.51608
G1 X197.182 Y155.139 E8.53186
G1 X196.687 Y154.204 E8.56705
G1 X196.422 Y153.617 E8.58847
G1 X196.283 Y153.201 E8.60306
G1 X196.017 Y152.271 E8.63523
G1 X195.879 Y151.641 E8.65668
G1 X195.828 Y151.173 E8.67234
G1 X195.756 Y150.046 E8.7099
G1 X195.754 Y149.401 E8.73136
G1 X195.789 Y149.043 E8.74332
G1 X195.889 Y148.275 E8.76908
G1 X196.092 Y147.362 E8.80019
G1 X196.386 Y146.443 E8.83228
G1 X196.62 Y145.842 E8.85373
G1 X196.819 Y145.456 E8.86817
G1 X197.349 Y144.524 E8.90383
G1 X197.702 Y143.985 E8.92526
M204 S5000
M205 X30 Y30
G1 F2400 E3.92526
;MESH:231b73d1-9d47-4714-921a-5fb862478349.stl
G0 F3600 X203.775 Y144.793
G0 X204.544 Y145.885
G0 X206.067 Y145.772
G0 X206.072 Y145.673
M204 S500
M205 X20 Y20
;TYPE:WALL-INNER
G1 F2400 E8.92526
G1 F1800 X206.37 Y145.701 E8.93522
G1 X206.679 Y145.751 E8.94563
G1 X206.987 Y145.825 E8.95617
G1 X207.267 Y145.914 E8.96594
G1 X207.578 Y146.039 E8.97709
G1 X207.838 Y146.164 E8.98668
G1 X208.126 Y146.331 E8.99775
G1 X208.362 Y146.491 E9.00724
G1 X208.612 Y146.689 E9.01784
G1 X208.844 Y146.902 E9.02832
G1 X209.055 Y147.124 E9.03851
G1 X209.257 Y147.372 E9.04914
G1 X209.429 Y147.616 E9.05907
G1 X209.588 Y147.881 E9.06935
G1 X209.736 Y148.172 E9.08021
G1 X209.855 Y148.456 E9.09045
G1 X209.945 Y148.726 E9.09992
G1 X210.029 Y149.048 E9.11099
G1 X210.085 Y149.359 E9.1215
G1 X210.116 Y149.659 E9.13153
G1 X210.127 Y149.964 E9.14168
G1 X210.117 Y150.271 E9.1519
G1 X210.082 Y150.584 E9.16237
G1 X210.025 Y150.899 E9.17302
G1 X209.948 Y151.192 E9.18309
G1 X209.845 Y151.498 E9.19383
G1 X209.73 Y151.773 E9.20375
G1 X209.592 Y152.047 E9.21395
G1 X209.432 Y152.312 E9.22425
G1 X209.25 Y152.568 E9.23469
G1 X209.046 Y152.818 E9.24543
G1 X208.843 Y153.03 E9.25519
G1 X208.604 Y153.25 E9.26599
G1 X208.369 Y153.435 E9.27594
G1 X208.102 Y153.615 E9.28665
G1 X207.849 Y153.762 E9.29638
G1 X207.559 Y153.901 E9.30708
G1 X207.278 Y154.012 E9.31713
G1 X206.969 Y154.11 E9.32791
G1 X206.666 Y154.182 E9.33827
G1 X206.365 Y154.231 E9.34841
G1 X206.064 Y154.258 E9.35846
G1 X205.744 Y154.265 E9.36911
G1 X205.436 Y154.247 E9.37937
G1 X205.134 Y154.209 E9.38949
G1 X204.823 Y154.145 E9.40005
G1 X204.526 Y154.063 E9.4103
G1 X204.242 Y153.962 E9.42033
G1 X203.94 Y153.828 E9.43132
G1 X203.68 Y153.69 E9.44111
G1 X203.41 Y153.52 E9.45172
G1 X203.166 Y153.342 E9.46176
G1 X202.928 Y153.139 E9.47217
G1 X202.701 Y152.914 E9.4828
G1 X202.496 Y152.683 E9.49307
G1 X202.312 Y152.439 E9.50323
G1 X202.141 Y152.175 E9.5137
G1 X201.99 Y151.904 E9.52401
G1 X201.863 Y151.628 E9.53412
G1 X201.751 Y151.328 E9.54477
G1 X201.665 Y151.039 E9.5548
G1 X201.597 Y150.731 E9.56529
G1 X201.555 Y150.434 E9.57527
G1 X201.532 Y150.109 E9.5861
G1 X201.532 Y149.801 E9.59635
G1 X201.554 Y149.505 E9.60622
G1 X201.601 Y149.184 E9.61701
G1 X201.668 Y148.879 E9.6274
G1 X201.754 Y148.594 E9.6373
G1 X201.864 Y148.301 E9.64771
G1 X201.997 Y148.013 E9.65826
G1 X202.144 Y147.75 E9.66828
G1 X202.313 Y147.49 E9.67859
G1 X202.509 Y147.232 E9.68937
G1 X202.704 Y147.012 E9.69915
G1 X202.933 Y146.788 E9.7098
G1 X203.175 Y146.583 E9.72035
G1 X203.416 Y146.407 E9.73028
G1 X203.675 Y146.244 E9.74045
G1 X203.976 Y146.085 E9.75178
G1 X204.229 Y145.975 E9.76095
G1 X204.538 Y145.866 E9.77185
G1 X204.833 Y145.784 E9.78203
G1 X205.144 Y145.72 E9.79259
G1 X205.444 Y145.683 E9.80265
G1 X205.752 Y145.666 E9.81291
G1 X206.072 Y145.673 E9.82355
M204 S5000
M205 X30 Y30
G0 F3600 X206.067 Y145.772
G0 X208.175 Y147.316
G0 X208.819 Y148.073
G0 X209.226 Y148.976
G0 X209.368 Y149.96
G0 X209.231 Y150.942
G0 X208.826 Y151.847
G0 X208.184 Y152.606
G0 X207.518 Y153.052
G0 X206.422 Y153.517
G0 X206.406 Y153.419
M204 S500
M205 X20 Y20
G1 F1800 X206.728 Y153.348 E9.83452
G1 X207.039 Y153.25 E9.84537
G1 X207.343 Y153.122 E9.85634
G1 X207.631 Y152.966 E9.86723
G1 X207.905 Y152.784 E9.87817
G1 X208.158 Y152.577 E9.88904
G1 X208.394 Y152.348 E9.89998
G1 X208.606 Y152.096 E9.91093
G1 X208.793 Y151.826 E9.92186
G1 X208.954 Y151.541 E9.93275
G1 X209.088 Y151.242 E9.94364
G1 X209.193 Y150.931 E9.95456
G1 X209.269 Y150.612 E9.96547
G1 X209.314 Y150.287 E9.97638
G1 X209.328 Y149.96 E9.98727
G1 X209.313 Y149.632 E9.99819
G1 X209.266 Y149.306 E10.00914
G1 X209.188 Y148.987 E10.02006
G1 X209.083 Y148.676 E10.03098
G1 X208.946 Y148.377 E10.04192
G1 X208.786 Y148.094 E10.05273
G1 X208.598 Y147.826 E10.06362
G1 X208.385 Y147.574 E10.0746
G1 X208.149 Y147.345 E10.08553
G1 X207.893 Y147.139 E10.09646
G1 X207.619 Y146.958 E10.10738
G1 X207.331 Y146.804 E10.11825
G1 X207.029 Y146.677 E10.12914
G1 X206.716 Y146.579 E10.14005
G1 X206.393 Y146.51 E10.15104
G1 X206.068 Y146.474 E10.16191
G1 X205.74 Y146.466 E10.17283
G1 X205.412 Y146.489 E10.18376
G1 X205.089 Y146.544 E10.19466
G1 X204.772 Y146.628 E10.20557
G1 X204.464 Y146.742 E10.21649
G1 X204.168 Y146.884 E10.22741
G1 X203.887 Y147.052 E10.2383
G1 X203.623 Y147.247 E10.24922
G1 X203.377 Y147.466 E10.26017
G1 X203.155 Y147.707 E10.27107
G1 X202.955 Y147.968 E10.282
G1 X202.782 Y148.245 E10.29287
G1 X202.633 Y148.536 E10.30374
G1 X202.512 Y148.844 E10.31475
G1 X202.422 Y149.159 E10.32564
G1 X202.361 Y149.481 E10.33654
G1 X202.332 Y149.81 E10.34753
G1 X202.333 Y150.135 E10.35834
G1 X202.364 Y150.462 E10.36926
G1 X202.426 Y150.784 E10.38017
G1 X202.516 Y151.1 E10.3911
G1 X202.638 Y151.405 E10.40202
G1 X202.787 Y151.698 E10.41296
G1 X202.962 Y151.975 E10.42385
G1 X203.163 Y152.234 E10.43476
G1 X203.387 Y152.474 E10.44568
G1 X203.633 Y152.692 E10.45661
G1 X203.898 Y152.885 E10.46751
G1 X204.18 Y153.053 E10.47843
G1 X204.475 Y153.194 E10.48931
