;FLAVOR:Marlin
;TIME:1226
;Filament used: 0.973733m
;Layer height: 0.2
;Generated with Cura_SteamEngine 3.6.0
M140 S60
M105
M190 S60
M104 S200
M105
M109 S200
M82 ;absolute extrusion mode
G28 ;Home
G1 Z15.0 F6000 ;Move the platform down 15mm
;Prime the extruder
G92 E0
G1 F200 E3
G92 E0
G92 E0
G1 F2400 E-5
;LAYER_COUNT:33
;LAYER:0
M107
M204 S5000
M205 X30 Y30
G0 F3600 X113.094 Y138.332 Z0.2
M204 S500
M205 X20 Y20
;TYPE:SKIRT
G1 F2400 E0
G1 F1800 X113.683 Y137.927 E0.02377
G1 X114.314 Y137.59 E0.04757
G1 X115.178 Y137.262 E0.07831
G1 X121.17 Y135.474 E0.28628
G1 X121.866 Y135.308 E0.31008
G1 X122.576 Y135.221 E0.33387
G1 X123.291 Y135.214 E0.35766
G1 X124.002 Y135.286 E0.38142
G1 X124.658 Y135.425 E0.40373
G1 X126.453 Y135.906 E0.46554
G1 X131.741 Y137.12 E0.64599
G1 X134.224 Y137.578 E0.72997
G1 X139.522 Y138.327 E0.90793
G1 X144.773 Y138.769 E1.0832
G1 X150.093 Y138.914 E1.26021
G1 X155.374 Y138.76 E1.43593
G1 X160.647 Y138.306 E1.61196
G1 X165.88 Y137.557 E1.78778
G1 X171.116 Y136.502 E1.96543
G1 X173.661 Y135.876 E2.0526
G1 X175.336 Y135.426 E2.11029
G1 X176.036 Y135.279 E2.13408
G1 X176.748 Y135.212 E2.15787
G1 X177.464 Y135.224 E2.18168
G1 X178.173 Y135.316 E2.20546
G1 X178.702 Y135.438 E2.22352
G1 X181.194 Y136.127 E2.30951
G1 X181.401 Y136.189 E2.3167
G1 X184.903 Y137.286 E2.43876
G1 X185.573 Y137.537 E2.46256
G1 X186.21 Y137.862 E2.48634
G1 X186.807 Y138.256 E2.51013
G1 X187.356 Y138.714 E2.53391
G1 X187.851 Y139.23 E2.55769
G1 X188.285 Y139.799 E2.58149
G1 X188.653 Y140.412 E2.60527
G1 X188.986 Y141.154 E2.63233
G1 X189.875 Y143.534 E2.71683
G1 X191.894 Y148.37 E2.89113
G1 X192.132 Y149.044 E2.9149
G1 X192.294 Y149.741 E2.9387
G1 X192.376 Y150.452 E2.96251
G1 X192.388 Y150.834 E2.97522
G1 X192.39 Y158.389 E3.2265
G1 X192.35 Y159.103 E3.25028
G1 X192.231 Y159.809 E3.2741
G1 X192.034 Y160.496 E3.29787
G1 X191.761 Y161.158 E3.32168
G1 X191.416 Y161.784 E3.34546
G1 X191.004 Y162.369 E3.36926
G1 X190.529 Y162.903 E3.39303
G1 X189.997 Y163.381 E3.41681
G1 X189.415 Y163.797 E3.44061
G1 X188.79 Y164.146 E3.46442
G1 X188.131 Y164.422 E3.48818
G1 X187.444 Y164.624 E3.512
G1 X186.74 Y164.747 E3.53577
G1 X186.026 Y164.791 E3.55956
G1 X185.312 Y164.755 E3.58334
G1 X184.268 Y164.555 E3.61869
G1 X180.361 Y163.464 E3.75361
G1 X175.152 Y162.272 E3.93134
G1 X169.952 Y161.387 E4.10678
G1 X164.683 Y160.796 E4.28313
G1 X159.392 Y160.503 E4.45938
G1 X143.169 Y160.467 E4.99896
G1 X137.815 Y160.619 E5.1771
G1 X132.535 Y161.068 E5.35335
G1 X127.29 Y161.815 E5.52956
G1 X122.08 Y162.859 E5.70629
G1 X119.561 Y163.476 E5.79255
G1 X115.754 Y164.548 E5.92409
G1 X115.056 Y164.703 E5.94788
G1 X114.344 Y164.779 E5.97169
G1 X113.629 Y164.775 E5.99547
G1 X112.919 Y164.692 E6.01925
G1 X112.222 Y164.529 E6.04306
G1 X111.548 Y164.29 E6.06684
G1 X110.905 Y163.978 E6.09061
G1 X110.3 Y163.595 E6.11443
G1 X109.742 Y163.147 E6.13823
G1 X109.238 Y162.64 E6.16201
G1 X108.793 Y162.08 E6.1858
G1 X108.414 Y161.474 E6.20957
G1 X108.104 Y160.829 E6.23337
G1 X107.869 Y160.154 E6.25714
G1 X107.71 Y159.456 E6.28095
G1 X107.62 Y158.395 E6.31637
G1 X107.61 Y150.855 E6.56715
G1 X107.649 Y150.141 E6.59093
G1 X107.767 Y149.436 E6.61471
G1 X107.964 Y148.748 E6.63851
G1 X108.115 Y148.354 E6.65255
G1 X109.685 Y144.642 E6.7866
G1 X110.655 Y142.129 E6.87619
G1 X110.66 Y142.111 E6.87681
G1 X111.004 Y141.179 E6.90985
G1 X111.289 Y140.523 E6.93364
G1 X111.645 Y139.903 E6.95742
G1 X112.068 Y139.326 E6.98122
G1 X112.553 Y138.8 E7.00501
G1 X113.094 Y138.332 E7.0288
M204 S5000
M205 X30 Y30
G0 F3600 X113.426 Y138.582
M204 S500
M205 X20 Y20
G1 F1800 X114.004 Y138.201 E7.05183
G1 X114.623 Y137.889 E7.07489
G1 X115.292 Y137.646 E7.09856
G1 X121.284 Y135.858 E7.30654
G1 X121.958 Y135.698 E7.32958
G1 X122.646 Y135.617 E7.35262
G1 X123.339 Y135.617 E7.37567
G1 X124.027 Y135.695 E7.3987
G1 X124.554 Y135.812 E7.41665
G1 X126.344 Y136.292 E7.47829
G1 X131.648 Y137.51 E7.65929
G1 X134.165 Y137.973 E7.74442
G1 X139.467 Y138.723 E7.92252
G1 X144.765 Y139.169 E8.09935
G1 X150.094 Y139.315 E8.27666
G1 X155.386 Y139.16 E8.45275
G1 X160.7 Y138.703 E8.63015
G1 X165.947 Y137.951 E8.80645
G1 X171.216 Y136.89 E8.98521
G1 X173.73 Y136.271 E9.07132
G1 X175.44 Y135.812 E9.13021
G1 X176.118 Y135.672 E9.15324
G1 X176.808 Y135.61 E9.17628
G1 X177.5 Y135.628 E9.1993
G1 X178.186 Y135.726 E9.22235
G1 X178.595 Y135.824 E9.23634
G1 X181.087 Y136.513 E9.32233
G1 X181.282 Y136.57 E9.32909
G1 X184.784 Y137.667 E9.45115
G1 X185.431 Y137.912 E9.47416
G1 X186.047 Y138.23 E9.49722
G1 X186.621 Y138.617 E9.52024
G1 X187.147 Y139.067 E9.54327
G1 X187.618 Y139.575 E9.56631
G1 X188.027 Y140.133 E9.58932
G1 X188.369 Y140.736 E9.61237
G1 X188.611 Y141.294 E9.6326
G1 X189.498 Y143.67 E9.71696
G1 X191.525 Y148.524 E9.89191
G1 X191.754 Y149.177 E9.91493
G1 X191.907 Y149.853 E9.93798
G1 X191.988 Y150.834 E9.97072
G1 X191.99 Y158.389 E10.222
G1 X191.95 Y159.081 E10.24506
G1 X191.831 Y159.763 E10.26808
G1 X191.634 Y160.427 E10.29112
G1 X191.362 Y161.064 E10.31416
G1 X191.018 Y161.665 E10.33719
G1 X190.607 Y162.222 E10.36021
G1 X190.135 Y162.729 E10.38325
G1 X189.608 Y163.178 E10.40628
G1 X189.032 Y163.563 E10.42932
G1 X188.416 Y163.879 E10.45235
G1 X187.767 Y164.122 E10.4754
G1 X187.095 Y164.288 E10.49842
G1 X186.408 Y164.376 E10.52146
G1 X185.716 Y164.385 E10.54447
G1 X185.027 Y164.313 E10.56751
G1 X184.376 Y164.17 E10.58968
G1 X180.456 Y163.075 E10.72505
G1 X175.236 Y161.88 E10.90316
G1 X170.01 Y160.992 E11.07947
G1 X164.715 Y160.397 E11.25669
G1 X159.396 Y160.103 E11.43387
G1 X143.191 Y160.067 E11.97286
G1 X137.77 Y160.221 E12.15323
G1 X132.498 Y160.669 E12.32921
G1 X127.224 Y161.421 E12.5064
G1 X122.003 Y162.467 E12.6835
G1 X119.441 Y163.095 E12.77124
G1 X115.645 Y164.163 E12.90239
G1 X114.969 Y164.311 E12.92541
G1 X114.28 Y164.381 E12.94844
G1 X113.588 Y164.371 E12.97146
G1 X112.901 Y164.282 E12.9945
G1 X112.229 Y164.113 E13.01755
G1 X111.581 Y163.869 E13.04058
G1 X110.966 Y163.551 E13.06361
G1 X110.391 Y163.165 E13.08664
G1 X109.865 Y162.715 E13.10966
G1 X109.394 Y162.207 E13.13271
G1 X108.984 Y161.649 E13.15574
G1 X108.642 Y161.047 E13.17876
G1 X108.371 Y160.409 E13.20182
G1 X108.176 Y159.745 E13.22484
G1 X108.058 Y159.063 E13.24786
G1 X108.02 Y158.395 E13.27011
G1 X108.01 Y150.855 E13.52089
G1 X108.049 Y150.164 E13.54391
G1 X108.168 Y149.481 E13.56697
G1 X108.484 Y148.51 E13.60093
G1 X110.058 Y144.788 E13.73534
G1 X111.019 Y142.298 E13.82411
G1 X111.035 Y142.249 E13.82583
G1 X111.379 Y141.317 E13.85887
G1 X111.656 Y140.683 E13.88188
G1 X112.004 Y140.084 E13.90492
G1 X112.419 Y139.529 E13.92797
G1 X112.895 Y139.026 E13.95101
G1 X113.426 Y138.582 E13.97403
M204 S5000
M205 X30 Y30
G0 F3600 X113.756 Y138.836
M204 S500
M205 X20 Y20
G1 F1800 X114.323 Y138.48 E13.9963
G1 X114.929 Y138.195 E14.01857
G1 X115.407 Y138.029 E14.0354
G1 X121.399 Y136.241 E14.24338
G1 X122.05 Y136.088 E14.26562
G1 X122.715 Y136.014 E14.28787
G1 X123.384 Y136.02 E14.31013
G1 X124.048 Y136.106 E14.33239
G1 X124.45 Y136.198 E14.34611
G1 X126.254 Y136.682 E14.40823
G1 X131.578 Y137.904 E14.58992
G1 X134.087 Y138.366 E14.67477
G1 X139.432 Y139.122 E14.85431
G1 X144.737 Y139.568 E15.03138
G1 X150.077 Y139.715 E15.20906
G1 X155.431 Y139.558 E15.38721
G1 X160.739 Y139.102 E15.5644
G1 X166.012 Y138.346 E15.74158
G1 X171.299 Y137.281 E15.92096
G1 X173.877 Y136.647 E16.00926
G1 X175.544 Y136.199 E16.06667
G1 X176.199 Y136.064 E16.08891
G1 X176.866 Y136.009 E16.11117
G1 X177.534 Y136.033 E16.1334
G1 X178.488 Y136.21 E16.16567
G1 X180.98 Y136.899 E16.25167
G1 X181.162 Y136.952 E16.25797
G1 X184.664 Y138.049 E16.38003
G1 X185.289 Y138.287 E16.40227
G1 X185.882 Y138.597 E16.42453
G1 X186.433 Y138.977 E16.44679
G1 X186.935 Y139.419 E16.46904
G1 X187.381 Y139.918 E16.4913
G1 X187.764 Y140.466 E16.51354
G1 X188.079 Y141.056 E16.53578
G1 X188.236 Y141.434 E16.54939
G1 X189.122 Y143.807 E16.63364
G1 X191.156 Y148.678 E16.80921
G1 X191.376 Y149.31 E16.83147
G1 X191.52 Y149.963 E16.85371
G1 X191.588 Y150.835 E16.8828
G1 X191.59 Y158.39 E17.13408
G1 X191.55 Y159.057 E17.1563
G1 X191.431 Y159.716 E17.17858
G1 X191.234 Y160.355 E17.20082
G1 X190.963 Y160.967 E17.22308
G1 X190.62 Y161.541 E17.24532
G1 X190.211 Y162.071 E17.26759
G1 X189.742 Y162.548 E17.28983
G1 X189.22 Y162.966 E17.31208
G1 X188.651 Y163.318 E17.33433
G1 X188.045 Y163.6 E17.35656
G1 X187.409 Y163.808 E17.37882
G1 X186.752 Y163.939 E17.4011
G1 X186.085 Y163.99 E17.42335
G1 X185.417 Y163.962 E17.44559
G1 X184.484 Y163.785 E17.47717
G1 X180.547 Y162.685 E17.61313
G1 X175.325 Y161.49 E17.79131
G1 X170.052 Y160.594 E17.9692
G1 X164.745 Y159.998 E18.14682
G1 X159.419 Y159.703 E18.32424
G1 X143.18 Y159.667 E18.86435
G1 X137.76 Y159.821 E19.04469
G1 X132.442 Y160.273 E19.22221
G1 X127.163 Y161.025 E19.39956
G1 X121.899 Y162.08 E19.57812
G1 X119.355 Y162.704 E19.66524
G1 X115.537 Y163.778 E19.79716
G1 X114.883 Y163.92 E19.81942
G1 X114.217 Y163.984 E19.84167
G1 X113.549 Y163.967 E19.8639
G1 X112.886 Y163.871 E19.88618
G1 X112.241 Y163.697 E19.9084
G1 X111.62 Y163.447 E19.93066
G1 X111.034 Y163.124 E19.95292
G1 X110.49 Y162.734 E19.97518
G1 X109.997 Y162.282 E19.99743
G1 X109.561 Y161.775 E20.01967
G1 X109.189 Y161.219 E20.04192
G1 X108.886 Y160.622 E20.06419
G1 X108.656 Y159.994 E20.08643
G1 X108.502 Y159.343 E20.10868
G1 X108.42 Y158.394 E20.14036
G1 X108.41 Y150.854 E20.39114
G1 X108.449 Y150.187 E20.41337
G1 X108.568 Y149.528 E20.43564
G1 X108.852 Y148.666 E20.46582
G1 X110.43 Y144.934 E20.60059
G1 X111.401 Y142.42 E20.69023
G1 X111.41 Y142.388 E20.69133
G1 X111.754 Y141.456 E20.72438
G1 X112.023 Y140.843 E20.74664
G1 X112.363 Y140.267 E20.76889
G1 X112.769 Y139.735 E20.79115
G1 X113.236 Y139.256 E20.8134
G1 X113.756 Y138.836 E20.83563
M204 S5000
M205 X30 Y30
G0 F3600 X114.085 Y139.094
M204 S500
M205 X20 Y20
G1 F1800 X114.64 Y138.766 E20.85707
G1 X115.521 Y138.412 E20.88865
G1 X121.513 Y136.624 E21.09663
G1 X122.141 Y136.478 E21.11807
G1 X122.782 Y136.412 E21.1395
G1 X123.427 Y136.425 E21.16096
G1 X124.347 Y136.584 E21.19201
G1 X126.177 Y137.075 E21.25503
G1 X131.485 Y138.293 E21.43617
G1 X134.027 Y138.762 E21.52214
G1 X139.377 Y139.518 E21.70185
G1 X144.728 Y139.968 E21.88045
G1 X150.078 Y140.115 E22.05846
G1 X155.442 Y139.958 E22.23695
G1 X160.796 Y139.498 E22.41568
G1 X166.076 Y138.741 E22.59309
G1 X171.404 Y137.668 E22.77385
G1 X173.923 Y137.048 E22.86014
G1 X175.647 Y136.585 E22.91951
G1 X176.279 Y136.457 E22.94096
G1 X176.922 Y136.408 E22.9624
G1 X177.566 Y136.438 E22.98385
G1 X178.382 Y136.595 E23.01149
G1 X180.874 Y137.284 E23.09748
G1 X181.042 Y137.334 E23.10331
G1 X184.544 Y138.431 E23.22537
G1 X185.146 Y138.661 E23.2468
G1 X185.715 Y138.964 E23.26824
G1 X186.242 Y139.336 E23.2897
G1 X186.719 Y139.769 E23.31112
G1 X187.139 Y140.259 E23.33259
G1 X187.495 Y140.796 E23.35402
G1 X187.861 Y141.574 E23.38262
G1 X188.754 Y143.966 E23.46754
G1 X190.786 Y148.832 E23.64293
G1 X190.998 Y149.442 E23.6644
G1 X191.132 Y150.072 E23.68583
G1 X191.188 Y150.835 E23.71127
G1 X191.19 Y158.39 E23.96255
G1 X191.15 Y159.033 E23.98398
G1 X191.031 Y159.667 E24.00544
G1 X190.835 Y160.281 E24.02687
G1 X190.563 Y160.866 E24.04833
G1 X190.222 Y161.412 E24.06974
G1 X189.816 Y161.913 E24.09119
G1 X189.351 Y162.359 E24.11262
G1 X188.834 Y162.745 E24.13408
G1 X188.273 Y163.063 E24.15553
G1 X187.678 Y163.31 E24.17695
G1 X187.056 Y163.481 E24.19841
G1 X186.418 Y163.573 E24.21985
G1 X185.773 Y163.586 E24.24131
G1 X185.132 Y163.52 E24.26274
G1 X184.591 Y163.399 E24.28118
G1 X180.656 Y162.3 E24.41706
G1 X175.393 Y161.095 E24.59664
G1 X170.128 Y160.2 E24.77427
G1 X164.777 Y159.599 E24.95336
G1 X159.423 Y159.303 E25.13171
G1 X143.17 Y159.267 E25.67229
G1 X137.732 Y159.421 E25.85323
G1 X132.406 Y159.874 E26.03101
G1 X127.097 Y160.631 E26.20938
G1 X121.821 Y161.688 E26.38834
G1 X119.242 Y162.32 E26.47666
G1 X115.429 Y163.393 E26.60841
G1 X114.798 Y163.528 E26.62987
G1 X114.156 Y163.585 E26.6513
G1 X113.512 Y163.562 E26.67274
G1 X112.876 Y163.46 E26.69416
G1 X112.257 Y163.279 E26.71561
G1 X111.665 Y163.023 E26.73706
G1 X111.109 Y162.696 E26.75852
G1 X110.599 Y162.303 E26.77993
G1 X110.14 Y161.849 E26.8014
G1 X109.742 Y161.343 E26.82282
G1 X109.409 Y160.791 E26.84426
G1 X109.147 Y160.202 E26.8657
G1 X108.96 Y159.585 E26.88714
G1 X108.851 Y158.949 E26.9086
G1 X108.82 Y158.394 E26.92709
G1 X108.81 Y150.854 E27.17787
G1 X108.849 Y150.21 E27.19933
G1 X108.968 Y149.577 E27.22076
G1 X109.221 Y148.822 E27.24724
G1 X110.792 Y145.107 E27.38139
G1 X111.772 Y142.569 E27.47188
G1 X111.786 Y142.526 E27.47339
G1 X112.13 Y141.594 E27.50643
G1 X112.39 Y141.005 E27.52784
G1 X112.721 Y140.452 E27.54928
G1 X113.118 Y139.944 E27.57072
G1 X113.575 Y139.489 E27.59217
G1 X114.085 Y139.094 E27.61363
M204 S5000
M205 X30 Y30
G1 F2400 E22.61363
G0 F3600 X116.288 Y149.323
G0 X116.296 Y149.367
G0 X116.849 Y151.935
G0 X116.858 Y151.979
G0 X116.917 Y152.245
M204 S500
M205 X20 Y20
;TYPE:SUPPORT
G1 F2400 E27.61363
G1 F1800 X117.083 Y152.245 E27.61915
G1 X117.247 Y152.285 E27.62476
G1 X117.394 Y152.362 E27.63028
G1 X117.519 Y152.472 E27.63582
G1 X117.615 Y152.612 E27.64147
G1 X117.673 Y152.763 E27.64685
G1 X117.693 Y152.933 E27.65254
G1 X117.673 Y153.101 E27.65817
G1 X117.615 Y153.255 E27.66364
G1 X117.518 Y153.395 E27.66931
G1 X117.395 Y153.503 E27.67475
G1 X117.244 Y153.583 E27.68043
G1 X117.084 Y153.622 E27.68591
G1 X116.916 Y153.622 E27.6915
G1 X116.756 Y153.583 E27.69698
G1 X116.605 Y153.503 E27.70266
G1 X116.482 Y153.395 E27.7081
G1 X116.385 Y153.255 E27.71377
G1 X116.327 Y153.101 E27.71924
G1 X116.307 Y152.933 E27.72487
G1 X116.327 Y152.763 E27.73056
G1 X116.385 Y152.612 E27.73594
G1 X116.481 Y152.472 E27.74159
G1 X116.606 Y152.362 E27.74713
G1 X116.753 Y152.285 E27.75265
G1 X116.917 Y152.245 E27.75826
M204 S5000
M205 X30 Y30
G0 F3600 X117.348 Y152.588
M204 S500
M205 X20 Y20
G1 F1800 X117.348 Y153.279 E27.78124
M204 S5000
M205 X30 Y30
G1 F2400 E22.78124
G0 F3600 X117.896 Y153.274
G0 X117.94 Y153.274
G0 X181.99 Y152.933
G0 X182.034 Y152.933
G0 X182.307 Y152.933
M204 S500
M205 X20 Y20
G1 F2400 E27.78124
G1 F1800 X182.327 Y152.763 E27.78694
G1 X182.385 Y152.612 E27.79232
G1 X182.481 Y152.472 E27.79796
G1 X182.606 Y152.362 E27.8035
G1 X182.753 Y152.285 E27.80902
G1 X182.917 Y152.245 E27.81463
G1 X183.083 Y152.245 E27.82016
G1 X183.247 Y152.285 E27.82577
G1 X183.394 Y152.362 E27.83129
G1 X183.519 Y152.472 E27.83683
G1 X183.615 Y152.612 E27.84247
G1 X183.673 Y152.763 E27.84785
G1 X183.693 Y152.933 E27.85355
G1 X183.673 Y153.101 E27.85917
G1 X183.615 Y153.255 E27.86465
G1 X183.518 Y153.395 E27.87031
G1 X183.395 Y153.503 E27.87576
G1 X183.244 Y153.583 E27.88144
G1 X183.084 Y153.622 E27.88692
G1 X182.916 Y153.622 E27.89251
G1 X182.756 Y153.583 E27.89798
G1 X182.605 Y153.503 E27.90367
G1 X182.482 Y153.395 E27.90911
G1 X182.385 Y153.255 E27.91478
G1 X182.327 Y153.101 E27.92025
G1 X182.307 Y152.933 E27.92588
M204 S5000
M205 X30 Y30
G1 F2400 E22.92588
;MESH:V2PlatinenschutzRadHinten_Rechts.stl
G0 F3600 X180.849 Y152.379
G0 X180.895 Y152.241
G0 X181.275 Y151.405
G0 X181.349 Y151.471
M204 S500
M205 X20 Y20
;TYPE:WALL-INNER
G1 F2400 E27.92588
G1 F1800 X181.048 Y151.909 E27.94355
G1 X180.859 Y152.406 E27.96124
G1 X180.796 Y152.933 E27.97889
G1 X180.859 Y153.46 E27.99654
G1 X181.048 Y153.958 E28.01426
G1 X181.349 Y154.395 E28.03191
G1 X181.749 Y154.748 E28.04965
G1 X182.218 Y154.994 E28.06727
G1 X182.734 Y155.122 E28.08495
G1 X183.266 Y155.122 E28.10264
G1 X183.782 Y154.994 E28.12033
G1 X184.251 Y154.748 E28.13794
G1 X184.651 Y154.395 E28.15568
G1 X184.952 Y153.958 E28.17333
G1 X185.005 Y153.819 E28.17828
G1 X185.141 Y153.46 E28.19105
G1 X185.204 Y152.933 E28.2087
G1 X185.141 Y152.406 E28.22636
G1 X185.005 Y152.048 E28.23909
G1 X184.952 Y151.909 E28.24404
G1 X184.651 Y151.471 E28.26172
G1 X184.516 Y151.352 E28.2677
G1 X184.251 Y151.119 E28.27944
G1 X183.782 Y150.872 E28.29707
G1 X183.266 Y150.745 E28.31474
G1 X182.865 Y150.745 E28.32808
G1 X182.734 Y150.745 E28.33244
G1 X182.218 Y150.872 E28.35011
G1 X181.749 Y151.119 E28.36774
G1 X181.349 Y151.471 E28.38546
M204 S5000
M205 X30 Y30
G0 F3600 X181.275 Y151.405
G0 X181.795 Y150.004
G0 X181.885 Y149.963
M204 S500
