;FLAVOR:Marlin
;TIME:1363
;Filament used: 1.12504m
;Layer height: 0.2
;Generated with Cura_SteamEngine 3.6.0
M140 S60
M105
M190 S60
M104 S200
M105
M109 S200
M82 ;absolute extrusion mode
G28 ;Home
G1 Z15.0 F6000 ;Move the platform down 15mm
;Prime the extruder
G92 E0
G1 F200 E3
G92 E0
G92 E0
G1 F2400 E-5
;LAYER_COUNT:33
;LAYER:0
M107
M204 S5000
M205 X30 Y30
G0 F3600 X128.105 Y114.733 Z0.2
M204 S500
M205 X20 Y20
;TYPE:SKIRT
G1 F2400 E0
G1 F1800 X128.628 Y114.244 E0.02381
G1 X129.202 Y113.817 E0.04761
G1 X129.528 Y113.615 E0.06036
G1 X136.071 Y109.832 E0.31174
G1 X136.709 Y109.51 E0.33551
G1 X137.379 Y109.26 E0.3593
G1 X138.073 Y109.087 E0.38308
G1 X138.782 Y108.992 E0.40688
G1 X139.497 Y108.977 E0.43066
G1 X140.209 Y109.042 E0.45444
G1 X140.91 Y109.186 E0.47824
G1 X141.59 Y109.407 E0.50203
G1 X142.242 Y109.703 E0.52584
G1 X142.856 Y110.069 E0.54962
G1 X143.425 Y110.502 E0.5734
G1 X143.943 Y110.996 E0.59721
G1 X144.402 Y111.544 E0.62098
G1 X144.797 Y112.14 E0.64476
G1 X145.124 Y112.777 E0.66858
G1 X145.397 Y113.51 E0.69459
G1 X147.177 Y119.36 E0.89797
G1 X149.015 Y124.313 E1.07369
G1 X150.016 Y126.702 E1.15984
G1 X152.286 Y131.527 E1.33719
G1 X154.811 Y136.19 E1.51356
G1 X157.593 Y140.695 E1.68967
G1 X160.617 Y145.029 E1.86544
G1 X163.923 Y149.236 E2.0434
G1 X165.57 Y151.159 E2.12761
G1 X169.225 Y155.074 E2.30575
G1 X173.623 Y159.259 E2.50767
G1 X174.113 Y159.78 E2.53146
G1 X174.541 Y160.352 E2.55522
G1 X174.752 Y160.693 E2.56856
G1 X177.752 Y165.885 E2.768
G1 X178.075 Y166.523 E2.79178
G1 X178.325 Y167.194 E2.8156
G1 X178.498 Y167.888 E2.83939
G1 X178.592 Y168.597 E2.86318
G1 X178.598 Y169.498 E2.89314
G1 X177.903 Y180.287 E3.25273
G1 X177.817 Y180.998 E3.27655
G1 X177.652 Y181.694 E3.30034
G1 X177.411 Y182.367 E3.32412
G1 X177.097 Y183.009 E3.34789
G1 X176.712 Y183.612 E3.37168
G1 X176.263 Y184.169 E3.39548
G1 X175.754 Y184.672 E3.41928
G1 X175.192 Y185.115 E3.44308
G1 X174.717 Y185.418 E3.46182
G1 X166.517 Y190.154 E3.77677
G1 X165.878 Y190.477 E3.80059
G1 X165.208 Y190.726 E3.82436
G1 X164.514 Y190.899 E3.84815
G1 X163.805 Y190.993 E3.87194
G1 X163.09 Y191.008 E3.89572
G1 X162.378 Y190.943 E3.9195
G1 X161.677 Y190.799 E3.94331
G1 X160.997 Y190.577 E3.9671
G1 X160.346 Y190.281 E3.99088
G1 X159.622 Y189.839 E4.0191
G1 X158.357 Y188.945 E4.07062
G1 X157.811 Y188.512 E4.09379
G1 X155.334 Y186.321 E4.20378
G1 X155.137 Y186.139 E4.2127
G1 X151.8 Y182.929 E4.36671
G1 X151.313 Y182.406 E4.39048
G1 X150.888 Y181.831 E4.41426
G1 X150.529 Y181.212 E4.43806
G1 X150.242 Y180.557 E4.46184
G1 X150.079 Y180.062 E4.47918
G1 X148.722 Y175.273 E4.64473
G1 X147.922 Y172.824 E4.73042
G1 X146.055 Y167.831 E4.90772
G1 X143.927 Y162.992 E5.08354
G1 X141.527 Y158.279 E5.25945
G1 X138.857 Y153.696 E5.43586
G1 X135.945 Y149.291 E5.61149
G1 X132.772 Y145.036 E5.78803
G1 X129.358 Y140.958 E5.96492
G1 X127.608 Y139.04 E6.05128
G1 X124.662 Y136.028 E6.19141
G1 X124.192 Y135.489 E6.2152
G1 X123.784 Y134.902 E6.23897
G1 X123.444 Y134.272 E6.26278
G1 X123.177 Y133.609 E6.28656
G1 X123.033 Y133.122 E6.30345
G1 X122.131 Y129.556 E6.42579
G1 X122.082 Y129.346 E6.43296
G1 X121.535 Y126.828 E6.51866
G1 X121.422 Y126.121 E6.54248
G1 X121.389 Y125.407 E6.56625
G1 X121.436 Y124.693 E6.59005
G1 X121.562 Y123.989 E6.61384
G1 X121.767 Y123.303 E6.63765
G1 X122.046 Y122.645 E6.66142
G1 X122.397 Y122.022 E6.6852
G1 X122.853 Y121.396 E6.71096
G1 X124.482 Y119.422 E6.79609
G1 X127.641 Y115.277 E6.96942
G1 X128.105 Y114.733 E6.99321
M204 S5000
M205 X30 Y30
G0 F3600 X128.41 Y114.993
M204 S500
M205 X20 Y20
G1 F1800 X128.918 Y114.523 E7.01622
G1 X129.728 Y113.962 E7.049
G1 X136.271 Y110.179 E7.30037
G1 X136.889 Y109.867 E7.3234
G1 X137.54 Y109.629 E7.34645
G1 X138.213 Y109.468 E7.36947
G1 X138.901 Y109.385 E7.39252
G1 X139.593 Y109.381 E7.41553
G1 X140.281 Y109.458 E7.43856
G1 X140.956 Y109.614 E7.4616
G1 X141.609 Y109.846 E7.48465
G1 X142.23 Y110.152 E7.50768
G1 X142.812 Y110.527 E7.5307
G1 X143.347 Y110.967 E7.55374
G1 X143.827 Y111.466 E7.57677
G1 X144.247 Y112.016 E7.59979
G1 X144.601 Y112.612 E7.62284
G1 X144.884 Y113.244 E7.64588
G1 X145.014 Y113.626 E7.6593
G1 X146.798 Y119.49 E7.86316
G1 X148.639 Y124.451 E8.03916
G1 X149.655 Y126.875 E8.12658
G1 X151.93 Y131.71 E8.3043
G1 X154.457 Y136.377 E8.48082
G1 X157.262 Y140.921 E8.65843
G1 X160.298 Y145.271 E8.83487
G1 X163.61 Y149.485 E9.01313
G1 X165.279 Y151.433 E9.09845
G1 X168.931 Y155.346 E9.27648
G1 X173.347 Y159.548 E9.47922
G1 X173.82 Y160.054 E9.50226
G1 X174.406 Y160.893 E9.5363
G1 X177.406 Y166.085 E9.73574
G1 X177.717 Y166.704 E9.75878
G1 X177.955 Y167.354 E9.7818
G1 X178.117 Y168.028 E9.80486
G1 X178.199 Y168.715 E9.82787
G1 X178.199 Y169.473 E9.85308
G1 X177.504 Y180.262 E10.21267
G1 X177.419 Y180.949 E10.23569
G1 X177.256 Y181.622 E10.25872
G1 X177.017 Y182.272 E10.28176
G1 X176.704 Y182.89 E10.3048
G1 X176.322 Y183.468 E10.32784
G1 X175.876 Y183.998 E10.35088
G1 X175.372 Y184.473 E10.37391
G1 X174.817 Y184.886 E10.39692
G1 X174.517 Y185.072 E10.40866
G1 X166.317 Y189.808 E10.72362
G1 X165.698 Y190.119 E10.74666
G1 X165.048 Y190.357 E10.76968
G1 X164.374 Y190.518 E10.79273
G1 X163.687 Y190.601 E10.81574
G1 X162.994 Y190.603 E10.83879
G1 X162.306 Y190.526 E10.86182
G1 X161.631 Y190.371 E10.88485
G1 X160.979 Y190.138 E10.90788
G1 X160.358 Y189.832 E10.93091
G1 X159.853 Y189.512 E10.95079
G1 X158.588 Y188.618 E11.00231
G1 X158.076 Y188.212 E11.02405
G1 X155.599 Y186.021 E11.13404
G1 X155.414 Y185.851 E11.14239
G1 X152.077 Y182.641 E11.2964
G1 X151.607 Y182.133 E11.31942
G1 X151.198 Y181.574 E11.34245
G1 X150.856 Y180.972 E11.36548
G1 X150.586 Y180.334 E11.38852
G1 X150.464 Y179.953 E11.40183
G1 X149.106 Y175.159 E11.56755
G1 X148.298 Y172.686 E11.65408
G1 X146.429 Y167.687 E11.83159
G1 X144.292 Y162.828 E12.00814
G1 X141.872 Y158.076 E12.18551
G1 X139.194 Y153.48 E12.36243
G1 X136.276 Y149.065 E12.53845
G1 X133.085 Y144.786 E12.71598
G1 X129.655 Y140.69 E12.89368
G1 X127.907 Y138.773 E12.97996
G1 X124.948 Y135.748 E13.12071
G1 X124.494 Y135.226 E13.14372
G1 X124.102 Y134.655 E13.16675
G1 X123.779 Y134.042 E13.1898
G1 X123.528 Y133.397 E13.21282
G1 X123.421 Y133.024 E13.22572
G1 X122.519 Y129.458 E13.34807
G1 X122.473 Y129.261 E13.35479
G1 X121.926 Y126.743 E13.4405
G1 X121.818 Y126.059 E13.46353
G1 X121.79 Y125.367 E13.48656
G1 X121.842 Y124.676 E13.50961
G1 X121.973 Y123.996 E13.53264
G1 X122.181 Y123.336 E13.55566
G1 X122.464 Y122.704 E13.57869
G1 X122.818 Y122.108 E13.60175
G1 X123.161 Y121.65 E13.62078
G1 X124.801 Y119.663 E13.70647
G1 X127.959 Y115.519 E13.87976
G1 X128.41 Y114.993 E13.9028
M204 S5000
M205 X30 Y30
G0 F3600 X128.714 Y115.255
M204 S500
M205 X20 Y20
G1 F1800 X129.208 Y114.803 E13.92508
G1 X129.928 Y114.308 E13.95414
G1 X136.471 Y110.525 E14.20551
G1 X137.069 Y110.225 E14.22777
G1 X137.699 Y109.999 E14.25003
G1 X138.351 Y109.85 E14.27227
G1 X139.016 Y109.779 E14.29451
G1 X139.685 Y109.788 E14.31677
G1 X140.348 Y109.877 E14.33902
G1 X140.996 Y110.044 E14.36127
G1 X141.619 Y110.288 E14.38353
G1 X142.209 Y110.604 E14.40579
G1 X142.757 Y110.988 E14.42804
G1 X143.255 Y111.434 E14.45028
G1 X143.696 Y111.937 E14.47253
G1 X144.074 Y112.489 E14.49478
G1 X144.384 Y113.082 E14.51704
G1 X144.632 Y113.743 E14.54052
G1 X146.421 Y119.624 E14.74497
G1 X148.269 Y124.604 E14.92164
G1 X149.286 Y127.031 E15.00917
G1 X151.573 Y131.891 E15.18781
G1 X154.115 Y136.585 E15.36536
G1 X156.923 Y141.134 E15.54316
G1 X159.977 Y145.51 E15.72065
G1 X163.299 Y149.737 E15.89946
G1 X164.976 Y151.695 E15.98521
G1 X168.654 Y155.635 E16.16448
G1 X173.071 Y159.838 E16.36727
G1 X173.528 Y160.327 E16.38953
G1 X174.06 Y161.093 E16.42055
G1 X177.06 Y166.285 E16.61999
G1 X177.359 Y166.884 E16.64226
G1 X177.585 Y167.513 E16.66449
G1 X177.735 Y168.165 E16.68674
G1 X177.805 Y168.831 E16.70901
G1 X177.799 Y169.447 E16.7295
G1 X177.104 Y180.236 E17.08909
G1 X177.022 Y180.9 E17.11134
G1 X176.86 Y181.549 E17.13359
G1 X176.623 Y182.175 E17.15585
G1 X176.312 Y182.767 E17.17809
G1 X175.933 Y183.318 E17.20034
G1 X175.491 Y183.821 E17.22261
G1 X174.992 Y184.267 E17.24487
G1 X174.317 Y184.725 E17.272
G1 X166.117 Y189.461 E17.58695
G1 X165.518 Y189.761 E17.60923
G1 X164.889 Y189.987 E17.63146
G1 X164.237 Y190.136 E17.65371
G1 X163.571 Y190.206 E17.67598
G1 X162.902 Y190.197 E17.69824
G1 X162.239 Y190.108 E17.72048
G1 X161.592 Y189.94 E17.74272
G1 X160.968 Y189.696 E17.765
G1 X160.379 Y189.38 E17.78723
G1 X160.084 Y189.185 E17.799
G1 X158.819 Y188.291 E17.85052
G1 X158.341 Y187.913 E17.87078
G1 X155.864 Y185.722 E17.98077
G1 X155.692 Y185.563 E17.98857
G1 X152.355 Y182.353 E18.14257
G1 X151.901 Y181.861 E18.16484
G1 X151.509 Y181.319 E18.18708
G1 X151.185 Y180.733 E18.20935
G1 X150.849 Y179.844 E18.24096
G1 X149.485 Y175.029 E18.40741
G1 X148.679 Y172.563 E18.4937
G1 X146.802 Y167.543 E18.67196
G1 X144.647 Y162.643 E18.85
G1 X142.231 Y157.899 E19.02707
G1 X139.539 Y153.279 E19.20491
G1 X136.592 Y148.819 E19.38271
G1 X133.405 Y144.546 E19.56001
G1 X129.951 Y140.421 E19.73895
G1 X128.205 Y138.506 E19.82514
G1 X125.234 Y135.469 E19.96645
G1 X124.796 Y134.963 E19.98871
G1 X124.421 Y134.409 E20.01096
G1 X124.115 Y133.814 E20.03322
G1 X123.809 Y132.926 E20.06445
G1 X122.907 Y129.36 E20.1868
G1 X122.864 Y129.176 E20.19308
G1 X122.317 Y126.658 E20.27878
G1 X122.214 Y125.997 E20.30103
G1 X122.191 Y125.328 E20.3233
G1 X122.248 Y124.661 E20.34556
G1 X122.383 Y124.006 E20.36781
G1 X122.596 Y123.372 E20.39005
G1 X122.884 Y122.768 E20.41231
G1 X123.241 Y122.202 E20.43456
G1 X123.47 Y121.905 E20.44704
G1 X125.098 Y119.932 E20.53212
G1 X128.277 Y115.761 E20.70654
G1 X128.714 Y115.255 E20.72878
M204 S5000
M205 X30 Y30
G0 F3600 X129.017 Y115.516
M204 S500
M205 X20 Y20
G1 F1800 X129.496 Y115.085 E20.75021
G1 X130.128 Y114.654 E20.77566
G1 X136.671 Y110.871 E21.02703
G1 X137.248 Y110.584 E21.04847
G1 X137.856 Y110.37 E21.0699
G1 X138.486 Y110.233 E21.09135
G1 X139.128 Y110.175 E21.11279
G1 X139.773 Y110.197 E21.13425
G1 X140.409 Y110.298 E21.15567
G1 X141.029 Y110.478 E21.17714
G1 X141.621 Y110.733 E21.19858
G1 X142.177 Y111.059 E21.22002
G1 X142.688 Y111.451 E21.24144
G1 X143.147 Y111.904 E21.26289
G1 X143.547 Y112.41 E21.28434
G1 X143.881 Y112.961 E21.30577
G1 X144.144 Y113.55 E21.32723
G1 X144.249 Y113.859 E21.33808
G1 X146.041 Y119.748 E21.54282
G1 X147.9 Y124.758 E21.72055
G1 X148.918 Y127.187 E21.80815
G1 X151.22 Y132.081 E21.98803
G1 X153.766 Y136.78 E22.16579
G1 X156.588 Y141.352 E22.34449
G1 X159.659 Y145.752 E22.52296
G1 X162.985 Y149.985 E22.70201
G1 X164.685 Y151.97 E22.78893
G1 X168.36 Y155.907 E22.96806
G1 X172.796 Y160.128 E23.17172
G1 X173.234 Y160.6 E23.19314
G1 X173.713 Y161.293 E23.22116
G1 X176.713 Y166.485 E23.4206
G1 X177.001 Y167.063 E23.44208
G1 X177.214 Y167.671 E23.4635
G1 X177.351 Y168.301 E23.48495
G1 X177.409 Y168.943 E23.50639
G1 X177.4 Y169.421 E23.52229
G1 X176.705 Y180.21 E23.88188
G1 X176.624 Y180.85 E23.90333
G1 X176.464 Y181.474 E23.92476
G1 X176.228 Y182.074 E23.9462
G1 X175.92 Y182.641 E23.96766
G1 X175.544 Y183.164 E23.98909
G1 X175.106 Y183.637 E24.01053
G1 X174.613 Y184.053 E24.03198
G1 X174.117 Y184.379 E24.05173
G1 X165.917 Y189.115 E24.36668
G1 X165.34 Y189.402 E24.38811
G1 X164.731 Y189.616 E24.40958
G1 X164.101 Y189.752 E24.43102
G1 X163.459 Y189.81 E24.45246
G1 X162.815 Y189.788 E24.47389
G1 X162.178 Y189.686 E24.49535
G1 X161.559 Y189.506 E24.51679
G1 X160.967 Y189.251 E24.53823
G1 X160.315 Y188.859 E24.56353
G1 X159.05 Y187.965 E24.61505
G1 X158.606 Y187.613 E24.6339
G1 X156.129 Y185.422 E24.74389
G1 X155.969 Y185.275 E24.75111
G1 X152.632 Y182.065 E24.90512
G1 X152.196 Y181.59 E24.92656
G1 X151.822 Y181.065 E24.948
G1 X151.516 Y180.497 E24.96946
G1 X151.234 Y179.735 E24.99649
G1 X149.87 Y174.923 E25.16284
G1 X149.059 Y172.439 E25.24975
G1 X147.169 Y167.385 E25.42921
G1 X145.012 Y162.479 E25.60746
G1 X142.576 Y157.695 E25.78602
G1 X139.876 Y153.062 E25.96437
G1 X136.93 Y148.605 E26.14207
G1 X133.708 Y144.284 E26.32134
G1 X130.259 Y140.165 E26.50003
G1 X128.49 Y138.226 E26.58732
G1 X125.52 Y135.189 E26.72861
G1 X125.099 Y134.701 E26.75005
G1 X124.741 Y134.165 E26.77148
G1 X124.453 Y133.588 E26.79293
G1 X124.197 Y132.828 E26.81961
G1 X123.295 Y129.262 E26.94195
G1 X123.255 Y129.091 E26.94779
G1 X122.708 Y126.573 E27.03349
G1 X122.61 Y125.936 E27.05493
G1 X122.592 Y125.291 E27.07639
G1 X122.654 Y124.65 E27.09781
G1 X122.795 Y124.02 E27.11928
G1 X123.012 Y123.414 E27.14069
G1 X123.303 Y122.838 E27.16215
G1 X123.778 Y122.159 E27.18971
G1 X125.427 Y120.161 E27.27588
G1 X128.595 Y116.004 E27.44971
G1 X129.017 Y115.516 E27.47117
M204 S5000
M205 X30 Y30
G1 F2400 E22.47117
G0 F3600 X132.868 Y118.335
G0 X132.904 Y118.36
G0 X135.246 Y120.075
G0 X135.282 Y120.1
G0 X135.502 Y120.263
M204 S500
M205 X20 Y20
;TYPE:SUPPORT
G1 F2400 E27.47117
G1 F1800 X135.629 Y120.139 E27.47707
G1 X135.774 Y120.054 E27.48266
G1 X135.944 Y120.007 E27.48853
G1 X136.117 Y120.004 E27.49428
G1 X136.291 Y120.045 E27.50023
G1 X136.436 Y120.121 E27.50568
G1 X136.568 Y120.239 E27.51156
G1 X136.667 Y120.388 E27.51751
G1 X136.722 Y120.546 E27.52308
G1 X136.737 Y120.721 E27.52892
G1 X136.708 Y120.895 E27.53479
G1 X136.638 Y121.05 E27.54044
G1 X136.528 Y121.19 E27.54637
G1 X136.396 Y121.29 E27.55187
G1 X136.23 Y121.359 E27.55785
G1 X136.058 Y121.385 E27.56364
G1 X135.886 Y121.367 E27.56939
G1 X135.722 Y121.306 E27.57521
G1 X135.583 Y121.21 E27.58083
G1 X135.465 Y121.072 E27.58687
G1 X135.392 Y120.925 E27.59233
G1 X135.354 Y120.746 E27.59841
G1 X135.361 Y120.575 E27.60411
G1 X135.41 Y120.415 E27.60967
G1 X135.502 Y120.263 E27.61558
M204 S5000
M205 X30 Y30
G0 F3600 X136.017 Y120.205
M204 S500
M205 X20 Y20
G1 F1800 X136.017 Y121.179 E27.64798
M204 S5000
M205 X30 Y30
G1 F2400 E22.64798
G0 F3600 X136.315 Y121.615
G0 X136.34 Y121.652
G0 X150.684 Y142.541
G0 X164.264 Y165.999
G0 X166.112 Y165.008
G0 X167.576 Y167.14
G0 X167.601 Y167.177
G0 X167.757 Y167.402
M204 S500
M205 X20 Y20
G1 F2400 E27.64798
G1 F1800 X167.913 Y167.328 E27.65372
G1 X168.073 Y167.297 E27.65914
G1 X168.255 Y167.309 E27.66521
G1 X168.421 Y167.363 E27.67101
G1 X168.565 Y167.455 E27.6767
G1 X168.687 Y167.585 E27.68263
G1 X168.767 Y167.73 E27.68813
G1 X168.812 Y167.906 E27.69418
G1 X168.812 Y168.073 E27.69973
G1 X168.767 Y168.245 E27.70564
G1 X168.684 Y168.398 E27.71143
G1 X168.57 Y168.518 E27.71694
G1 X168.414 Y168.618 E27.7231
G1 X168.259 Y168.668 E27.72852
G1 X168.077 Y168.679 E27.73458
G1 X167.912 Y168.649 E27.74016
G1 X167.755 Y168.574 E27.74595
G1 X167.62 Y168.462 E27.75178
G1 X167.516 Y168.32 E27.75764
G1 X167.453 Y168.157 E27.76345
G1 X167.43 Y167.989 E27.76909
G1 X167.453 Y167.821 E27.77473
G1 X167.517 Y167.657 E27.78058
G1 X167.62 Y167.516 E27.78639
G1 X167.757 Y167.402 E27.79232
M204 S5000
M205 X30 Y30
G0 F3600 X168.021 Y167.51
M204 S500
M205 X20 Y20
G1 F1800 X168.021 Y168.465 E27.82408
M204 S5000
M205 X30 Y30
G0 F3600 X167.636 Y168.021
M204 S500
M205 X20 Y20
G1 F1800 X168.612 Y168.021 E27.85654
M204 S5000
M205 X30 Y30
G1 F2400 E22.85654
;MESH:V2PlatinenschutzRadLinks.stl
G0 F3600 X165.967 Y168.364
G0 X165.819 Y167.989
G0 X165.919 Y167.989
M204 S500
M205 X20 Y20
;TYPE:WALL-INNER
G1 F2400 E27.85654
G1 F1800 X165.99 Y168.537 E27.87492
G1 X166.191 Y169.051 E27.89328
G1 X166.517 Y169.498 E27.91168
G1 X166.943 Y169.85 E27.93006
G1 X167.443 Y170.087 E27.94846
G1 X167.986 Y170.189 E27.96684
G1 X168.538 Y170.155 E27.98523
G1 X169.064 Y169.984 E28.00363
G1 X169.529 Y169.688 E28.02196
G1 X169.908 Y169.286 E28.04034
G1 X170.174 Y168.8 E28.05877
G1 X170.312 Y168.266 E28.07711
G1 X170.312 Y167.774 E28.09348
G1 X170.312 Y167.713 E28.0955
G1 X170.174 Y167.177 E28.11391
G1 X169.908 Y166.694 E28.13225
G1 X169.529 Y166.29 E28.15068
G1 X169.415 Y166.218 E28.15516
G1 X169.064 Y165.995 E28.16899
G1 X168.538 Y165.824 E28.18739
G1 X167.986 Y165.789 E28.20579
G1 X167.897 Y165.806 E28.2088
G1 X167.443 Y165.893 E28.22417
G1 X166.943 Y166.127 E28.24253
G1 X166.517 Y166.48 E28.26094
G1 X166.363 Y166.691 E28.26962
G1 X166.191 Y166.927 E28.27934
G1 X165.99 Y167.441 E28.29769
G1 X165.919 Y167.989 E28.31607
M204 S5000
M205 X30 Y30
G0 F3600 X165.819 Y167.989
G0 X165.343 Y173.831
G0 X165.247 Y173.806
